!!!!SEGMENT: pl-cz--iii-225--003_fleming-jan--missa-in-d-credo.krn
!!!cenid: 17xx:212
!!!COM: Fleming, Jan
!!!COM-rismID: pe30093579
!!!CDT: <1796->1796
!!!CNT:
!!!OPR: Missa in D
!!!OTL: Credo
!!!OMV: 003
!!!PDT:
!!!AGN: Sacred; Mass
!!!SMS-siglum: PL-CZ
!!!SMS-shelfmark: III-225
!!!SMS-shelfwork: 001-003 M
!!!NIFC-rismSourceID: 300000325
!!!NIFC-rismChildID: 300000325
!!!NIFC-islandoraID: pl-cz:36768
!!!URL-pdf-islandora: https://repozytorium.nifc.pl/islandora/object/pl-cz%3A36768/datastream/PDF/view
!!!URL-scan:
!!!ONB-nifc: UWAGA: części Mszy: Kyrie, Gloria, Credo, Sanctus, Agnus
!!!AIN: 1 alto 4 empty 2 flt 1 tenor 2 violn 1 vox
!!!key:
**kern	**dynam	**kern	**dynam	**kern	**dynam	**kern	**text	**kern	**text	**kern	**text	**kern	**text	**kern	**kern	**kern	**kern
*part11	*part11	*part10	*part10	*part9	*part9	*part8	*part8	*part7	*part7	*part6	*part6	*part5	*part5	*part4	*part3	*part2	*part1
*staff11	*staff11	*staff10	*staff10	*staff9	*staff9	*staff8	*staff8	*staff7	*staff7	*staff6	*staff6	*staff5	*staff5	*staff4	*staff3	*staff2	*staff1
*Iempty	*	*Ivioln	*	*Ivioln	*	*Iempty	*	*Itenor	*	*Ialto	*	*Ivox	*	*Iempty	*Iempty	*Iflt	*Iflt
*I"Baſso [continuo]	*	*I"Violino secondo	*	*I"Violino primo	*	*I"Baſso	*	*I"Tenore	*	*I"Alto	*	*I"Canto	*	*I"Cornu secondo in D	*I"Cornu primo in D	*I"Flauto Secondo	*I"Flauto Primo
*I'Bc	*	*I'Vn II	*	*I'Vn I	*	*I'B	*	*I'T	*	*I'A	*	*I'C	*	*I'Cor II	*I'Cor I	*Fl2	*Fl1
*clefF4	*	*clefG2	*	*clefG2	*	*clefF4	*	*clefC4	*	*clefC3	*	*clefC1	*	*clefG2	*clefG2	*clefG2	*clefG2
*	*	*	*	*	*	*	*	*	*	*	*	*	*	*ITrd-1c-2	*ITrd-1c-2	*	*
*k[f#c#]	*	*k[f#c#]	*	*k[f#c#]	*	*k[f#c#]	*	*k[f#c#]	*	*k[f#c#]	*	*k[f#c#]	*	*k[f#c#]	*k[f#c#]	*k[f#c#]	*k[f#c#]
*D:	*	*D:	*	*D:	*	*D:	*	*D:	*	*D:	*	*D:	*	*	*	*	*
*M3/4	*	*M3/4	*	*M3/4	*	*M3/4	*	*M3/4	*	*M3/4	*	*M3/4	*	*M3/4	*M3/4	*M3/4	*M3/4
=1	=1	=1	=1	=1	=1	=1	=1	=1	=1	=1	=1	=1	=1	=1	=1	=1	=1
!LO:TX:b:t=Credo.	!	!	!	!LO:TX:a:t=allo n molto	!	!	!	!	!	!LO:TX:a:t=Allo	!	!	!	!	!	!	!
4D\	.	4d/ 4a 4ff#	.	4d/ 4a 4ff#	.	4d\	Cre-	4A\	Cre-	4a\	Cre-	4ff#\	Cre-	4dd\	4ff#\	2.ryy	2.ryy
8D\L	.	8d/L 8a 8ff#	.	8d/L 8a 8ff#	.	8D\	.	8A\	.	8a\	.	8ff#\	.	4dd\	4ff#\	.	.
8d\	.	8dd/	.	8dd/	f	8d\	.	8d\	.	8dd\	.	8dd\	.	.	.	.	.
8c#\	.	8cc#/	.	8cc#/	.	(8c#\L	-do	(8c#\L	-do	(8f#\L	-do	(8cc#\L	-do	4r	4r	.	.
8d\J	.	8dd/J	.	8dd/J	.	8d\J)	.	8d\J)	.	8g\J)	.	8dd\J)	.	.	.	.	.
=2	=2	=2	=2	=2	=2	=2	=2	=2	=2	=2	=2	=2	=2	=2	=2	=2	=2
!	!	!	!	!	!	!	!	!	!	!	!	!	!	!LO:N:vis=0	!LO:N:vis=0	!	!
4B\	.	4b\	.	4b\	.	4B\	in	4B\	in	4a\	in	4b\	in	1.r	1.r	2.ryy	2.ryy
8A\L	.	8a\L	.	8a\L	.	8A\	u-	8A\	u-	8a\	u-	8a\	u-	.	.	.	.
8d\	.	8dd\	.	8dd\	.	8d\	.	8d\	num-	8dd\	.	8dd\	.	.	.	.	.
8c#\	.	8cc#\	.	8cc#\	.	8c#\L	.	8c#\L	.	8f#\L	-num	(8cc#\L	-num	.	.	.	.
8d\J	.	8dd\J	.	8dd\J	.	8d\J	-num	8d\J	.	8g\J	.	8dd\J)	.	.	.	.	.
=3	=3	=3	=3	=3	=3	=3	=3	=3	=3	=3	=3	=3	=3	=3	=3	=3	=3
4G\	.	4g/	.	4g/	.	4G\	De-	4G/	-De-	4a\	De-	4g\	De-	.	.	2.ryy	2.ryy
4F#\	.	4f#/	.	4f#/	.	4F#\	-um	4F#/	-um	4f#\	-um	4f#\	-um	.	.	.	.
4r	.	4r	.	4r	.	4r	.	4r	.	4r	.	4r	.	.	.	.	.
=4	=4	=4	=4	=4	=4	=4	=4	=4	=4	=4	=4	=4	=4	=4	=4	=4	=4
8D\L	.	16dd\LL	.	16dd\LL	.	8D\	pa-	8A\	Pa-	8a\	Pa-	8ff#\	Pa-	4dd\	4ff#\	2.ryy	2.ryy
.	.	16ff#\	.	16ddd\	.	.	.	.	.	.	.	.	.	.	.	.	.
8E\	.	16ff#\	.	16ddd\	.	8E\	-trem	8A\	-trem	8a\	-trem	8ff#\	-trem	.	.	.	.
.	.	16ff#\JJ	.	16ddd\JJ	.	.	.	.	.	.	.	.	.	.	.	.	.
*	*	*	*	*tremolo	*	*	*	*	*	*	*	*	*	*	*	*	*
8F#\	.	16ff#\LL	.	16ddd\LL	.	8F#\	o-	8A\	.	8a\	o-	8ff#\	o-	8dd\L	8ff#\L	.	.
.	.	16ff#\	.	16ddd\	.	.	.	.	.	.	.	.	.	.	.	.	.
8G\	.	16ff#\	.	16ddd\	.	8G\	.	8d\	-om-	8a\	-mni-	8ff#\	.	8dd\	8ff#\	.	.
.	.	16ff#\JJ	.	16ddd\JJ	.	.	.	.	.	.	.	.	.	.	.	.	.
8A\	.	16ee\LL	.	16ccc#\LL	.	8A\	-mni-	(8c#\L	-ni-	8a\	-po-	(8ee\	-mni	8a\	8ee\	.	.
.	.	16ee\	.	16gg\	.	.	.	.	.	.	.	.	.	.	.	.	.
!LO:TX:t=P:mixedbeam:problem	!	!	!	!	!	!	!	!	!	!	!	!	!	!	!	!	!
8AA/J	.	16ee\	.	16gg\	.	8AA/	po-	8e\J)	po	8a\	.	8gg\)	po-	8ee\J	8gg\J	.	.
.	.	16ee\JJ	.	16gg\JJ	.	.	.	.	.	.	.	.	.	.	.	.	.
=5	=5	=5	=5	=5	=5	=5	=5	=5	=5	=5	=5	=5	=5	=5	=5	=5	=5
!	!	!	!	!	!	!	!	!	!	!LO:LB:g=original	!	!LO:LB:g=original	!	!	!	!	!
8D\L	.	16dd\LL	.	16ff#\LL	.	8D\	-ten-	4d\	-ten-	4a\	-ten-	4ff#\	-ten-	4dd\	4ff#\	2.ryy	2.ryy
.	.	16ff#\	.	16ddd\	.	.	.	.	.	.	.	.	.	.	.	.	.
8E\	.	16ff#\	.	16ddd\	.	8E\	tem	.	.	.	.	.	.	.	.	.	.
.	.	16ff#\JJ	.	16ddd\JJ	.	.	.	.	.	.	.	.	.	.	.	.	.
8F#\	.	16ff#\LL	.	16ddd\LL	.	8F#\	.	8A\	-te	8a\	-tem	8ff#\	-tem	8dd\L	8ff#\L	.	.
.	.	16ff#\	.	16ddd\	.	.	.	.	.	.	.	.	.	.	.	.	.
!	!	!	!	!	!	!	!	!LO:SIC:o=:v:tekst błędny	!	!	!	!	!	!	!	!	!
8G\	.	16ff#\	.	16ddd\	.	8G\	fa-	8d\	.	8a\	fa-	8ff#\	fa-	8dd\	8ff#\	.	.
.	.	16ff#\JJ	.	16ddd\JJ	.	.	.	.	.	.	.	.	.	.	.	.	.
8A\	.	16ee\LL	.	16ccc#\LL	.	8A\	-cto-	8c#\	-nt-	8a\	-cto-	8ee\	-cto-	8a\	8ee\	.	.
.	.	16ee\	.	16gg\	.	.	.	.	.	.	.	.	.	.	.	.	.
!LO:TX:t=P:problem=mixedbeam	!	!	!	!	!	!	!	!	!	!	!	!	!	!	!	!	!
8AA\J	.	16ee\	.	16gg\	.	8AA/	-rem	8e\	-em	8a\	-rem	8gg\	-rem	8ee\J	8gg\J	.	.
.	.	16ee\JJ	.	16gg\JJ	.	.	.	.	.	.	.	.	.	.	.	.	.
*	*	*	*	*Xtremolo	*	*	*	*	*	*	*	*	*	*	*	*	*
=6	=6	=6	=6	=6	=6	=6	=6	=6	=6	=6	=6	=6	=6	=6	=6	=6	=6
!	!	!LO:PB:g=original	!	!	!	!LO:LB:g=original	!	!LO:LB:g=original	!	!	!	!	!	!	!	!	!
*	*	*	*	*	*	*	*	*4\right	*	*	*	*	*	*	*	*	*
4D\	.	4dd\	.	4ff#\	.	4D\	Cae-	4d\	Cae-	4a\	cae-	4ff#\	cae-	4dd\	4ff#\	2.ryy	2.ryy
8D\L	.	4ff#\	.	4ddd\	.	8D\L	-li	4A\	-li	4dd\	-li	4ff#\	-li	4dd\	4ff#\	.	.
8E\	.	.	.	.	.	8E\	.	.	.	.	.	.	.	.	.	.	.
8F#\	.	4ff#\	.	4ddd\	.	8F#\	.	4d\	et	8f#\L	et	4ff#\	et	4dd\	4ff#\	.	.
8G\J	.	.	.	.	.	8G\J	et	.	.	8g\J	.	.	.	.	.	.	.
=7	=7	=7	=7	=7	=7	=7	=7	=7	=7	=7	=7	=7	=7	=7	=7	=7	=7
!LO:LB:g=original	!	!	!	!	!	!	!	!	!	!	!	!	!	!	!	!	!
4A\	.	4ff#\	.	4ddd\	.	4A\	ter-	4d\	ter-	4a\	ter-	4ff#\	ter-	4dd\	4ff#\	2.ryy	2.ryy
!	!	!	!	!	!	!LO:SIC:o:s=:v:tekst:rae	!	!	!	!	!	!	!	!	!	!	!
4AA/	.	4ee\	.	4ccc#\	.	4AA/	-re	4c#\	-rae	4a\	-rae	4ee\	-re	8a/L	8ee\L	.	.
.	.	.	.	.	.	.	.	.	.	.	.	.	.	8a/J	8ee\J	.	.
4r	.	4r	.	4r	.	4r	.	4r	.	4r	.	4r	.	4a/	4ee\	.	.
=8	=8	=8	=8	=8	=8	=8	=8	=8	=8	=8	=8	=8	=8	=8	=8	=8	=8
!	!	!	!	!LO:LB:g=original	!	!	!	!	!	!	!	!	!	!	!	!	!
*	*	*Xtuplet	*	*	*	*	*	*2\right	*	*2\right	*	*2\right	*	*	*	*	*
!	!	!	!	!LO:TUP:a	!	!	!	!	!	!	!	!	!	!	!	!	!
4A\	.	(12cc#\L	.	(12ee\L	.	2A\	vi-	2c#\	vi-	2a\	vi-	2ee\	vi-	4a/	4ee\	2.ryy	2.ryy
.	.	12dd\	.	12ff#\	.	.	.	.	.	.	.	.	.	.	.	.	.
.	.	12ee\J)	.	12gg\J)	.	.	.	.	.	.	.	.	.	.	.	.	.
!	!	!	!	!LO:TUP:a	!	!	!	!	!	!	!	!	!	!	!	!	!
4A\	.	(12ee\L	.	(12gg\L	.	.	.	.	.	.	.	.	.	8a/L	8ee\L	.	.
.	.	12dd\	.	12ff#\	.	.	.	.	.	.	.	.	.	.	.	.	.
.	.	.	.	.	.	.	.	.	.	.	.	.	.	8a/J	8ee\J	.	.
.	.	12cc#\J)	.	12ee\J)	.	.	.	.	.	.	.	.	.	.	.	.	.
4D\	.	4dd\	.	4ff#\	.	4D\	-si-	4d\	-si-	4a\	-si-	4ff#\	-si-	4a/	4ff#\	.	.
=9	=9	=9	=9	=9	=9	=9	=9	=9	=9	=9	=9	=9	=9	=9	=9	=9	=9
!	!	!	!	!LO:TUP:a	!	!	!	!	!	!	!	!	!	!	!	!	!
4AA/	.	(12cc#\L	.	(12ee\L	.	4A\	-bi-	4c#\	-bi-	4a\	-bi-	4ee\	-bi-	4a/	4ee\	2.ryy	2.ryy
.	.	12dd\	.	12ff#\	.	.	.	.	.	.	.	.	.	.	.	.	.
.	.	12ee\J)	.	12gg\J)	.	.	.	.	.	.	.	.	.	.	.	.	.
!	!	!	!	!LO:TUP:a	!	!	!	!	!	!	!	!	!	!	!	!	!
4AA/	.	(12ee\L	.	(12gg\L	.	4A\	-li-	4c#\	-li-	4a\	-li-	4ee\	-li-	8a/L	8ee\L	.	.
.	.	12dd\	.	12ff#\	.	.	.	.	.	.	.	.	.	.	.	.	.
.	.	.	.	.	.	.	.	.	.	.	.	.	.	8a/J	8ee\J	.	.
.	.	12cc#\J)	.	12ee\J)	.	.	.	.	.	.	.	.	.	.	.	.	.
4D\	.	4dd\	.	4ff#\	.	4D\	-um	4d\	-um	4a\	-um	4ff#\	-um	4dd\	4ff#\	.	.
=10	=10	=10	=10	=10	=10	=10	=10	=10	=10	=10	=10	=10	=10	=10	=10	=10	=10
!	!	!	!	!LO:TUP:a	!	!	!	!	!	!	!	!	!	!	!	!	!
4AA/	.	(12cc#\L	.	(12ee\L	.	4A\	vi-	4c#\	in-	4a\	o-	4ee\	o-	4a/	4ee\	2.ryy	2.ryy
.	.	12dd\	.	12ff#\	.	.	.	.	.	.	.	.	.	.	.	.	.
.	.	12ee\J)	.	12gg\J)	.	.	.	.	.	.	.	.	.	.	.	.	.
!	!	!	!	!LO:TUP:a	!	!	!	!	!	!	!	!	!	!	!	!	!
4AA/	.	(12ee\L	.	(12gg\L	.	4A\	-si-	4c#\	-vi-	4a\	-mni-	4ee\	-mni-	8a/L	4ee\	.	.
.	.	12dd\	.	12ff#\	.	.	.	.	.	.	.	.	.	.	.	.	.
.	.	.	.	.	.	.	.	.	.	.	.	.	.	8a/J	.	.	.
.	.	12cc#\J)	.	12ee\J)	.	.	.	.	.	.	.	.	.	.	.	.	.
!	!	!	!	!LO:TUP:a	!	!	!	!	!	!	!	!	!	!	!	!	!
4AA/	.	(12cc#\L	.	(12ee\L	.	4A\	-bi-	4c#\	-si-	4a\	-um	4ee\	-um	4dd/	4ee\	.	.
.	.	12b\	.	12dd\	.	.	.	.	.	.	.	.	.	.	.	.	.
.	.	12a\J)	.	12cc#\J)	.	.	.	.	.	.	.	.	.	.	.	.	.
=11	=11	=11	=11	=11	=11	=11	=11	=11	=11	=11	=11	=11	=11	=11	=11	=11	=11
!	!	!	!	!	!	!	!	!	!	!	!	!LO:LB:g=original	!	!	!	!	!
*	*	*	*	*Xtuplet	*	*	*	*	*	*	*	*	*	*	*	*	*
4AA/	.	(12a/L	.	(12cc#\L	.	4A\	-li-	4c#\	-bi-	4a\	et	4ee\	et	4a/	4ee\	2.ryy	2.ryy
.	.	12g/	.	12b\	.	.	.	.	.	.	.	.	.	.	.	.	.
.	.	12f#/J)	.	12a\J)	.	.	.	.	.	.	.	.	.	.	.	.	.
*	*	*	*	*tuplet	*	*	*	*	*	*	*	*	*	*	*	*	*
!	!	!	!	!LO:TUP:b	!	!	!	!	!	!	!	!	!	!	!	!	!
4AA/	.	(12f#/L	.	(12a/L	.	4A\	-um	4c#\	-lium	4a\	.	(4ee\	in-	4a/	8ee\L	.	.
.	.	12e/	.	12g/	.	.	.	.	.	.	.	.	.	.	.	.	.
.	.	.	.	.	.	.	.	.	.	.	.	.	.	.	8ee\J	.	.
.	.	12d/J)	.	12f#/J)	.	.	.	.	.	.	.	.	.	.	.	.	.
4C#/	.	4e/	.	4g/	.	8A\	et	8c#\	et	8cc#\	.	8ee\)	.	4a/	4ee\	.	.
.	.	.	.	.	.	8A\	in-	8c#\	in-	8a\	in	8ee\	.	.	.	.	.
=12	=12	=12	=12	=12	=12	=12	=12	=12	=12	=12	=12	=12	=12	=12	=12	=12	=12
!	!	!	!	!	!	!	!	!	!	!LO:LB:g=original	!	!	!	!	!	!	!
!	!	!	!	!LO:TX:t=P:problem=mixedbeam	!	!	!	!	!	!	!	!	!	!	!	!	!
4D\	.	8d/L	.	8f#/L	.	8D\	-vi-	8d\	-vi-	8dd\	-vi-	8ff#\	-vi-	4a/	4ff#\	2.ryy	2.ryy
.	.	8f#/J	.	8dd\J	.	8D\	-si-	8d\	-si-	8dd\	-si-	8ff#\	-si-	.	.	.	.
!	!	!	!	!LO:TX:t=P:problem=mixedbeam	!	!	!	!	!	!	!	!	!	!	!	!	!
4A\	.	4c#/	.	8e/L	.	4A\	-bi-	4c#\	-bi-	4a\	-bi-	4ee\	-bi-	8a/L	4ee\	.	.
.	.	.	.	8cc#\J	.	.	.	.	.	.	.	.	.	8a/J	.	.	.
4AA/	.	4e/	.	4cc#\	.	4AA/	-li-	4c#\	-li-	4a\	-li-	4ee\	-li-	4ryy	4ee\	.	.
=13	=13	=13	=13	=13	=13	=13	=13	=13	=13	=13	=13	=13	=13	=13	=13	=13	=13
!	!	!LO:PB:g=original	!	!	!	!	!	!	!	!	!	!	!	!	!	!	!
!	!	!	!	!	!	!LO:TX:a:rj:t=Solo	!	!	!	!	!	!	!	!	!	!	!
4D\	.	4f#/	.	4dd\	.	4D\	-um	4d\	-um	4d\	-um	4ff#\	-um	4dd\	4ff#\	2.ryy	2.ryy
4r	.	4r	.	4r	.	4d\	et	4r	.	4r	.	4r	.	4r	4r	.	.
4r	.	4r	.	4r	.	4d\	in	4r	.	4r	.	4r	.	4r	4r	.	.
=14	=14	=14	=14	=14	=14	=14	=14	=14	=14	=14	=14	=14	=14	=14	=14	=14	=14
!	!	!	!	!	!	!	!	!LO:LB:g=original	!	!	!	!	!	!LO:LB:g=original	!	!	!
!LO:TX:a:t=1.	!	!LO:TX:a:t=1	!	!LO:TX:a:t=1	!	!	!	!	!	!	!	!	!	!	!	!	!
2.r	.	2.r	.	2.r	.	4d\	u-	2.r	.	2.r	.	2.r	.	2.r	2.r	2.ryy	2.ryy
.	.	.	.	.	.	4cn\	.	.	.	.	.	.	.	.	.	.	.
.	.	.	.	.	.	4B\	-num	.	.	.	.	.	.	.	.	.	.
=15	=15	=15	=15	=15	=15	=15	=15	=15	=15	=15	=15	=15	=15	=15	=15	=15	=15
!	!	!	!	!	!	!LO:LB:g=original	!	!	!	!	!	!	!	!	!	!	!
*	*	*	*	*tremolo	*	*	*	*	*	*	*	*	*	*	*2\right	*	*
*tremolo	*	*	*	*2\right	*	*	*	*	*	*	*	*	*	*	*tremolo	*	*
8D\L	.	16ccn\LL	.	16aa\LL	.	4D\	et	4A\	Et	4dd\	Et	4ff#\	et	4dd\	8ff#\L	2.ryy	2.ryy
.	.	16cc\	.	16aa\	.	.	.	.	.	.	.	.	.	.	.	.	.
8D\	.	16cc\	.	16aa\	.	.	.	.	.	.	.	.	.	.	8ff#\	.	.
.	.	16cc\JJ	.	16aa\	.	.	.	.	.	.	.	.	.	.	.	.	.
*	*	*tremolo	*	*	*	*	*	*	*	*	*	*	*	*	*	*	*
8D\	.	16cc\LL	.	16aa\	.	4D\	in	4A\	in	4dd\	in	4ff#\	in	8dd\L	8ff#\	.	.
.	.	16cc\	.	16aa\	.	.	.	.	.	.	.	.	.	.	.	.	.
8D\	.	16cc\	.	16aa\	.	.	.	.	.	.	.	.	.	8dd\	8ff#\J	.	.
.	.	16cc\JJ	.	16aa\	.	.	.	.	.	.	.	.	.	.	.	.	.
*	*	*	*	*	*	*	*	*	*	*	*	*	*	*	*Xtremolo	*	*
8D\	.	16cc\LL	.	16aa\	.	8D\	u-	8A\	u-	8f#\	u-	8ff#\	u-	8dd\	4ff#\	.	.
.	.	16cc\	.	16aa\	.	.	.	.	.	.	.	.	.	.	.	.	.
8D\J	.	16cc\	.	16aa\	.	8D\	-num	8A\	-num	8f#\	-num	8ff#\	-num	8dd\J	.	.	.
.	.	16cc\JJ	.	16aa\JJ	.	.	.	.	.	.	.	.	.	.	.	.	.
*	*	*Xtremolo	*	*	*	*	*	*	*	*	*	*	*	*	*	*	*
=16	=16	=16	=16	=16	=16	=16	=16	=16	=16	=16	=16	=16	=16	=16	=16	=16	=16
!	!	!	!	!LO:LB:g=original	!	!	!	!	!	!	!	!	!	!	!LO:LB:g=original	!	!
*	*	*	*	*	*	*	*	*	*	*	*	*	*	*2\right	*	*	*
8G\L	.	8b\L	.	8gg\L	.	4.G\	Do-	4.B\	Do-	4.g\	Do-	4.gg\	Do-	2dd\	2gg\	2.ryy	2.ryy
8G\	.	8gg\	.	8gg\	.	.	.	.	.	.	.	.	.	.	.	.	.
8G\	.	8dd\	.	8dd\	.	.	.	.	.	.	.	.	.	.	.	.	.
8G\	.	8b\J	.	8b\J	.	16ryy	.	8B\	-mi-	8g\	-mi-	8gg\	-mi-	.	.	.	.
.	.	.	.	.	.	16G\	mi	.	.	.	.	.	.	.	.	.	.
8G\	.	8g/L	.	8g/L	.	4G\	-num	4B\	-num	4g\	-num	4gg\	-num	4dd\	4gg\	.	.
8G\J	.	8G/J	.	8G/J	.	.	.	.	.	.	.	.	.	.	.	.	.
*Xtremolo	*	*	*	*	*	*	*	*	*	*	*	*	*	*	*	*	*
=17	=17	=17	=17	=17	=17	=17	=17	=17	=17	=17	=17	=17	=17	=17	=17	=17	=17
!LO:LB:g=original	!	!	!	!	!	!	!	!	!	!	!	!	!	!	!	!	!
!	!	!	!	!	!	!	!	!	!	!LO:TX:a:t=2	!	!	!	!	!	!	!
!	!	!	!	!	!	!	!	!LO:N:vis=0	!	!LO:N:vis=0	!	!	!	!LO:N:vis=0	!LO:N:vis=0	!	!
4D\	.	4e\ 4b 4gg#X	.	4e/ 4b 4gg#X	.	4r	.	1.r	.	1.r	.	2.r	.	1.r	1.r	2.ryy	2.ryy
4r	.	4r	.	4r	.	4e\	Et	.	.	.	.	.	.	.	.	.	.
4r	.	4r	.	4r	.	4e\	in	.	.	.	.	.	.	.	.	.	.
=18	=18	=18	=18	=18	=18	=18	=18	=18	=18	=18	=18	=18	=18	=18	=18	=18	=18
!LO:TX:a:t=1.	!	!LO:TX:a:t=1	!	!LO:TX:a:t=1	!	!	!	!	!	!	!	!	!	!	!	!	!
2.r	.	2.r	.	2.r	.	(4e\	u-	.	.	.	.	2.r	.	.	.	2.ryy	2.ryy
.	.	.	.	.	.	4d\)	.	.	.	.	.	.	.	.	.	.	.
.	.	.	.	.	.	4B\	-num	.	.	.	.	.	.	.	.	.	.
=19	=19	=19	=19	=19	=19	=19	=19	=19	=19	=19	=19	=19	=19	=19	=19	=19	=19
*tremolo	*	*	*	*	*	*	*	*	*	*	*	*	*	*	*	*	*
*2\right	*	*	*	*	*	*	*	*	*	*	*	*	*	*	*	*	*
8E\L	.	16dd\LL	.	16bb\LL	f	4E\	et	4B\	et	4ee\	Et	4gg#X\	et	4ee\	4gg#X\	2.ryy	2.ryy
.	.	16dd\	.	16bb\	.	.	.	.	.	.	.	.	.	.	.	.	.
8E\	.	16dd\	.	16bb\	.	.	.	.	.	.	.	.	.	.	.	.	.
.	.	16dd\JJ	.	16bb\	.	.	.	.	.	.	.	.	.	.	.	.	.
*	*	*tremolo	*	*	*	*	*	*	*	*	*	*	*	*	*tremolo	*	*
8E\	.	16dd\LL	.	16bb\	.	4E\	in	4B\	in	4ee\	in	4gg#\	in	8ee\L	8gg#\L	.	.
.	.	16dd\	.	16bb\	.	.	.	.	.	.	.	.	.	.	.	.	.
8E\	.	16dd\	.	16bb\	.	.	.	.	.	.	.	.	.	8ee\	8gg#\	.	.
.	.	16dd\JJ	.	16bb\	.	.	.	.	.	.	.	.	.	.	.	.	.
8E\	.	16dd\LL	.	16bb\	.	8E\	u-	8B\	u-	8g#X\	u-	8gg#\	u-	8ee\	8gg#\	.	.
.	.	16dd\	.	16bb\	.	.	.	.	.	.	.	.	.	.	.	.	.
8E\J	.	16dd\	.	16bb\	.	8E\	-num	8B\	-num	8g#\	-num	8gg#\	-num	8ee\J	8gg#\J	.	.
.	.	16dd\JJ	.	16bb\JJ	.	.	.	.	.	.	.	.	.	.	.	.	.
*	*	*Xtremolo	*	*	*	*	*	*	*	*	*	*	*	*	*Xtremolo	*	*
=20	=20	=20	=20	=20	=20	=20	=20	=20	=20	=20	=20	=20	=20	=20	=20	=20	=20
!	!	!	!	!	!	!	!	!	!	!	!	!LO:LB:g=original	!	!	!	!	!
8A\L	.	16cc#\LL	.	8aa\L	.	4.A\	Do-	4.c#\	Do-	4.a\	Do-	4.aa\	Do-	2ee\	2aa\	2.ryy	2.ryy
.	.	16aa\	.	.	.	.	.	.	.	.	.	.	.	.	.	.	.
8A\	.	16ee\	.	8aa\	.	.	.	.	.	.	.	.	.	.	.	.	.
.	.	16cc#\JJ	.	.	.	.	.	.	.	.	.	.	.	.	.	.	.
8A\	.	8a/L	.	8ee\	.	.	.	.	.	.	.	.	.	.	.	.	.
8A\	.	8A/	.	8cc#\J	.	8A\	-mi-	8c#\	-mi-	8a\	-mi-	8aa\	-mi-	.	.	.	.
8A\	.	8a/	.	8a/L	.	4A\	-num	4c#\	-num	4a\	-num	4aa\	-num	4ee\	4aa\	.	.
8A\J	.	8A/J	.	8A/J	.	.	.	.	.	.	.	.	.	.	.	.	.
*Xtremolo	*	*	*	*	*	*	*	*	*	*	*	*	*	*	*	*	*
=21	=21	=21	=21	=21	=21	=21	=21	=21	=21	=21	=21	=21	=21	=21	=21	=21	=21
!	!	!LO:PB:g=original	!	!	!	!	!	!	!	!LO:LB:g=original	!	!	!	!	!	!	!
4d\	.	4ff#\	.	8ff#\L	.	4d\	Je-	4A\	Je-	4a\	Je-	4ff#\	Je-	4dd\	4ff#\	2.ryy	2.ryy
.	.	.	.	16dd\L	.	.	.	.	.	.	.	.	.	.	.	.	.
.	.	.	.	16ff#\JJ	.	.	.	.	.	.	.	.	.	.	.	.	.
*	*	*	*	*2\right	*	*	*	*	*	*	*	*	*	*	*	*	*
4c#\	.	4ee\	.	2aa\	.	4c#\	.	4A\	.	4a\	.	4ee\	.	4r	4r	.	.
4B\	.	4dd\	.	.	.	4B\	-sum	4A\	-sum	4a\	-sum	4dd\	-sum	4r	4r	.	.
=22	=22	=22	=22	=22	=22	=22	=22	=22	=22	=22	=22	=22	=22	=22	=22	=22	=22
4c#\	.	4ee\	.	8ee\L	.	4c#\	Chri-	4A\	Chri-	4a\	Chri-	4ee\	Chri-	4a/	4ee\	2.ryy	2.ryy
.	.	.	.	16cc#\L	.	.	.	.	.	.	.	.	.	.	.	.	.
.	.	.	.	16ee\JJ	.	.	.	.	.	.	.	.	.	.	.	.	.
4B\	.	4dd\	.	2aa\	.	4B\	.	4G#X\	.	4a\	.	4dd\	.	4r	4r	.	.
4A\	.	4cc#\	.	.	.	4A\	-stum	4A\	.	4a\	-stum	4cc#\	-stum	4r	4r	.	.
=23	=23	=23	=23	=23	=23	=23	=23	=23	=23	=23	=23	=23	=23	=23	=23	=23	=23
!	!	!	!	!	!	!	!	!LO:PB:g=original	!	!	!	!	!	!	!	!	!
!	!	!LO:N:vis=4	!	!	!	!	!	!	!	!	!	!	!	!	!	!	!
8D\L	.	8f#/	.	8dd\L	.	8D\L	.	8F#/	tum	8a\	Fi-	8dd\	Fi-	4r	4r	2.ryy	2.ryy
8D\	.	8d/	.	8b\J	.	8D\J	Fi-	8F#/	.	8cc#\	.	8b\	.	.	.	.	.
8E\	.	2B/	.	2g#X/	.	4.E\	.	4B\	-fi-	4dd\	-li-	4.g#X\	li-	4ee\	4ee\	.	.
8E\	.	.	.	.	.	.	.	.	.	.	.	.	.	.	.	.	.
!LO:TX:t=P:problem=mixedbeam	!	!	!	!	!	!	!	!	!	!	!	!	!	!	!	!	!
8EE\	.	.	.	.	.	.	.	4B\	li-	4ee\	.	.	.	8ee\L	8ee\L	.	.
8EE\J	.	.	.	.	.	8E\	-li-	.	.	.	.	8g#\	.	8ee\J	8ee\J	.	.
=24	=24	=24	=24	=24	=24	=24	=24	=24	=24	=24	=24	=24	=24	=24	=24	=24	=24
!	!	!	!	!	!	!LO:LB:g=original	!	!	!	!	!	!	!	!	!	!	!
4AA/	.	8c#/L	.	8a/L	.	4AA/	-um	4c#\	-um	4a\	-um	4a\	-um	4a/	4ee\	2.ryy	2.ryy
.	.	16c#/L	.	16a/L	p	.	.	.	.	.	.	.	.	.	.	.	.
.	.	16B/JJ	.	16g#X/JJ	.	.	.	.	.	.	.	.	.	.	.	.	.
4r	.	8c#/L	.	8a\L	.	4r	.	4r	.	4r	.	4r	.	4r	4r	.	.
.	.	8a/	.	8cc#\	.	.	.	.	.	.	.	.	.	.	.	.	.
4E\	.	8g#X/	.	8b\	.	4r	.	4r	.	4r	.	4r	.	4r	4r	.	.
.	.	8b/J	.	8dd\J	.	.	.	.	.	.	.	.	.	.	.	.	.
=25	=25	=25	=25	=25	=25	=25	=25	=25	=25	=25	=25	=25	=25	=25	=25	=25	=25
!	!	!	!	!	!	!LO:TX:a:t=10	!	!	!	!	!	!	!	!	!	!	!
!	!	!	!	!	!	!LO:N:vis=00	!	!LO:N:vis=0	!	!LO:N:vis=00	!	!LO:N:vis=0	!	!LO:N:vis=00	!LO:TX:a:t=23.	!	!
4AA/	.	8a/L	p	8cc#\L	.	0.r	.	1.r	.	0.r	.	1.r	.	0.r	2.r	2.ryy	2.ryy
.	.	16a/L	.	16cc#\L	.	.	.	.	.	.	.	.	.	.	.	.	.
.	.	16g/JJ	.	16b\JJ	.	.	.	.	.	.	.	.	.	.	.	.	.
!	!	!	!	!LO:LB:g=original	!	!	!	!	!	!	!	!	!	!	!	!	!
4r	.	8a/L	.	8cc#\L	.	.	.	.	.	.	.	.	.	.	.	.	.
.	.	8cc#	.	8ee\	.	.	.	.	.	.	.	.	.	.	.	.	.
4E\	.	8dd	.	8dd\	.	.	.	.	.	.	.	.	.	.	.	.	.
.	.	8ddJ	.	8ff#\J	.	.	.	.	.	.	.	.	.	.	.	.	.
=26	=26	=26	=26	=26	=26	=26	=26	=26	=26	=26	=26	=26	=26	=26	=26	=26	=26
!LO:LB:g=original	!	!	!	!	!	!	!	!	!	!	!	!	!	!	!	!	!
*tremolo	*	*	*	*	*	*	*	*	*	*	*	*	*	*	*	*	*
8A\L	.	4cc#\	.	8.ee\L	.	.	.	.	.	.	.	.	.	.	2.r	2.ryy	2.ryy
8A\	.	.	.	.	.	.	.	.	.	.	.	.	.	.	.	.	.
.	.	.	.	16aa\Jk	.	.	.	.	.	.	.	.	.	.	.	.	.
.	.	8qqcc#/	.	8qqee/	.	.	.	.	.	.	.	.	.	.	.	.	.
*	*	*2\right	*	*	*	*	*	*	*	*	*	*	*	*	*	*	*
8A\	.	2b\	.	2dd\	.	.	.	.	.	.	.	.	.	.	.	.	.
8A\J	.	.	.	.	.	.	.	.	.	.	.	.	.	.	.	.	.
*Xtremolo	*	*	*	*	*	*	*	*	*	*	*	*	*	*	*	*	*
8G#X\L	.	.	.	.	.	.	.	.	.	.	.	.	.	.	.	.	.
8G#\J	.	.	.	.	.	.	.	.	.	.	.	.	.	.	.	.	.
=27	=27	=27	=27	=27	=27	=27	=27	=27	=27	=27	=27	=27	=27	=27	=27	=27	=27
4A\	.	8a/L	.	8cc#\L	.	.	.	2.r	.	.	.	4a\	Fi-	.	2.r	2.ryy	2.ryy
.	.	16c#/L	.	16a\L	.	.	.	.	.	.	.	.	.	.	.	.	.
.	.	16B/JJ	.	16g#XJJ	.	.	.	.	.	.	.	.	.	.	.	.	.
4r	p	8c#/L	.	8a\L	.	.	.	.	.	.	.	(8a\L	.	.	.	.	.
.	.	8a/	.	8cc#\J	.	.	.	.	.	.	.	8cc#\J)	.	.	.	.	.
4E\	.	8g#X/	.	8b\L	.	.	.	.	.	.	.	(8b\L	-li-	.	.	.	.
.	.	8b/J	.	8dd\J	.	.	.	.	.	.	.	8dd\J)	.	.	.	.	.
=28	=28	=28	=28	=28	=28	=28	=28	=28	=28	=28	=28	=28	=28	=28	=28	=28	=28
!	!	!	!	!	!	!	!	!	!	!	!	!LO:LB:g=original	!	!	!	!	!
4AA/	.	8a\L	.	8cc#\L	.	.	.	4r	.	.	.	4cc#\	-um	.	2.r	2.ryy	2.ryy
.	.	16a\L	.	16cc#\L	.	.	.	.	.	.	.	.	.	.	.	.	.
.	.	16g#X\JJ	.	16b\JJ	.	.	.	.	.	.	.	.	.	.	.	.	.
!	!	!LO:PB:g=original	!	!	!	!	!	!	!	!	!	!	!	!	!	!	!
4r	.	8a\L	.	8cc#\L	.	.	.	8A\L	De	.	.	8cc#\L	.	.	.	.	.
.	.	8cc#\	.	8ee\	.	.	.	8c#\J	.	.	.	8ee\J	De	.	.	.	.
4E/	.	8b\	.	8dd\	.	.	.	8B\L	i	.	.	8dd\L	i	.	.	.	.
.	.	8dd\J	.	8ff#\J	.	.	.	8d\J	.	.	.	8ff#\J	.	.	.	.	.
=29	=29	=29	=29	=29	=29	=29	=29	=29	=29	=29	=29	=29	=29	=29	=29	=29	=29
!	!	!	!	!	!	!LO:N:vis=00	!	!	!	!LO:N:vis=00	!	!	!	!	!	!	!
*tremolo	*	*	*	*	*	*	*	*	*	*	*	*	*	*	*	*	*
!	!	!	!	!	!	!	!	!	!	!	!	!	!	!LO:N:vis=00	!	!	!
8A\L	.	4cc#\	.	8.ee\L	.	0.r	.	8c#\	u	0.r	.	8ee\	-u-	0.r	2.r	2.ryy	2.ryy
8A\	.	.	.	.	.	.	.	8c#\	ni	.	.	8aa\	ni	.	.	.	.
.	.	.	.	16aa\Jk	.	.	.	.	.	.	.	.	.	.	.	.	.
.	.	8qqcc#/	.	8qqee/	.	.	.	8qqc#/	.	.	.	8qqee/	.	.	.	.	.
8A\	.	2b\	.	2dd\	.	.	.	2B\	geni	.	.	2dd\	-geni-	.	.	.	.
8A\J	.	.	.	.	.	.	.	.	.	.	.	.	.	.	.	.	.
*Xtremolo	*	*	*	*	*	*	*	*	*	*	*	*	*	*	*	*	*
8G#X\L	.	.	.	.	.	.	.	.	.	.	.	.	.	.	.	.	.
8G#\J	.	.	.	.	.	.	.	.	.	.	.	.	.	.	.	.	.
=30	=30	=30	=30	=30	=30	=30	=30	=30	=30	=30	=30	=30	=30	=30	=30	=30	=30
!	!LO:DY:b	!	!	!	!	!	!	!	!	!	!	!	!	!	!	!	!
4A\	f	8a\L	.	8cc#\L	f	.	.	4A\	-ti	.	.	4cc#\	-tum	.	2.r	2.ryy	2.ryy
.	.	16cc#\L	.	16aa\L	.	.	.	.	.	.	.	.	.	.	.	.	.
.	.	16b\JJ	f	16gg#X\JJ	.	.	.	.	.	.	.	.	.	.	.	.	.
4E\	.	8cc#\L	.	8aa\L	.	.	.	4r	.	.	.	4r	.	.	.	.	.
.	.	8a\	.	8cc#\	.	.	.	.	.	.	.	.	.	.	.	.	.
4EE/	.	8g#X\	.	8b\	.	.	.	4r	.	.	.	4r	.	.	.	.	.
.	.	8b\J	.	8dd\J	.	.	.	.	.	.	.	.	.	.	.	.	.
=31	=31	=31	=31	=31	=31	=31	=31	=31	=31	=31	=31	=31	=31	=31	=31	=31	=31
*tremolo	*	*	*	*	*	*	*	*	*	*	*	*	*	*	*	*	*
8AA/L	.	8.a\L	.	8.cc#\L	.	.	.	8A\	De-	.	.	8cc#\	De-	.	2.r	2.ryy	2.ryy
8AA/	.	.	.	.	.	.	.	8B\	.	.	.	8dd\	.	.	.	.	.
.	.	16cc#\Jk	.	16dd\Jk	.	.	.	.	.	.	.	.	.	.	.	.	.
8AA/	.	4cc#\	.	4ee\	.	.	.	4c#\	.	.	.	4ee\	.	.	.	.	.
8AA/	.	.	.	.	.	.	.	.	.	.	.	.	.	.	.	.	.
8AA/	.	(8b\L	.	(8dd\L	.	.	.	(8B\	-um	.	.	8dd\L	-um	.	.	.	.
8AA/J	.	8a\J)	.	8cc#\J)	.	.	.	8A\)	.	.	.	8cc#\J	.	.	.	.	.
=32	=32	=32	=32	=32	=32	=32	=32	=32	=32	=32	=32	=32	=32	=32	=32	=32	=32
8E\L	.	8.g#X/L	.	8.b\L	.	.	.	8G#X\	ve-	.	.	8b\L	ve-	.	2.r	2.ryy	2.ryy
8E\	.	.	.	.	.	.	.	8A\	.	.	.	8cc#\J	.	.	.	.	.
.	.	16a/Jk	.	16cc#\Jk	.	.	.	.	.	.	.	.	.	.	.	.	.
.	.	8qqa/	.	.	.	.	.	.	.	.	.	8qqcc#/	.	.	.	.	.
8E\	.	2b/	.	2dd\	.	.	.	2B\	-rum	.	.	2dd\	-rum	.	.	.	.
8E\	.	.	.	.	.	.	.	.	.	.	.	.	.	.	.	.	.
8E\	.	.	.	.	.	.	.	.	.	.	.	.	.	.	.	.	.
8E\J	.	.	.	.	.	.	.	.	.	.	.	.	.	.	.	.	.
=33	=33	=33	=33	=33	=33	=33	=33	=33	=33	=33	=33	=33	=33	=33	=33	=33	=33
!	!	!	!	!LO:LB:g=original	!	!	!	!	!	!	!	!	!	!	!	!	!
!	!	!	!	!	!	!LO:N:vis=0	!	!LO:SIC:o=:v:de Deo	!	!LO:N:vis=00	!	!	!	!LO:N:vis=00	!	!	!
8AA/L	.	8.a/L	.	8.cc#\L	.	1.r	.	8A\L	De	0.r	.	8cc#\	De-	0.r	2.r	2.ryy	2.ryy
8AA/	.	.	.	.	.	.	.	8B\J	.	.	.	8dd\	.	.	.	.	.
.	.	16b/Jk	.	16dd\Jk	.	.	.	.	.	.	.	.	.	.	.	.	.
8AA/	.	4cc#\	.	4ee\	.	.	.	4c#\	de-	.	.	4ee\	o	.	.	.	.
8AA/	.	.	.	.	.	.	.	.	.	.	.	.	.	.	.	.	.
8AA/	.	(8b\L	.	(8dd\L	.	.	.	8B\L	-o	.	.	8dd\L	.	.	.	.	.
8AA/J	.	8a\J)	.	8cc#\J)	.	.	.	8A\J	.	.	.	8cc#\J	.	.	.	.	.
=34	=34	=34	=34	=34	=34	=34	=34	=34	=34	=34	=34	=34	=34	=34	=34	=34	=34
8E\L	.	4a/	.	4cc#\	.	.	.	4A\	ve-	.	.	4cc#\	ve-	.	2.r	2.ryy	2.ryy
8E\	.	.	.	.	.	.	.	.	.	.	.	.	.	.	.	.	.
8E\	.	8g#X/L	.	8b\L	.	.	.	4G#X/	-ro	.	.	4b\	-ro	.	.	.	.
8E\	.	16e/L	.	16g#X\L	.	.	.	.	.	.	.	.	.	.	.	.	.
.	.	16f#/JJ	.	16a\JJ	.	.	.	.	.	.	.	.	.	.	.	.	.
8E\	.	4g#/	.	4b\	.	.	.	4r	.	.	.	4r	.	.	.	.	.
8E\J	.	.	.	.	.	.	.	.	.	.	.	.	.	.	.	.	.
!	!	!	!	!	!	!	!	!	!	!	!	!LO:TX:b:t=Verte cito	!	!	!	!	!
*Xtremolo	*	*	*	*	*	*	*	*	*	*	*	*	*	*	*	*	*
=35	=35	=35	=35	=35	=35	=35	=35	=35	=35	=35	=35	=35	=35	=35	=35	=35	=35
!	!	!	!	!	!	!	!	!	!	!	!	!LO:PB:g=original	!	!	!	!	!
!	!	!LO:TX:a:t=2.	!	!LO:TX:a:t=2	!	!LO:TX:a:rj:t=Solo	!	!LO:TX:a:t=2	!	!	!	!	!	!	!	!	!
!	!	!LO:N:vis=0	!	!LO:N:vis=0	!	!	!	!LO:N:vis=0	!	!	!	!	!	!	!	!	!
4E\	.	1.r	.	1.r	.	4E\	Ge-	1.r	.	.	.	2.r	.	.	2.r	2.ryy	2.ryy
8G#X\L	.	.	.	.	.	4E\	-ni-	.	.	.	.	.	.	.	.	.	.
8F#\	.	.	.	.	.	.	.	.	.	.	.	.	.	.	.	.	.
8G#\	.	.	.	.	.	4E\	-tum	.	.	.	.	.	.	.	.	.	.
8A\J	.	.	.	.	.	.	.	.	.	.	.	.	.	.	.	.	.
=36	=36	=36	=36	=36	=36	=36	=36	=36	=36	=36	=36	=36	=36	=36	=36	=36	=36
!LO:LB:g=original	!	!	!	!	!	!	!	!	!	!	!	!	!	!	!	!	!
8B\L	.	.	.	.	.	4.d\	non	.	.	.	.	2.r	.	.	2.r	2.ryy	2.ryy
8c#\	.	.	.	.	.	.	.	.	.	.	.	.	.	.	.	.	.
8B\	.	.	.	.	.	.	.	.	.	.	.	.	.	.	.	.	.
8A\	.	.	.	.	.	8d\	fa-	.	.	.	.	.	.	.	.	.	.
8G#X\	.	.	.	.	.	4d\	-ctum	.	.	.	.	.	.	.	.	.	.
8F#\J	.	.	.	.	.	.	.	.	.	.	.	.	.	.	.	.	.
=37	=37	=37	=37	=37	=37	=37	=37	=37	=37	=37	=37	=37	=37	=37	=37	=37	=37
!	!	!	!	!	!	!	!	!LO:LB:g=original	!	!	!	!	!	!	!	!	!
!	!	!	!	!	!	!	!	!	!	!LO:N:vis=00	!	!	!	!	!	!	!
*tremolo	*	*	*	*	*	*	*	*	*	*	*	*	*	*	*	*	*
!	!	!	!	!	!	!	!	!	!	!	!	!	!	!LO:N:vis=00	!	!	!
8E\L	.	4b/	.	4dd\	.	4E\	.	4B\	ge-	0.r	.	4dd\	ge-	0.r	2.r	2.ryy	2.ryy
8E\	.	.	.	.	.	.	.	.	.	.	.	.	.	.	.	.	.
8E\	.	8g#X/L	.	8b\L	.	4E\	-ge-	8G#X\L	.	.	.	8b\L	-ni-	.	.	.	.
8E\	.	8a/J	.	8cc#\J	p	.	.	8A\J	-ni-	.	.	8cc#\J	-tum	.	.	.	.
8E\	.	4b/	.	4dd\	.	4E\	-nitum	4B\	-tum	.	.	4dd\	non	.	.	.	.
8E\J	.	.	.	.	.	.	.	.	.	.	.	.	.	.	.	.	.
=38	=38	=38	=38	=38	=38	=38	=38	=38	=38	=38	=38	=38	=38	=38	=38	=38	=38
*	*	*	*	*	*	*2\right	*	*	*	*	*	*	*	*	*	*	*
8E\L	.	4.b\	p	4.dd\	.	2E\	fa-	4.B\	non	.	.	2dd\	fa-	.	2.r	2.ryy	2.ryy
8E\	.	.	.	.	.	.	.	.	.	.	.	.	.	.	.	.	.
8E\	.	.	.	.	.	.	.	.	.	.	.	.	.	.	.	.	.
8E\J	.	8b\	.	8dd\	.	.	.	8B\	fa	.	.	.	.	.	.	.	.
*Xtremolo	*	*	*	*	*	*	*	*	*	*	*	*	*	*	*	*	*
4AA/	.	4a\	.	4cc#\	.	4AA/	-ctum	4A\	-ctum	.	.	4cc#\	-ctum	.	.	.	.
=39	=39	=39	=39	=39	=39	=39	=39	=39	=39	=39	=39	=39	=39	=39	=39	=39	=39
!	!	!	!	!LO:TX:a:t=2	!	!	!	!	!	!	!	!	!	!	!	!	!
!	!	!LO:TX:a:t=2	!	!	!	!	!	!	!	!	!	!	!	!	!	!	!
!	!	!LO:N:vis=0	!	!LO:N:vis=0	!	!	!	!LO:N:vis=0	!	!	!	!LO:N:vis=0	!	!	!	!	!
4AA/	.	1.r	.	1.r	.	4A\	Ge-	1.r	.	.	.	1.r	.	.	2.r	2.ryy	2.ryy
8C#/L	.	.	.	.	.	4A\	-ni-	.	.	.	.	.	.	.	.	.	.
8BB/	.	.	.	.	.	.	.	.	.	.	.	.	.	.	.	.	.
8C#/	.	.	.	.	.	4A\	-tum	.	.	.	.	.	.	.	.	.	.
8D/J	.	.	.	.	.	.	.	.	.	.	.	.	.	.	.	.	.
=40	=40	=40	=40	=40	=40	=40	=40	=40	=40	=40	=40	=40	=40	=40	=40	=40	=40
8E/L	.	.	.	.	.	4.Gn\	non	.	.	.	.	.	.	.	2.r	2.ryy	2.ryy
8F#/	.	.	.	.	.	.	.	.	.	.	.	.	.	.	.	.	.
8E/	.	.	.	.	.	.	.	.	.	.	.	.	.	.	.	.	.
8D/	.	.	.	.	.	8G\	fa-	.	.	.	.	.	.	.	.	.	.
8C#/	.	.	.	.	.	4G\	-ctum	.	.	.	.	.	.	.	.	.	.
8BB/J	.	.	.	.	.	.	.	.	.	.	.	.	.	.	.	.	.
=41	=41	=41	=41	=41	=41	=41	=41	=41	=41	=41	=41	=41	=41	=41	=41	=41	=41
!	!	!	!	!	!	!	!	!	!	!LO:N:vis=00	!	!	!	!	!	!	!
*tremolo	*	*	*	*	*	*	*	*	*	*	*	*	*	*	*	*	*
!	!	!	!	!	!	!	!	!	!	!	!	!	!	!LO:N:vis=00	!	!	!
8AA/L	.	4gn/	.	4ee\	.	4AA/	ge-	4Gn/	ge-	0.r	.	4ee\	ge-	0.r	2.r	2.ryy	2.ryy
8AA/	.	.	.	.	.	.	.	.	.	.	.	.	.	.	.	.	.
8AA/	.	8e/L	.	8cc#\L	.	4AA/	-ni-	8E/L	.	.	.	8cc#\L	-ni-	.	.	.	.
8AA/	.	8f#/J	.	8dd\J	.	.	.	8F#/J	-ni	.	.	8dd\J	-tum	.	.	.	.
8AA/	.	4g/	.	4ee\	.	4AA/	-tum	4G/	tum	.	.	4ee\	non	.	.	.	.
8AA/J	.	.	.	.	.	.	.	.	.	.	.	.	.	.	.	.	.
=42	=42	=42	=42	=42	=42	=42	=42	=42	=42	=42	=42	=42	=42	=42	=42	=42	=42
!	!	!	!	!	!	!LO:N:vis=2.	!	!	!	!	!	!	!	!	!	!	!
8AA/L	.	4.g/	.	4.ee\	.	2AA/	non-	2G/	non	.	.	2ee\	fa-	.	2.r	2.ryy	2.ryy
8AA/	.	.	.	.	.	.	.	.	.	.	.	.	.	.	.	.	.
8AA/	.	.	.	.	.	.	.	.	.	.	.	.	.	.	.	.	.
8AA/J	.	8g/	.	8ee\	.	.	.	.	.	.	.	.	.	.	.	.	.
*Xtremolo	*	*	*	*	*	*	*	*	*	*	*	*	*	*	*	*	*
4D\	.	4f#/	.	4dd\	.	8ryy	.	4F#/	factum	.	.	4dd\	-ctum	.	.	.	.
.	.	.	.	.	.	8D/	factum	.	.	.	.	.	.	.	.	.	.
=43	=43	=43	=43	=43	=43	=43	=43	=43	=43	=43	=43	=43	=43	=43	=43	=43	=43
!	!	!	!	!	!	!LO:LB:g=original	!	!	!	!	!	!	!	!	!	!	!
4D\	.	4f#/	.	2dd\	.	4D\	Con-	(>4F#/	con-	.	.	2dd\	con-	.	2.r	2.ryy	2.ryy
4F#\	.	4a/	.	.	.	4F#\	.	4A/)	.	.	.	.	.	.	.	.	.
4G\	.	4b/	.	4ee\	.	4G\	-sub-	4c#\	-sub-	.	.	4ee\	-sub-	.	.	.	.
=44	=44	=44	=44	=44	=44	=44	=44	=44	=44	=44	=44	=44	=44	=44	=44	=44	=44
.	.	.	.	8qqdd/	.	.	.	.	.	.	.	8qqdd/	.	.	.	.	.
4A\	.	4e/	.	4cc#\	.	4A\	-stan-	4E/	-stan-	.	.	4cc#\	-stan-	.	2.r	2.ryy	2.ryy
4G\	.	4c#/	.	8b\L	.	4G\	.	4E/	.	.	.	8b\L	.	.	.	.	.
.	.	.	.	8a\J	.	.	.	.	.	.	.	8a\J	.	.	.	.	.
4F#\	.	4f#/	.	4dd\	.	4F#\	-ti-	4F#/	-nti-	.	.	4dd\	-ti-	.	.	.	.
=45	=45	=45	=45	=45	=45	=45	=45	=45	=45	=45	=45	=45	=45	=45	=45	=45	=45
!LO:LB:g=original	!	!	!	!LO:LB:g=original	!	!	!	!	!	!	!	!LO:LB:g=original	!	!	!	!	!
!	!	!LO:N:vis=8	!	!	!	!	!	!	!	!LO:N:vis=0	!	!	!	!LO:N:vis=0	!	!	!
8G\L	.	4cc#\	.	4ee\	.	8G\	-alem	4B\	a-	1.r	.	8ee\L	-a-	1.r	2.r	2.ryy	2.ryy
8G\	.	.	.	.	.	8G\	.	.	.	.	.	8dd\J	-lem	.	.	.	.
!	!	!	!	!	!	!	!	!LO:SIC:o=:v:błąd w tekście, s=Patri	!	!	!	!	!	!	!	!	!
.	.	.	.	8qqdd/	.	.	.	.	.	.	.	.	.	.	.	.	.
8A\	.	4r	.	2cc#\	.	4A\	pa-	2E/	-lem	.	.	2cc#\	Pa-	.	.	.	.
8A\	.	.	.	.	.	.	.	.	.	.	.	.	.	.	.	.	.
!LO:TX:t=P:problem=mixedbeam	!	!	!	!	!	!	!	!	!	!	!	!	!	!	!	!	!
8AA\	.	4e/	.	.	.	4AA/	.	.	.	.	.	.	.	.	.	.	.
8AA\J	.	.	.	.	.	.	.	.	.	.	.	.	.	.	.	.	.
=46	=46	=46	=46	=46	=46	=46	=46	=46	=46	=46	=46	=46	=46	=46	=46	=46	=46
4D\	.	8f#\L	.	8dd\L	.	4D\	-tri	4F#/	-tri	.	.	4dd\	-tri	.	2.r	2.ryy	2.ryy
.	.	16ff#\L	.	16ddd\L	.	.	.	.	.	.	.	.	.	.	.	.	.
.	.	16ee\JJ	.	16ccc#\JJ	.	.	.	.	.	.	.	.	.	.	.	.	.
!	!	!LO:PB:g=original	!	!	!	!	!	!	!	!	!	!	!	!	!	!	!
4r	.	8ff#\L	.	8ddd\L	.	4r	.	4r	.	.	.	4r	.	.	.	.	.
.	.	8dd\	.	8ff#\	.	.	.	.	.	.	.	.	.	.	.	.	.
4AA/	.	8cc#\	.	8ee\	.	4r	.	4r	.	.	.	4r	.	.	.	.	.
.	.	8ee\J	.	8gg\J	.	.	.	.	.	.	.	.	.	.	.	.	.
=47	=47	=47	=47	=47	=47	=47	=47	=47	=47	=47	=47	=47	=47	=47	=47	=47	=47
!	!	!	!	!	!	!	!	!	!	!	!	!LO:TX:a:t=1.	!	!	!	!	!
4D/	.	8dd\L	.	8ff#\L	.	2.r	.	2.r	.	2.r	.	2.r	.	2.r	2.r	2.ryy	2.ryy
.	.	16ff#\L	.	16ddd\L	.	.	.	.	.	.	.	.	.	.	.	.	.
.	.	16ee\JJ	.	16ccc#\JJ	.	.	.	.	.	.	.	.	.	.	.	.	.
4r	.	8ff#\L	.	8ddd\L	.	.	.	.	.	.	.	.	.	.	.	.	.
.	.	8dd\	.	8ff#\	.	.	.	.	.	.	.	.	.	.	.	.	.
4AA/	.	8cc#\	.	8ee\	.	.	.	.	.	.	.	.	.	.	.	.	.
.	.	8ee\J	.	8gg\J	.	.	.	.	.	.	.	.	.	.	.	.	.
=48	=48	=48	=48	=48	=48	=48	=48	=48	=48	=48	=48	=48	=48	=48	=48	=48	=48
4D\	.	4d/ 4a 4ff#	.	4d/ 4a 4ff#	.	8d\	per	8A\	per	8a\	per	8ff#\	per	4dd\	4ff#\	2.ryy	2.ryy
!	!LO:DY:b	!	!	!	!	!	!	!	!	!	!	!	!	!	!	!	!
.	f	.	.	.	.	8d\	.	8A\	quem	8a\	quem	8ff#\	quem	.	.	.	.
8D\L	.	8d/L 8a 8ff#	.	8d/L 8a 8ff#	.	8D\	quem	8A\	.	8a\	.	8ff#\	.	4dd\	4ff#\	.	.
8d\	.	8dd/	.	8dd/	.	8d\L	.	8d\L	.	8dd\L	.	(8dd\L	-o-	.	.	.	.
8c#\	.	8cc#/	.	8cc#/	.	8c#\	.	8c#\	omnia	8cc#\	omnia	8cc#\	mni	4r	4r	.	.
8d\J	.	8dd/J	.	8dd/J	.	8d\J	-omnia	8d\J	.	8dd\J	.	8dd\J)	-a	.	.	.	.
=49	=49	=49	=49	=49	=49	=49	=49	=49	=49	=49	=49	=49	=49	=49	=49	=49	=49
!	!	!	!	!	!	!	!	!LO:LB:g=original	!	!LO:LB:g=original	!	!	!	!	!	!	!
!	!	!	!	!	!	!	!	!	!	!	!	!	!	!LO:SIC:o:s=:v:1dd  lub dziwna pauza	!LO:N:vis=0	!	!
4B\	.	4b/	.	4b/	.	4B\	fa-	4B\	fa-	4b\	fa-	4b\	fa-	2.r	1.r	2.ryy	2.ryy
8A\L	.	8a/L	.	8a/L	.	8A\	.	8A\	cta	8a\	.	8a\	.	.	.	.	.
8d\	.	8dd/	.	8dd/	.	8d\L	.	8d\L	.	8dd\L	.	8dd\L	.	.	.	.	.
8c#\	.	8cc#/	.	8cc#/	.	8c#\	.	8c#\	.	8cc#\	.	8cc#\	.	.	.	.	.
8d\J	.	8dd/J	.	8dd/J	.	8d\J	cta	8d\J	.	8dd\J	cta	8dd\J	cta	.	.	.	.
=50	=50	=50	=50	=50	=50	=50	=50	=50	=50	=50	=50	=50	=50	=50	=50	=50	=50
!	!	!	!	!	!	!	!	!	!	!	!	!	!	!LO:SIC:o:s=:v:brak tego taktu	!	!	!
4G\	.	4g/	.	4g/	.	4G\	sunt	4G/	sunt	4f#\	sunt	4g\	sunt	2.r	.	2.ryy	2.ryy
4F#\	.	4f#/	.	4f#/	.	4F#\	.	4F#/	.	4a\	.	4f#\	.	.	.	.	.
4r	.	4r	.	4r	.	4r	.	4r	.	4r	.	4r	.	.	.	.	.
=51	=51	=51	=51	=51	=51	=51	=51	=51	=51	=51	=51	=51	=51	=51	=51	=51	=51
!	!	!	!	!	!	!	!	!	!	!	!	!LO:LB:g=original	!	!	!	!	!
!	!	!	!	!LO:SIC:o=:v:cały takt oznaczony jako repetycja	!	!	!	!	!	!	!	!	!	!	!	!	!
8D\L	.	16dd\LL	.	16ff#\LL	.	8D\	qui	8A\	qui	(8a\	qui	8ff#\	qui	4dd\	4ff#\	2.ryy	2.ryy
.	.	16ff#\	.	16ddd\	.	.	.	.	.	.	.	.	.	.	.	.	.
8E\	.	16ff#\	.	16ddd\	.	8E\	.	8A\	pro-	8a\)	.	8ff#\	pro-	.	.	.	.
.	.	16ff#\JJ	.	16ddd\JJ	.	.	.	.	.	.	.	.	.	.	.	.	.
*	*	*tremolo	*	*	*	*	*	*	*	*	*	*	*	*	*	*	*
8F#\	.	16ff#\LL	.	16ddd\LL	.	8F#\	pro-	8A\	.	(8a\	.	8ff#\	-pter	8dd\L	8ff#\L	.	.
.	.	16ff#\	.	16ddd\	.	.	.	.	.	.	.	.	.	.	.	.	.
8G\	.	16ff#\	.	16ddd\	.	8G\	-pter	8d\L	pter	8a\)	pro-	8ff#\	.	8dd\	8ff#\	.	.
.	.	16ff#\JJ	.	16ddd\JJ	.	.	.	.	.	.	.	.	.	.	.	.	.
!	!	!	!	!	!	!LO:LB:g=original	!	!	!	!	!	!	!	!	!	!	!
8A\	.	16ee\LL	.	16ccc#\LL	.	8A\	nos	8c#\	.	8a\	-pter	8ee\	.	8a\	8ee\	.	.
.	.	16ee\	.	16gg\	.	.	.	.	.	.	.	.	.	.	.	.	.
!LO:TX:t=P:problem=mixedbeam	!	!	!	!	!	!	!	!LO:TX:a:t=e	!	!	!	!	!	!	!	!	!
8AA\J	.	16ee\	.	16gg\	.	8AA/	.	8e\J	nos	8a\	nos	8gg\	nos	8ee\J	8gg\J	.	.
.	.	16ee\JJ	.	16gg\JJ	.	.	.	.	.	.	.	.	.	.	.	.	.
*	*	*Xtremolo	*	*	*	*	*	*	*	*	*	*	*	*	*	*	*
=52	=52	=52	=52	=52	=52	=52	=52	=52	=52	=52	=52	=52	=52	=52	=52	=52	=52
!LO:LB:g=original	!	!	!	!	!	!	!	!	!	!	!	!	!	!LO:LB:g=original	!	!	!
8D\L	.	16dd\LL	.	16ff#\yy	.	8D\L	ho-	4d\	ho-	2a\	ho-	2ff#\	ho-	4dd\	4ff#\	2.ryy	2.ryy
.	.	16ff#\	.	16ddd\yy	.	.	.	.	.	.	.	.	.	.	.	.	.
8E\	.	16ff#\	.	16ddd\yy	.	8E\	.	.	.	.	.	.	.	.	.	.	.
.	.	16ff#\JJ	.	16ddd\JJyy	.	.	.	.	.	.	.	.	.	.	.	.	.
*	*	*tremolo	*	*	*	*	*	*	*	*	*	*	*	*	*	*	*
8F#\	.	16ff#\LL	.	16ddd\LLyy	.	8F#\	-mi-	4A\	.	.	.	.	.	8dd\L	8ff#\L	.	.
.	.	16ff#\	.	16ddd\yy	.	.	.	.	.	.	.	.	.	.	.	.	.
8G\	.	16ff#\	.	16ddd\yy	.	8G\J	.	.	.	.	.	.	.	8dd\	8ff#\	.	.
.	.	16ff#\JJ	.	16ddd\JJyy	.	.	.	.	.	.	.	.	.	.	.	.	.
8A\	.	16ee\LL	.	16ccc#\LLyy	.	8A\	.	8c#\L	-mi-	8a\	-mi-	8ee\	-mi-	8a\	8ee\	.	.
.	.	16ee\	.	16gg\yy	.	.	.	.	.	.	.	.	.	.	.	.	.
!LO:TX:t=P:problem=mixedbeam	!	!	!	!	!	!	!	!	!	!	!	!	!	!	!	!	!
8AA\J	.	16ee\	.	16gg\yy	.	8AA/	nes	8e\J	-nes	8a\	-nes	8gg\	-nes	8ee\J	8gg\J	.	.
.	.	16ee\JJ	.	16gg\JJyy	.	.	.	.	.	.	.	.	.	.	.	.	.
*	*	*Xtremolo	*	*	*	*	*	*	*	*	*	*	*	*	*	*	*
=53	=53	=53I	=53	=53	=53	=53	=53	=53	=53	=53	=53	=53	=53	=53	=53	=53	=53
4D\	.	8dd\L	.	4ff#\	.	4D\	qui	4A\	qui	4.dd\	qui	4ff#\	qui	4dd\	4ff#\	2.ryy	2.ryy
.	.	8ff#\J	.	.	.	.	.	.	.	.	.	.	.	.	.	.	.
8D\L	.	4ff#\	.	4ddd\	.	8D\L	pro-	4A\	.	.	.	4ff#\	pro-	4dd\	4ff#\	.	.
8E\	.	.	.	.	.	8E\	.	.	.	8f#\	pro-	.	.	.	.	.	.
*	*	*	*	*Xtremolo	*	*	*	*	*	*	*	*	*	*	*	*	*
8F#\	.	4ff#\	.	8ddd\L	.	8F#\	-pter	4d\	prop-	4g\	-pter	4ff#\	-pter	8dd\L	8ff#\L	.	.
8G\J	.	.	.	8ddd\J	.	8G\J	.	.	.	.	.	.	.	8dd\J	8ff#\J	.	.
=54	=54	=54	=54	=54	=54	=54	=54	=54	=54	=54	=54	=54	=54	=54	=54	=54	=54
!	!	!LO:PB:g=original	!	!LO:LB:g=original	!	!	!	!	!	!	!	!	!	!	!	!	!
4A\	.	4ee\	.	4ccc#\	.	2A\	pro-	2c#\	-ter	2a\	nos-	2ee\	pro-	4a/	4ee\	2.ryy	2.ryy
4AA/	.	8ee\L	.	8ccc#\L	.	.	.	.	.	.	.	.	.	8a/L	8ee\L	.	.
.	.	8ee\J	.	8ccc#\J	.	.	.	.	.	.	.	.	.	8a/J	8ee\J	.	.
4AA/	.	4ee\	.	4ccc#\	.	4AA/	-pter	4c#\	-propter	4a\	-ho	4ee\	-pter	4a/	4ee\	.	.
=55	=55	=55	=55	=55	=55	=55	=55	=55	=55	=55	=55	=55	=55	=55	=55	=55	=55
!	!	!	!	!LO:TUP:a	!	!	!	!	!	!	!	!	!	!	!	!	!
*tremolo	*	*	*	*	*	*	*	*	*	*	*	*	*	*	*	*	*
8A\L	.	(12cc#\L	.	(12ee\L	.	4A\	nos	4c#\	nos	4a\	mi-	4ee\	nos	4a/	4ee\	2.ryy	2.ryy
.	.	12dd\	.	12ff#\	.	.	.	.	.	.	.	.	.	.	.	.	.
8A\	.	.	.	.	.	.	.	.	.	.	.	.	.	.	.	.	.
.	.	12ee\J)	.	12gg\J)	.	.	.	.	.	.	.	.	.	.	.	.	.
!	!	!	!	!LO:TUP:a	!	!	!	!	!	!	!	!	!	!	!	!	!
8A\	.	(12ee\L	.	(12gg\L	.	4AA/	ho-	4c#\	ho-	4a\	-nes	4ee\	ho-	4a/	4ee\	.	.
.	.	12dd\	.	12ff#\	.	.	.	.	.	.	.	.	.	.	.	.	.
8A\	.	.	.	.	.	.	.	.	.	.	.	.	.	.	.	.	.
.	.	12cc#\J)	.	12ee\J)	.	.	.	.	.	.	.	.	.	.	.	.	.
!	!	!	!	!LO:TUP:a	!	!	!	!	!	!	!	!	!	!	!	!	!
8A\	.	(12cc#\L	.	(12ee\L	.	4AA/	-mi-	4c#\	-mi-	4a\	et	4ee\	-mi-	4a/	4ee\	.	.
.	.	12b\	.	12dd\	.	.	.	.	.	.	.	.	.	.	.	.	.
8A\J	.	.	.	.	.	.	.	.	.	.	.	.	.	.	.	.	.
.	.	12a\J)	.	12cc#\J)	.	.	.	.	.	.	.	.	.	.	.	.	.
=56	=56	=56	=56	=56	=56	=56	=56	=56	=56	=56	=56	=56	=56	=56	=56	=56	=56
!	!	!	!	!LO:TUP:a	!	!	!	!	!	!	!	!	!	!	!	!	!
8A\L	.	(12a/L	.	(12cc#\L	.	2A\	-nes	2c#\	-nes	2a\	-pro	2ee\	-nes	4a/	4ee\	2.ryy	2.ryy
.	.	12g/	.	12b\	.	.	.	.	.	.	.	.	.	.	.	.	.
8A\	.	.	.	.	.	.	.	.	.	.	.	.	.	.	.	.	.
.	.	12f#/J)	.	12a\J)	.	.	.	.	.	.	.	.	.	.	.	.	.
!	!	!	!	!LO:TUP:b	!	!	!	!	!	!	!	!	!	!	!	!	!
8A\	.	(12f#/L	.	(12a/L	.	.	.	.	.	.	.	.	.	8a/L	8ee\L	.	.
.	.	12e/	.	12g/	.	.	.	.	.	.	.	.	.	.	.	.	.
8A\	.	.	.	.	.	.	.	.	.	.	.	.	.	8a/J	8ee\J	.	.
.	.	12d/J)	.	12f#/J)	.	.	.	.	.	.	.	.	.	.	.	.	.
8A\	.	4e/	.	4g/	.	4A\	et	4c#\	et	4a\	pter	4ee\	et	4a/	4ee\	.	.
8A\J	.	.	.	.	.	.	.	.	.	.	.	.	.	.	.	.	.
=57	=57	=57	=57	=57	=57	=57	=57	=57	=57	=57	=57	=57	=57	=57	=57	=57	=57
!	!	!	!	!	!	!	!	!	!	!LO:LB:g=original	!	!LO:LB:g=original	!	!	!LO:LB:g=original	!	!
!	!	!	!	!LO:TUP:a	!	!	!	!	!	!	!	!	!	!	!	!	!
8A\L	.	(12cc#\L	.	(12ee\L	.	2A\	pro-	2c#\	pro-	2a\	pro-	2ee\	pro-	4a/	4ee\	2.ryy	2.ryy
.	.	12dd\	.	12ff#\	.	.	.	.	.	.	.	.	.	.	.	.	.
8A\	.	.	.	.	.	.	.	.	.	.	.	.	.	.	.	.	.
.	.	12ee\J)	.	12gg\J)	.	.	.	.	.	.	.	.	.	.	.	.	.
!	!	!	!	!LO:TUP:a	!	!	!	!	!	!	!	!	!	!	!	!	!
8A\	.	(12ee\L	.	(12gg\L	.	.	.	.	.	.	.	.	.	4a/	4ee\	.	.
.	.	12dd\	.	12ff#\	.	.	.	.	.	.	.	.	.	.	.	.	.
8A\	.	.	.	.	.	.	.	.	.	.	.	.	.	.	.	.	.
.	.	12cc#\J)	.	12ee\J)	.	.	.	.	.	.	.	.	.	.	.	.	.
!	!	!	!	!LO:TUP:a	!	!	!	!	!	!	!	!	!	!	!	!	!
8A\	.	12cc#\L	.	(12ee\L	.	4A\	-pter	4c#\	-pter	4a\	-pter	4ee\	-pter	4a/	4ee\	.	.
.	.	12b\	.	12dd\	.	.	.	.	.	.	.	.	.	.	.	.	.
8A\J	.	.	.	.	.	.	.	.	.	.	.	.	.	.	.	.	.
.	.	12a\J	.	12cc#\J)	.	.	.	.	.	.	.	.	.	.	.	.	.
=58	=58	=58	=58	=58	=58	=58	=58	=58	=58	=58	=58	=58	=58	=58	=58	=58	=58
*	*	*	*	*	*	*	*	*	*ij	*	*	*	*	*	*	*	*
!	!	!	!	!LO:TUP:a	!	!	!	!	!	!	!	!	!	!	!	!	!
8A\L	.	12a/L	.	(12cc#\L	.	2A\	pro-	2c#\	pro-	2a\	pro-	2ee\	pro-	4a/	4ee\	2.ryy	2.ryy
.	.	12g/	.	12b\	.	.	.	.	.	.	.	.	.	.	.	.	.
8A\	.	.	.	.	.	.	.	.	.	.	.	.	.	.	.	.	.
.	.	12f#/J	.	12a\J)	.	.	.	.	.	.	.	.	.	.	.	.	.
!	!	!	!	!LO:TUP:b	!	!	!	!	!	!	!	!	!	!	!	!	!
8A\	.	12f#/L	.	(12a/L	.	.	.	.	.	.	.	.	.	8a/L	8ee\L	.	.
.	.	12e/	.	12g/	.	.	.	.	.	.	.	.	.	.	.	.	.
8A\	.	.	.	.	.	.	.	.	.	.	.	.	.	8a/J	8ee\J	.	.
.	.	12d/J	.	12f#/J)	.	.	.	.	.	.	.	.	.	.	.	.	.
!	!	!	!	!	!	!	!	!	!	!	!	!	!	!	!LO:SIC:o=:v:po tej nucie \nsą dwa wykreślone takty	!	!
8A\	.	4e/	.	4g/	.	4A\	-pter	4c#\	-pter	4a\	-pter	4ee\	-pter	4a/	4ee\	.	.
8A\J	.	.	.	.	.	.	.	.	.	.	.	.	.	.	.	.	.
*Xtremolo	*	*	*	*	*	*	*	*	*Xij	*	*	*	*	*	*	*	*
=59	=59	=59	=59	=59	=59	=59	=59	=59	=59	=59	=59	=59	=59	=59	=59	=59	=59
!	!	!	!	!LO:TUP:a	!	!	!	!	!	!	!	!	!	!	!	!	!
4d\	.	4a\	.	(12dd\L	.	4d\	no-	4d\	no-	4d\	no-	4ff#\	no-	4dd\	4ff#\	2.ryy	2.ryy
.	.	.	.	12ee\	.	.	.	.	.	.	.	.	.	.	.	.	.
.	.	.	.	12ff#\J)	.	.	.	.	.	.	.	.	.	.	.	.	.
4c#\	.	4ee\	.	4gg\	.	4c#\	-stram	4e\	-stram	4e\	-stram	4gg\	-stram	4ee\	4gg\	.	.
4d\	.	4dd\	.	4ff#\	.	4d\	sa-	4d\	sa-	4g\	sa-	4ff#\	sa-	4dd\	4ff#\	.	.
=60	=60	=60	=60	=60	=60	=60	=60	=60	=60	=60	=60	=60	=60	=60	=60	=60	=60
!	!	!	!	!LO:LB:g=original	!	!LO:LB:g=original	!	!LO:LB:g=original	!	!	!	!	!	!	!	!	!
4A\	.	2dd\	.	2ff#\	.	2A\	-lu-	2d\	-lu-	2a\	-lu-	2ff#\	-lu-	2dd\	2ff#\	2.ryy	2.ryy
4A\	.	.	.	.	.	.	.	.	.	.	.	.	.	.	.	.	.
4AA/	.	4cc#\	.	4ee\	.	4AA/	-tem	4c#\	-tem	4a\	-tem	4ee\	-tem	4a/	4ee\	.	.
=61	=61	=61	=61	=61	=61	=61	=61	=61	=61	=61	=61	=61	=61	=61	=61	=61	=61
!	!	!LO:PB:g=original	!	!	!	!	!	!	!	!	!	!	!	!	!	!	!
!	!	!	!	!	!	!	!	!	!	!LO:N:vis=0	!	!	!	!	!	!	!
4d\	.	4a/	.	8ff#\L	.	4d\	De-	4A\	de-	1.r	.	4ff#\	de-	4dd\	4ff#\	2.ryy	2.ryy
.	.	.	.	16ff#\L	.	.	.	.	.	.	.	.	.	.	.	.	.
.	.	.	.	16ee\JJ	.	.	.	.	.	.	.	.	.	.	.	.	.
4d\	.	4a/	.	8ff#\L	.	4d\	-scen-	4A\	-scen	.	.	4ff#\	-scen-	4r	4r	.	.
.	.	.	.	8aa\	.	.	.	.	.	.	.	.	.	.	.	.	.
!	!	!	!	!	!	!	!	!LO:SIC:o:s=:v:tekst:dit	!	!	!	!	!	!	!	!	!
4c#\	.	4a/	.	8ee\	.	4c#\	-dit	4A\	.	.	.	4ee\	-dit	4r	4r	.	.
.	.	.	.	8aa\J	.	.	.	.	.	.	.	.	.	.	.	.	.
=62	=62	=62	=62	=62	=62	=62	=62	=62	=62	=62	=62	=62	=62	=62	=62	=62	=62
!LO:LB:g=original	!	!	!	!	!	!	!	!	!	!	!	!	!	!	!	!	!
4B\	.	4f#/	.	8dd\L	.	4B\	De	4F#/	de-	.	.	4dd\	de	4dd\	4dd\	2.ryy	2.ryy
.	.	.	.	16dd\L	.	.	.	.	.	.	.	.	.	.	.	.	.
.	.	.	.	16cc#\JJ	.	.	.	.	.	.	.	.	.	.	.	.	.
4B\	.	4f#/	.	8dd\L	.	4B\	cae-	4F#/	-cae-	.	.	4dd\	cae-	4r	4r	.	.
.	.	.	.	8ff#\	.	.	.	.	.	.	.	.	.	.	.	.	.
4A\	.	4f#/	.	8cc#\	.	4A\	-lis	4F#/	-lis	.	.	4cc#\	-lis	4r	4r	.	.
.	.	.	.	8ff#\J	.	.	.	.	.	.	.	.	.	.	.	.	.
=63	=63	=63	=63	=63	=63	=63	=63	=63	=63	=63	=63	=63	=63	=63	=63	=63	=63
!	!	!	!	!	!	!	!	!	!	!	!	!	!	!LO:SIC:o:s=:v:brak tego taktu, s=4dd	!	!	!
4G\	.	4d/	.	8b/L	.	4G\	De-	4d\	de-	2.r	.	4b\	de-	4r	4dd\	2.ryy	2.ryy
.	.	.	.	16b/L	.	.	.	.	.	.	.	.	.	.	.	.	.
.	.	.	.	16a/JJ	.	.	.	.	.	.	.	.	.	.	.	.	.
4G\	.	4d/	.	8b\L	.	4G\	-scen-	4d\	-scen-	.	.	4b\	-scen-	4r	4r	.	.
.	.	.	.	8dd\	.	.	.	.	.	.	.	.	.	.	.	.	.
4F#\	.	4d/	.	8a\	.	4F#\	-dit	4d\	-dit	.	.	4a\	-dit	4r	4r	.	.
.	.	.	.	8dd\J	.	.	.	.	.	.	.	.	.	.	.	.	.
=64	=64	=64	=64	=64	=64	=64	=64	=64	=64	=64	=64	=64	=64	=64	=64	=64	=64
!!pagebreak:original
!	!	!	!	!	!	!	!	!	!	!	!	!LO:LB:g=original	!	!	!	!	!
!	!	!LO:TX:t=P:problem=mixedbeam	!	!LO:TX:t=P:problem=mixedbeam	!	!	!	!	!	!	!	!	!	!	!	!	!
4E\	.	8c#/L	.	8g/L	.	4E\	de	4c#\	de	2a\	De	4g\	de-	8a\L	8ee\L	2.ryy	2.ryy
.	.	8ee\J	.	8gg\J	.	.	.	.	.	.	.	.	.	8ee\J	8gg\J	.	.
!	!	!	!	!	!	!	!	!LO:SIC:o:s=:v:tekst:Cae	!	!	!	!	!	!	!	!	!
8e\L	.	2ee\	.	2gg\	.	8E\L	cae-	2e\	Ce-	.	.	2gg\	-cae-	2ee\	2gg\	.	.
8d\	.	.	.	.	.	8D\J	.	.	.	.	.	.	.	.	.	.	.
8c#\	.	.	.	.	.	8C#\L	.	.	.	4a\	Cae-	.	.	.	.	.	.
8B\J	.	.	.	.	.	8BB\J	.	.	.	.	.	.	.	.	.	.	.
=65	=65	=65	=65	=65	=65	=65	=65	=65	=65	=65	=65	=65	=65	=65	=65	=65	=65
8d\L	.	8dd\L	.	8ff#\L	.	4D\	.	4d\	.	4dd\	.	4ff#\	.	4dd\	4ff#\	2.ryy	2.ryy
8G\J	.	8ff#\J	.	8ddd\J	.	.	.	.	.	.	.	.	.	.	.	.	.
4A\	.	4cc#\	.	4ee\	.	4A\	.	2c#\	.	2a\	-lis	2ee\	.	4a/	4ee\	.	.
4AA/	.	4ee\	.	4ccc#\	.	4AA/	.	.	.	.	.	.	.	4a/	4ee\	.	.
=66	=66	=66	=66	=66	=66	=66	=66	=66	=66	=66	=66	=66	=66	=66	=66	=66	=66
!	!	!LO:TX:t=P:problem=mixedbeam	!	!	!	!	!	!	!	!	!	!	!	!	!	!	!
8D\L	.	8ff#\L	.	8ddd\L	.	4D\	-li	4d\	-lis	4d\	de	4ff#\	-lis	4dd\	4ff#\	2.ryy	2.ryy
8G\J	.	8f#/J	.	8dd\J	.	.	.	.	.	.	.	.	.	.	.	.	.
4A\	.	4c#/	.	4e/	.	4d\	De	4A\	de	4dd\	Cae-	4ee\	de	4a/	4ee\	.	.
!	!	!	!	!	!	!	!	!LO:SIC:o:s=:v:tekst:Cae	!	!	!	!	!	!	!	!	!
4AA/	.	4e/	.	4cc#\	.	4A\	cae-	4c#\	ce-	4cc#\	.	4ee\	cae-	4a/	4ee\	.	.
=67	=67	=67	=67	=67	=67	=67	=67	=67	=67	=67	=67	=67	=67	=67	=67	=67	=67
!	!	!	!	!	!	!	!	!	!	!	!	!	!	!LO:LB:g=original	!	!	!
2D\	.	2f#/	.	2dd\	.	2D\	-lis	2d\	-lis	2dd\	-lis	2ff#\	-lis	2dd\	2ff#\	2.ryy	2.ryy
4r	.	4r	.	4r	.	4r	.	4r	.	4r	.	4r	.	4r	4r	.	.
!	!	!	!	!LO:TX:t=Et incarlatus	!	!LO:TX:b:t=Et incarnatus Tacet.	!	!	!	!	!	!	!	!LO:TX:t=Et incrnatus Tacet	!LO:TX:b:t=Et incarnatus \nTacet	!	!
=68||	=68||	=68||	=68||	=68||	=68||	=68||	=68||	=68||	=68||	=68||	=68||	=68||	=68||	=68||	=68||	=68||	=68||
!LO:LB:g=original	!	!LO:PB:g=original	!	!	!	!	!	!	!	!	!	!LO:LB:g=original	!	!	!LO:PB:g=original	!	!
*k[b-e-]	*	*k[b-e-]	*	*k[b-e-]	*	*k[b-e-]	*	*k[b-e-]	*	*	*	*k[b-e-]	*	*	*k[b-e-]	*	*
*	*	*k[b-e-]	*	*M3/4	*	*	*	*	*	*	*	*M3/4	*	*	*	*	*
*B-:	*	*B-:	*	*B-:	*	*B-:	*	*B-:	*	*B-:	*	*B-:	*	*B-:	*B-:	*	*
!LO:TX:a:t=ASante	!	!LO:TX:a:t=adagio.	!	!	!	!	!	!	!	!	!	!	!	!	!	!	!
!	!	!	!	!	!	!	!	!LO:TX::t=Et incarnatus Tacet	!	!LO:TX:b:t=tacet \nEt incarnatus	!	!	!	!	!	!	!
!LO:TX:b:t=Et incarnatus	!	!LO:TX:b:t=Et in Carnatus	!	!LO:TX:a:t=andante	!	!	!	!	!	!	!	!LO:N:vis=00	!	!	!	!	!
4G\	.	8r	.	8r	.	2.ryy	.	2.ryy	.	2.ryy	.	0.r	.	2.ryy	2.ryy	2.ryy	2.ryy
.	.	(8b-\L	.	(8dd\L	.	.	.	.	.	.	.	.	.	.	.	.	.
4GG/	.	8cc\	.	8ee-\	.	.	.	.	.	.	.	.	.	.	.	.	.
.	.	8b-\	.	8dd\	.	.	.	.	.	.	.	.	.	.	.	.	.
4r	.	8dd\	.	8bb-\	.	.	.	.	.	.	.	.	.	.	.	.	.
.	.	8b-\J)	.	8dd\J)	.	.	.	.	.	.	.	.	.	.	.	.	.
=69	=69	=69	=69	=69	=69	=69	=69	=69	=69	=69	=69	=69	=69	=69	=69	=69	=69
4D/	.	8r	.	8r	.	2.ryy	.	2.ryy	.	2.ryy	.	.	.	2.ryy	2.ryy	2.ryy	2.ryy
.	.	(8a\L	.	(8cc\L	.	.	.	.	.	.	.	.	.	.	.	.	.
4DD/	.	8b-\	.	8dd\	.	.	.	.	.	.	.	.	.	.	.	.	.
.	.	8a\	.	8cc\	.	.	.	.	.	.	.	.	.	.	.	.	.
4r	.	8cc\	.	8aa\	.	.	.	.	.	.	.	.	.	.	.	.	.
.	.	8a\J)	.	8cc\J)	.	.	.	.	.	.	.	.	.	.	.	.	.
=70	=70	=70	=70	=70	=70	=70	=70	=70	=70	=70	=70	=70	=70	=70	=70	=70	=70
4G\	.	8r	.	8r	.	2.ryy	.	2.ryy	.	2.ryy	.	.	.	2.ryy	2.ryy	2.ryy	2.ryy
.	.	(8g/L	.	(8b-\L	.	.	.	.	.	.	.	.	.	.	.	.	.
4GG/	.	8a/	.	8cc\	.	.	.	.	.	.	.	.	.	.	.	.	.
.	.	8g/	.	8b-\	.	.	.	.	.	.	.	.	.	.	.	.	.
4r	.	8f#X/	.	8a\	.	.	.	.	.	.	.	.	.	.	.	.	.
.	.	8g/J)	.	8b-\J)	.	.	.	.	.	.	.	.	.	.	.	.	.
=71	=71	=71	=71	=71	=71	=71	=71	=71	=71	=71	=71	=71	=71	=71	=71	=71	=71
4D/	.	(4g/	.	4b-\	.	2.ryy	.	2.ryy	.	2.ryy	.	.	.	2.ryy	2.ryy	2.ryy	2.ryy
4DD/	.	4f#X/	.	(8a\L	.	.	.	.	.	.	.	.	.	.	.	.	.
.	.	.	.	8dd\	.	.	.	.	.	.	.	.	.	.	.	.	.
4r	.	8r	.	8ee-\	.	.	.	.	.	.	.	.	.	.	.	.	.
.	.	8b-\)	.	8dd\J)	.	.	.	.	.	.	.	.	.	.	.	.	.
=72	=72	=72	=72	=72	=72	=72	=72	=72	=72	=72	=72	=72	=72	=72	=72	=72	=72
!	!	!	!	!LO:LB:g=original	!	!	!	!	!	!	!	!	!	!	!	!	!
!	!	!	!	!	!	!	!	!	!	!	!	!LO:N:vis=0	!	!	!	!	!
4D/	.	4b-\	.	4cc#X\	.	2.ryy	.	2.ryy	.	2.ryy	.	1.r	.	2.ryy	2.ryy	2.ryy	2.ryy
4DD/	.	4a\	.	8dd\L	.	.	.	.	.	.	.	.	.	.	.	.	.
.	.	.	.	8ccn\	.	.	.	.	.	.	.	.	.	.	.	.	.
4r	.	8r	.	8aa\	.	.	.	.	.	.	.	.	.	.	.	.	.
.	.	8a\	.	8cc\J	.	.	.	.	.	.	.	.	.	.	.	.	.
=73	=73	=73	=73	=73	=73	=73	=73	=73	=73	=73	=73	=73	=73	=73	=73	=73	=73
4G\	.	4a/	.	4cc\	.	2.ryy	.	2.ryy	.	2.ryy	.	.	.	2.ryy	2.ryy	2.ryy	2.ryy
4GG/	.	4g/	.	(8b-\L	.	.	.	.	.	.	.	.	.	.	.	.	.
.	.	.	.	8b-\	.	.	.	.	.	.	.	.	.	.	.	.	.
4r	.	8r	.	8a\	.	.	.	.	.	.	.	.	.	.	.	.	.
.	.	8e-/	.	8g\J)	.	.	.	.	.	.	.	.	.	.	.	.	.
=74	=74	=74	=74	=74	=74	=74	=74	=74	=74	=74	=74	=74	=74	=74	=74	=74	=74
8G\L	.	8d/L	.	8f#X/L	.	2.ryy	.	2.ryyyy	.	2.ryy	.	2.r	.	2.ryy	2.ryy	2.ryy	2.ryy
8G\	.	8e-/J	.	8g/J	.	.	.	.	.	.	.	.	.	.	.	.	.
8D\	.	4d/	.	4d/	.	.	.	.	.	.	.	.	.	.	.	.	.
8D\	.	.	.	.	.	.	.	.	.	.	.	.	.	.	.	.	.
!LO:TX:t=P:problem=mixedbeam	!	!	!	!	!	!	!	!	!	!	!	!	!	!	!	!	!
8DD/	.	4A/	.	4f#X/	.	.	.	.	.	.	.	.	.	.	.	.	.
8DD/J	.	.	.	.	.	.	.	.	.	.	.	.	.	.	.	.	.
=75	=75	=75	=75	=75	=75	=75	=75	=75	=75	=75	=75	=75	=75	=75	=75	=75	=75
!	!LO:DY:b	!LO:TX:t=P:problem=mixedbeam	!	!	!	!	!	!	!	!	!	!	!	!	!	!	!
4GG/	p	8B-/L	p	(8g\L	.	2.ryy	.	2.ryy	.	2.ryy	.	2.dd\	Et	2.ryy	2.ryy	2.ryy	2.ryy
.	.	8b-/J	.	8dd\	p	.	.	.	.	.	.	.	.	.	.	.	.
!	!	!LO:LB:g=original	!	!	!	!	!	!	!	!	!	!	!	!	!	!	!
4GG/	.	8cc\L	.	8ee-\	.	.	.	.	.	.	.	.	.	.	.	.	.
.	.	8b-\	.	8dd\	.	.	.	.	.	.	.	.	.	.	.	.	.
4r	.	8dd\	.	8bb-\	.	.	.	.	.	.	.	.	.	.	.	.	.
.	.	8b-\J	.	8dd\J)	.	.	.	.	.	.	.	.	.	.	.	.	.
=76	=76	=76	=76	=76	=76	=76	=76	=76	=76	=76	=76	=76	=76	=76	=76	=76	=76
!LO:LB:g=original	!	!	!	!	!	!	!	!	!	!	!	!	!	!	!	!	!
.	.	.	.	.	.	.	.	.	.	.	.	8qqdd/	.	.	.	.	.
4D\	.	8r	.	8r	.	2.ryy	.	2.ryy	.	2.ryy	.	2.cc\	In-	2.ryy	2.ryy	2.ryy	2.ryy
.	.	(8a/L	.	(8cc\L	.	.	.	.	.	.	.	.	.	.	.	.	.
4D\	.	8b-/	.	8dd\	.	.	.	.	.	.	.	.	.	.	.	.	.
.	.	8a/	.	8cc\	.	.	.	.	.	.	.	.	.	.	.	.	.
4r	.	8cc/	.	8aa\	.	.	.	.	.	.	.	.	.	.	.	.	.
.	.	8a/J)	.	8cc\J)	.	.	.	.	.	.	.	.	.	.	.	.	.
=77	=77	=77	=77	=77	=77	=77	=77	=77	=77	=77	=77	=77	=77	=77	=77	=77	=77
4G\	.	8r	.	8r	.	2.ryy	.	2.ryy	.	2.ryy	.	4b-\	-car-	2.ryy	2.ryy	2.ryy	2.ryy
.	.	(8g/L	.	(8b-\L	.	.	.	.	.	.	.	.	.	.	.	.	.
4GG/	.	8a/	.	8cc\	.	.	.	.	.	.	.	8cc\L	.	.	.	.	.
.	.	8g/	.	8b-\	.	.	.	.	.	.	.	8b-\J	.	.	.	.	.
4r	.	8f#X/	.	8a\	.	.	.	.	.	.	.	8a\L	-na-	.	.	.	.
.	.	8g/J)	.	8b-\J)	.	.	.	.	.	.	.	8b-\J	.	.	.	.	.
=78	=78	=78	=78	=78	=78	=78	=78	=78	=78	=78	=78	=78	=78	=78	=78	=78	=78
4D\	.	4g/	.	4b-\	.	2.ryy	.	2.ryy	.	2.ryy	.	4b-\	.	2.ryy	2.ryy	2.ryy	2.ryy
4DD/	.	8f#X/L	.	(8a\L	.	.	.	.	.	.	.	4a\	-tus	.	.	.	.
.	.	8cc/	.	8aa\	.	.	.	.	.	.	.	.	.	.	.	.	.
4r	.	8b-/	.	8gg\	.	.	.	.	.	.	.	8r	.	.	.	.	.
.	.	8d/J	.	8ff\J)	.	.	.	.	.	.	.	8b-\	e	.	.	.	.
=79	=79	=79	=79	=79	=79	=79	=79	=79	=79	=79	=79	=79	=79	=79	=79	=79	=79
!	!	!	!	!LO:LB:g=original	!	!	!	!	!	!	!	!	!	!	!	!	!
4D\	.	4g/	.	4b-\	.	2.ryy	.	2.ryy	.	2.ryy	.	4b-\	st	2.ryy	2.ryy	2.ryy	2.ryy
4DD/	.	4f#X/	.	4a\	.	.	.	.	.	.	.	4a\	.	.	.	.	.
4r	.	4r	.	4r	.	.	.	.	.	.	.	4r	.	.	.	.	.
=80	=80	=80	=80	=80	=80	=80	=80	=80	=80	=80	=80	=80	=80	=80	=80	=80	=80
!	!	!	!	!	!	!	!	!	!	!	!	!LO:LB:g=original	!	!	!	!	!
*tremolo	*	*	*	*	*	*	*	*	*	*	*	*	*	*	*	*	*
8B-\L	.	8dd\L	.	8ffn\L	.	2.ryy	.	2.ryy	.	2.ryy	.	2b-\	de	2.ryy	2.ryy	2.ryy	2.ryy
8B-\	.	8dd\	.	8ff\	.	.	.	.	.	.	.	.	.	.	.	.	.
8B-\	.	8dd\	.	8ff\	.	.	.	.	.	.	.	.	.	.	.	.	.
8B-\	.	8dd\	.	8ff\	.	.	.	.	.	.	.	.	.	.	.	.	.
8B-\	.	8dd\	.	8ff\	.	.	.	.	.	.	.	8dd\L	Spi-	.	.	.	.
8B-\J	.	8dd\J	.	8ff\J	.	.	.	.	.	.	.	8ff\J	.	.	.	.	.
=81	=81	=81	=81	=81	=81	=81	=81	=81	=81	=81	=81	=81	=81	=81	=81	=81	=81
*	*	*tremolo	*	*tremolo	*	*	*	*	*	*	*	*	*	*	*	*	*
8B-\L	.	8ee-\L	.	8gg\L	.	2.ryy	.	2.ryy	.	2.ryy	.	4.ff\	-ri-	2.ryy	2.ryy	2.ryy	2.ryy
8B-\	.	8ee-\	.	8gg\	.	.	.	.	.	.	.	.	.	.	.	.	.
8B-\	.	8ee-\	.	8gg\	.	.	.	.	.	.	.	.	.	.	.	.	.
8B-\	.	8ee-\	.	8gg\	.	.	.	.	.	.	.	16gg\LL	.	.	.	.	.
.	.	.	.	.	.	.	.	.	.	.	.	16aa\JJ	.	.	.	.	.
8B-\	.	8ee-\	.	8gg\	.	.	.	.	.	.	.	8bb-\L	-tu	.	.	.	.
8B-\J	.	8ee-\J	.	8gg\J	.	.	.	.	.	.	.	16aa\L	.	.	.	.	.
.	.	.	.	.	.	.	.	.	.	.	.	16gg\JJ	.	.	.	.	.
*	*	*Xtremolo	*	*Xtremolo	*	*	*	*	*	*	*	*	*	*	*	*	*
=82	=82	=82	=82	=82	=82	=82	=82	=82	=82	=82	=82	=82	=82	=82	=82	=82	=82
8B-\L	.	8dd\L	.	8ff\L	.	2.ryy	.	2.ryy	.	2.ryy	.	4ff\	San-	2.ryy	2.ryy	2.ryy	2.ryy
8B-\	.	8dd\	.	8ff\	.	.	.	.	.	.	.	.	.	.	.	.	.
8B-\	.	8cc\	.	8ee-\	.	.	.	.	.	.	.	4ff\	.	.	.	.	.
8B-\J	.	8cc\	.	8ee-\	.	.	.	.	.	.	.	.	.	.	.	.	.
*Xtremolo	*	*	*	*	*	*	*	*	*	*	*	*	*	*	*	*	*
8A\L	.	8cc\	.	8ee-\	.	.	.	.	.	.	.	4ee-\	cto	.	.	.	.
8A\J	.	8cc\J	.	8ee-\J	.	.	.	.	.	.	.	.	.	.	.	.	.
=83	=83	=83	=83	=83	=83	=83	=83	=83	=83	=83	=83	=83	=83	=83	=83	=83	=83
8B-\L	.	8b-/L	.	8dd\L	.	2.ryy	.	2.ryy	.	2.ryy	.	4.dd\	ex	2.ryy	2.ryy	2.ryy	2.ryy
8D\J	.	8f/J	.	8dd\	.	.	.	.	.	.	.	.	.	.	.	.	.
!	!	!LO:LB:g=original	!	!	!	!	!	!	!	!	!	!	!	!	!	!	!
*tremolo	*	*	*	*	*	*	*	*	*	*	*	*	*	*	*	*	*
8D/L	.	8f/L	.	8dd\	.	.	.	.	.	.	.	.	.	.	.	.	.
8D/	.	8b-/	.	8ff\	.	.	.	.	.	.	.	16ff\LL	.	.	.	.	.
.	.	.	.	.	.	.	.	.	.	.	.	16ee-\JJ	.	.	.	.	.
8D/	.	8b-/	.	8ff\	.	.	.	.	.	.	.	16dd\LL	-Ma-	.	.	.	.
.	.	.	.	.	.	.	.	.	.	.	.	16cc\JJ	.	.	.	.	.
8D/J	.	8b-/J	.	8ff\J	.	.	.	.	.	.	.	16b-\LL	-ri-	.	.	.	.
.	.	.	.	.	.	.	.	.	.	.	.	16a-X\JJ	-a	.	.	.	.
=84	=84	=84	=84	=84	=84	=84	=84	=84	=84	=84	=84	=84	=84	=84	=84	=84	=84
*	*	*tremolo	*	*tremolo	*	*	*	*	*	*	*	*	*	*	*	*	*
8E-\L	.	8b-\L	.	8gg\L	.	2.ryy	.	2.ryy	.	2.ryy	.	4.g\	ex	2.ryy	2.ryy	2.ryy	2.ryy
8E-\	.	8b-\	.	8gg\	.	.	.	.	.	.	.	.	.	.	.	.	.
8E-\	.	8b-\	.	8gg\	.	.	.	.	.	.	.	.	.	.	.	.	.
8E-\	.	8b-\	.	8gg\	.	.	.	.	.	.	.	16gg\LL	.	.	.	.	.
.	.	.	.	.	.	.	.	.	.	.	.	16ff\JJ	Ma	.	.	.	.
8E-\	.	8b-\	.	8gg\	.	.	.	.	.	.	.	16ee-\LL	.	.	.	.	.
.	.	.	.	.	.	.	.	.	.	.	.	16dd\JJ	ri-	.	.	.	.
8E-\J	.	8b-\J	.	8gg\J	.	.	.	.	.	.	.	16cc\LL	-a	.	.	.	.
.	.	.	.	.	.	.	.	.	.	.	.	16b-\JJ	.	.	.	.	.
*	*	*Xtremolo	*	*Xtremolo	*	*	*	*	*	*	*	*	*	*	*	*	*
=85	=85	=85	=85	=85	=85	=85	=85	=85	=85	=85	=85	=85	=85	=85	=85	=85	=85
!LO:LB:g=original	!	!	!	!	!	!	!	!	!	!	!	!LO:LB:g=original	!	!	!	!	!
.	.	8qqd/	.	8qqb-/	.	.	.	.	.	.	.	.	.	.	.	.	.
4F\	.	4c/	.	4a/	.	2.ryy	.	2.ryy	.	2.ryy	.	4an\	et	2.ryy	2.ryy	2.ryy	2.ryy
4FF/	.	(8f/L	.	(8a\L	.	.	.	.	.	.	.	8a\L	.	.	.	.	.
.	.	8a/	.	8cc\)	.	.	.	.	.	.	.	8cc\	.	.	.	.	.
4r	.	8g/	.	(8b-\	.	.	.	.	.	.	.	8b-\	ho	.	.	.	.
.	.	8b-/J)	.	8dd\J)	.	.	.	.	.	.	.	8dd\J	.	.	.	.	.
=86	=86	=86	=86	=86	=86	=86	=86	=86	=86	=86	=86	=86	=86	=86	=86	=86	=86
4F\	.	4a\	.	4cc\	.	2.ryy	.	2.ryy	.	2.ryy	.	4cc\	-mo	2.ryy	2.ryy	2.ryy	2.ryy
4FF/	.	8a\L	.	(8cc\L	.	.	.	.	.	.	.	8cc\L	et	.	.	.	.
.	.	8cc\	.	8ee-\)	.	.	.	.	.	.	.	8ee-\	.	.	.	.	.
4r	.	8b-\	.	(8dd\	.	.	.	.	.	.	.	8dd\	.	.	.	.	.
.	.	8dd\J	.	8ff\J)	.	.	.	.	.	.	.	8ff\J	homo	.	.	.	.
=87	=87	=87	=87	=87	=87	=87	=87	=87	=87	=87	=87	=87	=87	=87	=87	=87	=87
4F\	.	4cc\	.	4ee-\	.	2.ryy	.	2.ryyyy	.	2.ryy	.	8ee-\L	fa-	2.ryy	2.ryy	2.ryy	2.ryy
.	.	.	.	.	.	.	.	.	.	.	.	8cc\	.	.	.	.	.
4F\	.	4cc\	.	4ee-\	.	.	.	.	.	.	.	8a\	.	.	.	.	.
.	.	.	.	.	.	.	.	.	.	.	.	8f\J	.	.	.	.	.
.	.	.	.	.	.	.	.	.	.	.	.	8qqf/	.	.	.	.	.
4F\	.	4cc\	.	4ee-\	.	.	.	.	.	.	.	4e-/	-ctus	.	.	.	.
=88	=88	=88	=88	=88	=88	=88	=88	=88	=88	=88	=88	=88	=88	=88	=88	=88	=88
!	!	!	!	!LO:LB:g=original	!	!	!	!	!	!	!	!	!	!	!	!	!
4BB-/	.	4b-\	.	4dd\	.	2.ryy	.	2.ryy	.	2.ryy	.	4d/	est	2.ryy	2.ryy	2.ryy	2.ryy
4C/	.	4e-/	.	4a\	.	.	.	.	.	.	.	4a\	ho-	.	.	.	.
4D/	.	4f/	.	4b-\	.	.	.	.	.	.	.	4b-\	-mo	.	.	.	.
=89	=89	=89	=89	=89	=89	=89	=89	=89	=89	=89	=89	=89	=89	=89	=89	=89	=89
4E-\	.	4g/	.	8ee-\L	.	2.ryy	.	2.ryy	.	2.ryy	.	8ee-\L	ho-	2.ryy	2.ryy	2.ryy	2.ryy
.	.	.	.	8cc\J	.	.	.	.	.	.	.	8cc\J	-mo	.	.	.	.
4F\	.	4d/	.	4b-\	.	.	.	.	.	.	.	4b-\	fa-	.	.	.	.
4FF/	.	4e-/	.	4cc\	.	.	.	.	.	.	.	4cc\	-ctus	.	.	.	.
=90	=90	=90	=90	=90	=90	=90	=90	=90	=90	=90	=90	=90	=90	=90	=90	=90	=90
!	!LO:DY:b:t=for:	!LO:TX:t=P:mixedbem:problem	!	!	!	!	!	!	!	!	!	!	!	!	!	!	!
4BB-/	f	8d/L	.	(8b-\L	.	2.ryy	.	2.ryy	.	2.ryy	.	4b-\	est	2.ryy	2.ryy	2.ryy	2.ryy
.	.	8dd\	.	8bb-\)	.	.	.	.	.	.	.	.	.	.	.	.	.
4BB-/	.	8cc\	f	(8aa\	.	.	.	.	.	.	.	4r	.	.	.	.	.
.	.	8dd\	.	8bb-\J)	.	.	.	.	.	.	.	.	.	.	.	.	.
4r	.	8b-\	.	(8dd\L	.	.	.	.	.	.	.	4r	.	.	.	.	.
.	.	8dd\J	.	8ff\J)	.	.	.	.	.	.	.	.	.	.	.	.	.
=91	=91	=91	=91	=91	=91	=91	=91	=91	=91	=91	=91	=91	=91	=91	=91	=91	=91
!	!	!	!	!	!	!	!	!	!	!	!	!LO:N:vis=00	!	!	!	!	!
4F\	.	8r	.	8r	.	2.ryy	.	2.ryy	.	2.ryyyy	.	0.r	.	2.ryy	2.ryy	2.ryy	2.ryy
.	.	8cc\L	.	8ee-\L	.	.	.	.	.	.	.	.	.	.	.	.	.
4FF/	.	8b-\	.	8dd\	.	.	.	.	.	.	.	.	.	.	.	.	.
.	.	8cc\	.	8ee-\	.	.	.	.	.	.	.	.	.	.	.	.	.
4r	.	8a\	.	8cc\	.	.	.	.	.	.	.	.	.	.	.	.	.
.	.	8cc\J	.	8ee-\J	.	.	.	.	.	.	.	.	.	.	.	.	.
=92	=92	=92	=92	=92	=92	=92	=92	=92	=92	=92	=92	=92	=92	=92	=92	=92	=92
4BB-/	.	8b-/L	.	8dd\L	.	2.ryy	.	2.ryy	.	2.ryy	.	.	.	2.ryy	2.ryy	2.ryy	2.ryy
.	.	8d/	.	8b-\	.	.	.	.	.	.	.	.	.	.	.	.	.
4BB-/	.	8c/	.	8a\	.	.	.	.	.	.	.	.	.	.	.	.	.
.	.	8d/J	.	8b-\J	.	.	.	.	.	.	.	.	.	.	.	.	.
!	!	!LO:LB:g=original	!	!	!	!	!	!	!	!	!	!	!	!	!	!	!
4r	.	8B-/L	.	8d/L	.	.	.	.	.	.	.	.	.	.	.	.	.
.	.	8d/J	.	8f/J	.	.	.	.	.	.	.	.	.	.	.	.	.
=93	=93	=93	=93	=93	=93	=93	=93	=93	=93	=93	=93	=93	=93	=93	=93	=93	=93
4F\	.	8r	.	8r	.	2.ryy	.	2.ryy	.	2.ryy	.	.	.	2.ryy	2.ryy	2.ryy	2.ryy
.	.	(8c/L	.	8e-/L	.	.	.	.	.	.	.	.	.	.	.	.	.
4FF/	.	8B-/	.	(8d/	.	.	.	.	.	.	.	.	.	.	.	.	.
.	.	8c/	.	8e-/	.	.	.	.	.	.	.	.	.	.	.	.	.
4r	.	8A/	.	8c/)	.	.	.	.	.	.	.	.	.	.	.	.	.
.	.	8c/J)	.	8e-/J	.	.	.	.	.	.	.	.	.	.	.	.	.
=94	=94	=94	=94	=94	=94	=94	=94	=94	=94	=94	=94	=94	=94	=94	=94	=94	=94
!LO:LB:g=original	!	!	!	!	!	!	!	!	!	!	!	!	!	!	!	!	!
4BB-/	.	8B-/L	.	8d/L	.	2.ryy	.	2.ryy	.	2.ryy	.	.	.	2.ryy	2.ryy	2.ryy	2.ryy
.	.	(8B-/	.	(8d/	.	.	.	.	.	.	.	.	.	.	.	.	.
4BB-/	.	8c/	.	8e-/	.	.	.	.	.	.	.	.	.	.	.	.	.
.	.	8d/J	.	8f/	.	.	.	.	.	.	.	.	.	.	.	.	.
4r	.	8e-/L	.	8g/	.	.	.	.	.	.	.	.	.	.	.	.	.
.	.	8c/J)	.	8a/J)	.	.	.	.	.	.	.	.	.	.	.	.	.
=95	=95	=95	=95	=95	=95	=95	=95	=95	=95	=95	=95	=95	=95	=95	=95	=95	=95
!	!	!	!	!LO:LB:g=original	!	!	!	!	!	!	!	!	!	!	!	!	!
4E-\	.	8d/L	.	8b-\L	.	2.ryy	.	2.ryy	.	2.ryy	.	2.r	.	2.ryy	2.ryy	2.ryy	2.ryy
.	.	8g/J	.	8cc\J	.	.	.	.	.	.	.	.	.	.	.	.	.
4F\	.	4d/	.	4b-\	.	.	.	.	.	.	.	.	.	.	.	.	.
4FF/	.	4c/	.	4at\	.	.	.	.	.	.	.	.	.	.	.	.	.
=96	=96	=96	=96	=96	=96	=96	=96	=96	=96	=96	=96	=96	=96	=96	=96	=96	=96
!	!	!	!	!	!	!	!	!	!	!	!	!LO:LB:g=original	!	!	!	!	!
!	!LO:DY:b	!LO:TX:t=P:problem=mixedbeam	!	!	!	!	!	!	!	!	!	!	!	!	!	!	!
4BB-/	f	(8d/L	.	(8b-\L	p	2.ryy	.	2.ryy	.	2.ryy	.	2.ff\	cru-	2.ryy	2.ryy	2.ryy	2.ryy
.	.	8dd\	.	8ff\	.	.	.	.	.	.	.	.	.	.	.	.	.
4BB-/	.	8ee-\	p	8gg\	.	.	.	.	.	.	.	.	.	.	.	.	.
.	.	8dd\	.	8ff\)	.	.	.	.	.	.	.	.	.	.	.	.	.
4r	.	8ff\	.	8ddd\	.	.	.	.	.	.	.	.	.	.	.	.	.
.	.	8dd\J)	.	8ff\J	.	.	.	.	.	.	.	.	.	.	.	.	.
=97	=97	=97	=97	=97	=97	=97	=97	=97	=97	=97	=97	=97	=97	=97	=97	=97	=97
.	.	.	.	.	.	.	.	.	.	.	.	8qqff/	.	.	.	.	.
4F\	.	8r	.	8r	.	2.ryy	.	2.ryy	.	2.ryy	.	2.ee-\	-ci-	2.ryy	2.ryy	2.ryy	2.ryy
.	.	(8cc\L	.	(8ee-\L	.	.	.	.	.	.	.	.	.	.	.	.	.
4FF/	.	8dd\	.	8ff\	.	.	.	.	.	.	.	.	.	.	.	.	.
.	.	8cc\	.	8ee-\	.	.	.	.	.	.	.	.	.	.	.	.	.
4r	.	8ee-\	.	8ccc\	.	.	.	.	.	.	.	.	.	.	.	.	.
.	.	8cc\J)	.	8ee-\J)	.	.	.	.	.	.	.	.	.	.	.	.	.
=98	=98	=98	=98	=98	=98	=98	=98	=98	=98	=98	=98	=98	=98	=98	=98	=98	=98
4BB-/	.	8r	.	8r	.	2.ryy	.	2.ryy	.	2.ryy	.	4dd\	-fi-	2.ryy	2.ryy	2.ryy	2.ryy
.	.	8f/L	.	(8dd\L	.	.	.	.	.	.	.	.	.	.	.	.	.
4E-\	.	8g/	.	8ee-\	.	.	.	.	.	.	.	8ee-\L	.	.	.	.	.
.	.	8f/	.	8dd\	.	.	.	.	.	.	.	8dd\J	.	.	.	.	.
4En\	.	8e-/	.	8cc\	.	.	.	.	.	.	.	8cc\	-xus	.	.	.	.
.	.	8d/J	.	8b-\J)	.	.	.	.	.	.	.	8b-\	.	.	.	.	.
=99	=99	=99	=99	=99	=99	=99	=99	=99	=99	=99	=99	=99	=99	=99	=99	=99	=99
.	.	8qqd/	.	8qqb-/	.	.	.	.	.	.	.	8qqb-/	.	.	.	.	.
4F\	.	4c/	.	4a/	.	2.ryy	.	2.ryy	.	2.ryy	.	4a\	est	2.ryy	2.ryy	2.ryy	2.ryy
8B-\L	.	4d/	.	4b-/	.	.	.	.	.	.	.	4b-\	.	.	.	.	.
8c\	.	.	.	.	.	.	.	.	.	.	.	.	.	.	.	.	.
8B-\	.	4r	.	4r	.	.	.	.	.	.	.	4r	.	.	.	.	.
8A\J	.	.	.	.	.	.	.	.	.	.	.	.	.	.	.	.	.
=100	=100	=100	=100	=100	=100	=100	=100	=100	=100	=100	=100	=100	=100	=100	=100	=100	=100
!	!	!LO:LB:g=original	!	!	!	!	!	!	!	!	!	!	!	!	!	!	!
4G\	.	8r	.	8r	.	2.ryy	.	2.ryy	.	2.ryy	.	2.dd\	cru-	2.ryy	2.ryy	2.ryy	2.ryy
.	.	(8b-\L	.	(8dd\L	.	.	.	.	.	.	.	.	.	.	.	.	.
4GG/	.	8cc\	.	8ee-\	.	.	.	.	.	.	.	.	.	.	.	.	.
.	.	8b-\	.	8dd\	.	.	.	.	.	.	.	.	.	.	.	.	.
4r	.	8dd\	.	8bb-\	.	.	.	.	.	.	.	.	.	.	.	.	.
.	.	8b-\J)	.	8dd\J)	.	.	.	.	.	.	.	.	.	.	.	.	.
=101	=101	=101	=101	=101	=101	=101	=101	=101	=101	=101	=101	=101	=101	=101	=101	=101	=101
.	.	.	.	.	.	.	.	.	.	.	.	8qqdd/	.	.	.	.	.
4D\	.	8r	.	8r	.	2.ryy	.	2.ryy	.	2.ryy	.	2.cc\	-ci-	2.ryy	2.ryy	2.ryy	2.ryy
.	.	(8a\L	.	(8cc\L	.	.	.	.	.	.	.	.	.	.	.	.	.
4DD/	.	8b-\	.	8dd\	.	.	.	.	.	.	.	.	.	.	.	.	.
.	.	8a\	.	8cc\	.	.	.	.	.	.	.	.	.	.	.	.	.
4r	.	8cc\	.	8aa\	.	.	.	.	.	.	.	.	.	.	.	.	.
.	.	8a\J)	.	8cc\J)	.	.	.	.	.	.	.	.	.	.	.	.	.
=102	=102	=102	=102	=102	=102	=102	=102	=102	=102	=102	=102	=102	=102	=102	=102	=102	=102
!LO:PB:g=original	!	!	!	!LO:LB:g=original	!	!	!	!	!	!	!	!	!	!	!	!	!
4G\	.	8r	.	8r	.	2.ryy	.	2.ryy	.	2.ryy	.	4b-\	-fi-	2.ryy	2.ryy	2.ryy	2.ryy
.	.	(8g/L	.	(8b-\L	.	.	.	.	.	.	.	.	.	.	.	.	.
4GG/	.	8a/	.	8cc\	.	.	.	.	.	.	.	8cc\L	.	.	.	.	.
.	.	8g/	.	8b-\	.	.	.	.	.	.	.	8b-\J	.	.	.	.	.
4r	.	8f#X/	.	8a\)	.	.	.	.	.	.	.	8a\L	-xus	.	.	.	.
.	.	8g/J)	.	8b-\J	.	.	.	.	.	.	.	8b-\J	.	.	.	.	.
=103	=103	=103	=103	=103	=103	=103	=103	=103	=103	=103	=103	=103	=103	=103	=103	=103	=103
!	!	!	!	!	!	!	!	!	!	!	!	!LO:LB:g=original	!	!	!	!	!
4D\	.	8g/	.	4b-\	.	2.ryy	.	2.ryy	.	2.ryy	.	(4b-\	est	2.ryy	2.ryy	2.ryy	2.ryy
.	.	8ryy	.	.	.	.	.	.	.	.	.	.	.	.	.	.	.
4D\	.	8f#X/L	.	(8a\L	.	.	.	.	.	.	.	4a\)	.	.	.	.	.
.	.	8cc/	.	8aa\	.	.	.	.	.	.	.	.	.	.	.	.	.
4r	.	8b-/	.	8gg\	.	.	.	.	.	.	.	8r	.	.	.	.	.
.	.	8g/J	.	8b-\J)	.	.	.	.	.	.	.	8b-\	e	.	.	.	.
=104	=104	=104	=104	=104	=104	=104	=104	=104	=104	=104	=104	=104	=104	=104	=104	=104	=104
4D\	.	4g/	.	4b-T\	.	2.ryy	.	2.ryy	.	2.ryy	.	4b-\	st	2.ryy	2.ryy	2.ryy	2.ryy
4DD/	.	8f#X/L	.	8a\L	.	.	.	.	.	.	.	4a\	.	.	.	.	.
.	.	8b-/	.	8dd\	.	.	.	.	.	.	.	.	.	.	.	.	.
4r	.	8b-/	.	8dd\	.	.	.	.	.	.	.	8dd\	e-	.	.	.	.
.	.	8b-/J	.	8dd\J	.	.	.	.	.	.	.	8dd\	-ti-	.	.	.	.
=105	=105	=105	=105	=105	=105	=105	=105	=105	=105	=105	=105	=105	=105	=105	=105	=105	=105
8C/L	.	8cc\L	.	8ee-X\L	.	2.ryy	.	2.ryy	.	2.ryy	.	4.ee-\	-am	2.ryy	2.ryy	2.ryy	2.ryy
8C/	.	8cc\	.	8ee-\	.	.	.	.	.	.	.	.	.	.	.	.	.
8C/	.	8cc\	.	8ee-\	.	.	.	.	.	.	.	.	.	.	.	.	.
8C/	.	8cc\	.	8ee-\	.	.	.	.	.	.	.	8ff#X\	.	.	.	.	.
8C/	.	8cc\	.	8ee-\	.	.	.	.	.	.	.	8gg\L	pro	.	.	.	.
8C/J	.	8cc\J	.	8ee-\J	.	.	.	.	.	.	.	8ee-\J	no-	.	.	.	.
=106	=106	=106	=106	=106	=106	=106	=106	=106	=106	=106	=106	=106	=106	=106	=106	=106	=106
*	*	*tremolo	*	*tremolo	*	*	*	*	*	*	*	*	*	*	*	*	*
8G\L	.	8b-\L	.	8dd\L	.	2.ryy	.	2.ryy	.	2.ryy	.	4.dd\	-bis	2.ryy	2.ryy	2.ryy	2.ryy
8G\	.	8b-\	.	8dd\	.	.	.	.	.	.	.	.	.	.	.	.	.
8G\	.	8b-\	.	8dd\	.	.	.	.	.	.	.	.	.	.	.	.	.
8G\	.	8b-\	.	8dd\	.	.	.	.	.	.	.	8ff#X\	pro	.	.	.	.
8G\	.	8b-\	.	8dd\	.	.	.	.	.	.	.	8gg\L	no-	.	.	.	.
8G\J	.	8b-\J	.	8dd\J	.	.	.	.	.	.	.	8dd\J	.	.	.	.	.
=107	=107	=107	=107	=107	=107	=107	=107	=107	=107	=107	=107	=107	=107	=107	=107	=107	=107
.	.	.	.	.	.	.	.	.	.	.	.	8qqdd/	.	.	.	.	.
8F#X\L	.	8a\L	.	8cc\L	.	2.ryy	.	2.ryy	.	2.ryy	.	4.cc\	-bis	2.ryy	2.ryy	2.ryy	2.ryy
8F#\	.	8a\	.	8cc\	.	.	.	.	.	.	.	.	.	.	.	.	.
8F#\	.	8a\	.	8cc\	.	.	.	.	.	.	.	.	.	.	.	.	.
8F#\J	.	8a\	.	8cc\	.	.	.	.	.	.	.	8aa\	pro-	.	.	.	.
*Xtremolo	*	*	*	*	*	*	*	*	*	*	*	*	*	*	*	*	*
8D\L	.	8a\	.	8cc\	.	.	.	.	.	.	.	8ff#X\L	.	.	.	.	.
8D\J	.	8a\J	.	8cc\J	.	.	.	.	.	.	.	8cc\J	-no-	.	.	.	.
=108	=108	=108	=108	=108	=108	=108	=108	=108	=108	=108	=108	=108	=108	=108	=108	=108	=108
!	!	!	!	!	!	!	!	!	!	!	!	!LO:LB:g=original	!	!	!	!	!
.	.	.	.	8qqcc/	.	.	.	.	.	.	.	8qqcc/	.	.	.	.	.
4G\	.	8g/L	.	8b-\L	.	2.ryy	.	2.ryy	.	2.ryy	.	4b-\	-bis	2.ryy	2.ryy	2.ryy	2.ryy
.	.	8g/	.	8b-\	.	.	.	.	.	.	.	.	.	.	.	.	.
4E-\	.	8g/	.	8b-\	.	.	.	.	.	.	.	2gg\	pro	.	.	.	.
.	.	8g/	.	8b-\	.	.	.	.	.	.	.	.	.	.	.	.	.
4C#X/	.	8g/	.	8b-\	.	.	.	.	.	.	.	.	.	.	.	.	.
.	.	8g/J	.	8b-\J	.	.	.	.	.	.	.	.	.	.	.	.	.
*	*	*Xtremolo	*	*Xtremolo	*	*	*	*	*	*	*	*	*	*	*	*	*
=109	=109	=109	=109	=109	=109	=109	=109	=109	=109	=109	=109	=109	=109	=109	=109	=109	=109
!	!	!LO:PB:g=original	!	!	!	!	!	!	!	!	!	!	!	!	!	!	!
4D\	.	8g/L	.	8b-\L	.	2.ryy	.	2.ryy	.	2.ryy	.	4b-\	no-	2.ryy	2.ryy	2.ryy	2.ryy
.	.	8g/	.	8b-\	.	.	.	.	.	.	.	.	.	.	.	.	.
4DD/	.	8f#X/	.	8a\	.	.	.	.	.	.	.	4a\	.	.	.	.	.
.	.	8a/	.	8a\	.	.	.	.	.	.	.	.	.	.	.	.	.
4r	.	8b-/	.	8dd\	.	.	.	.	.	.	.	4dd\	.	.	.	.	.
.	.	8b-/J	.	8dd\J	.	.	.	.	.	.	.	.	.	.	.	.	.
=110	=110	=110	=110	=110	=110	=110	=110	=110	=110	=110	=110	=110	=110	=110	=110	=110	=110
*tremolo	*	*tremolo	*	*	*	*	*	*	*	*	*	*	*	*	*	*	*
8c\L	.	8g/L	.	8ee-\L	.	2.ryy	.	2.ryy	.	2.ryy	.	2.ee-\	-bis	2.ryy	2.ryy	2.ryy	2.ryy
8c\	.	8g/	.	8ee-\	.	.	.	.	.	.	.	.	.	.	.	.	.
8c\	.	8g/	.	8ee-\J	.	.	.	.	.	.	.	.	.	.	.	.	.
!	!	!	!	!LO:LB:g=original	!	!	!	!	!	!	!	!	!	!	!	!	!
8c\	.	8g/	.	8ee-\L	.	.	.	.	.	.	.	.	.	.	.	.	.
8c\	.	8g/	.	8ee-\	.	.	.	.	.	.	.	.	.	.	.	.	.
8c\J	.	8g/J	.	8ee-\J	.	.	.	.	.	.	.	.	.	.	.	.	.
*	*	*Xtremolo	*	*	*	*	*	*	*	*	*	*	*	*	*	*	*
=111	=111	=111	=111	=111	=111	=111	=111	=111	=111	=111	=111	=111	=111	=111	=111	=111	=111
8d\L	.	8a\L	.	8ff#X\L	.	2.ryy	.	2.ryy	.	2.ryy	.	4.ff#X\	Et	2.ryy	2.ryy	2.ryy	2.ryy
8d\	.	8a\	.	8ff#\	.	.	.	.	.	.	.	.	.	.	.	.	.
8d\	.	8cc\	.	8ff#\	.	.	.	.	.	.	.	.	.	.	.	.	.
8d\J	.	8cc\	.	8ff#\	.	.	.	.	.	.	.	8ff#\	In-	.	.	.	.
*Xtremolo	*	*	*	*	*	*	*	*	*	*	*	*	*	*	*	*	*
8D/L	.	8cc\	.	8ff#\	.	.	.	.	.	.	.	4ff#\	-car-	.	.	.	.
8D/J	.	8cc\J	.	8ff#\J	.	.	.	.	.	.	.	.	.	.	.	.	.
=112	=112	=112	=112	=112	=112	=112	=112	=112	=112	=112	=112	=112	=112	=112	=112	=112	=112
!LO:LB:g=original	!	!	!	!	!	!	!	!	!	!	!	!	!	!	!	!	!
4G\	.	(8b-\L	.	8gg\L	.	2.ryy	.	2.ryy	.	2.ryy	.	8gg\	-na-	2.ryy	2.ryy	2.ryy	2.ryy
.	.	8cc\	.	(8ee-\	.	.	.	.	.	.	.	8ee-\	.	.	.	.	.
4D\	.	8b-\	.	8dd\	.	.	.	.	.	.	.	8dd\L	.	.	.	.	.
.	.	8a\	.	8cc\	.	.	.	.	.	.	.	8cc\	.	.	.	.	.
4DD/	.	8g\	.	8b-\)	.	.	.	.	.	.	.	8b-\	.	.	.	.	.
.	.	8f#X\J)	.	8a\J	.	.	.	.	.	.	.	8a\J	.	.	.	.	.
=113	=113	=113	=113	=113	=113	=113	=113	=113	=113	=113	=113	=113	=113	=113	=113	=113	=113
*	*	*	*	*	*	*	*	*	*	*	*	*Xtuplet	*	*	*	*	*
4D\	.	8d/L	.	8b-/L	.	2.ryy	.	2.ryy	.	2.ryy	.	(12b-\L	.	2.ryy	2.ryy	2.ryy	2.ryy
.	.	.	.	.	.	.	.	.	.	.	.	12a\	.	.	.	.	.
.	.	8d/	.	8b-/	.	.	.	.	.	.	.	.	.	.	.	.	.
.	.	.	.	.	.	.	.	.	.	.	.	12g\J)	.	.	.	.	.
!	!	!	!	!	!	!	!	!	!	!	!	!LO:TX:a:i:t=t	!	!	!	!	!
4D\	.	8f#X/	.	8a/	.	.	.	.	.	.	.	2a\	.	.	.	.	.
.	.	8f#/	.	8a/	.	.	.	.	.	.	.	.	.	.	.	.	.
4D\	.	8f#/	.	8a/	.	.	.	.	.	.	.	.	.	.	.	.	.
.	.	8f#/J	.	8a/J	.	.	.	.	.	.	.	.	.	.	.	.	.
=114	=114	=114	=114	=114	=114	=114	=114	=114	=114	=114	=114	=114	=114	=114	=114	=114	=114
!	!	!	!	!	!	!	!	!	!	!	!	!LO:LB:g=original	!	!	!	!	!
4G\	.	8g/L	.	(8g/L	.	2.ryy	.	2.ryy	.	2.ryy	.	4g\	-tus	2.ryy	2.ryy	2.ryy	2.ryy
.	.	8g/	.	8g/	.	.	.	.	.	.	.	.	.	.	.	.	.
4r	.	8a/	.	8a/	.	.	.	.	.	.	.	4r	.	.	.	.	.
.	.	8b-/	.	8b-/J)	.	.	.	.	.	.	.	.	.	.	.	.	.
!	!LO:DY:b:t=for:	!	!	!	!	!	!	!	!	!	!	!	!	!	!	!	!
8E-\L	f	8e-/	.	(8e-/L	.	.	.	.	.	.	.	4r	.	.	.	.	.
8D\J	.	8d/J	.	8d/J)	.	.	.	.	.	.	.	.	.	.	.	.	.
=115	=115	=115	=115	=115	=115	=115	=115	=115	=115	=115	=115	=115	=115	=115	=115	=115	=115
2.E#X;\	.	2.c#X;/	.	2.c#X/	.	2.ryy	.	2.ryy	.	2.ryy	.	2.gg\	Incar-	2.ryy	2.ryy	2.ryy	2.ryy
=116	=116	=116	=116	=116	=116	=116	=116	=116	=116	=116	=116	=116	=116	=116	=116	=116	=116
2.D\	.	2.d;/	.	2.d;/	.	2.ryy	.	2.ryy	.	2.ryy	.	2.a;\	-natus	2.ryy	2.ryy	2.ryy	2.ryy
=117	=117	=117	=117	=117	=117	=117	=117	=117	=117	=117	=117	=117	=117	=117	=117	=117	=117
!	!	!LO:TX:t=P:problem=mixedbeam	!	!LO:TX:t=P:problem=mixedbeam	!	!	!	!	!	!	!	!	!	!	!	!	!
4G\	.	8G/L	.	8G/L	.	2.ryy	.	2.ryy	.	2.ryy	.	4g\	est	2.ryy	2.ryy	2.ryy	2.ryy
.	.	8b-\	.	8dd\	.	.	.	.	.	.	.	.	.	.	.	.	.
4GG/	.	8cc\	.	8ee-\	.	.	.	.	.	.	.	4r	.	.	.	.	.
.	.	8b-\	.	8dd\	.	.	.	.	.	.	.	.	.	.	.	.	.
4r	.	8dd\	.	8bb-\	.	.	.	.	.	.	.	4r	.	.	.	.	.
.	.	8b-\J	.	8dd\J	.	.	.	.	.	.	.	.	.	.	.	.	.
=118	=118	=118	=118	=118	=118	=118	=118	=118	=118	=118	=118	=118	=118	=118	=118	=118	=118
!	!	!LO:LB:g=original	!	!LO:LB:g=original	!	!	!	!	!	!	!	!	!	!	!	!	!
!	!	!	!	!	!	!	!	!	!	!	!	!LO:TX:a:t=5	!	!	!	!	!
!	!	!	!	!	!	!	!	!	!	!	!	!LO:N:vis=00	!	!	!	!	!
4D\	.	8r	.	8r	.	2.ryy	.	2.ryy	.	2.ryy	.	0.r	.	2.ryy	2.ryy	2.ryy	2.ryy
.	.	8a\L	.	(8cc\L	.	.	.	.	.	.	.	.	.	.	.	.	.
4DD/	.	8b-\	.	8dd\	.	.	.	.	.	.	.	.	.	.	.	.	.
.	.	8a\	.	8cc\	.	.	.	.	.	.	.	.	.	.	.	.	.
4r	.	8cc\	.	8aa\	.	.	.	.	.	.	.	.	.	.	.	.	.
.	.	8a\J	.	8cc\J)	.	.	.	.	.	.	.	.	.	.	.	.	.
=119	=119	=119	=119	=119	=119	=119	=119	=119	=119	=119	=119	=119	=119	=119	=119	=119	=119
4G\	.	8r	.	8r	.	2.ryy	.	2.ryy	.	2.ryy	.	.	.	2.ryy	2.ryy	2.ryy	2.ryy
.	.	8g/L	.	(8b-\L	.	.	.	.	.	.	.	.	.	.	.	.	.
4GG/	.	8a/	.	8cc\	.	.	.	.	.	.	.	.	.	.	.	.	.
.	.	8g/	.	8b-\)	.	.	.	.	.	.	.	.	.	.	.	.	.
4r	.	8f#X/	.	8a\	.	.	.	.	.	.	.	.	.	.	.	.	.
.	.	8g/J	.	8b-\J	.	.	.	.	.	.	.	.	.	.	.	.	.
=120	=120	=120	=120	=120	=120	=120	=120	=120	=120	=120	=120	=120	=120	=120	=120	=120	=120
4D\	.	4g/	.	4b-/	.	2.ryy	.	2.ryy	.	2.ryy	.	.	.	2.ryy	2.ryy	2.ryy	2.ryy
4DD/	.	8f#X/L	.	8a\L	.	.	.	.	.	.	.	.	.	.	.	.	.
.	.	8cc/	.	8ee-\	.	.	.	.	.	.	.	.	.	.	.	.	.
4r	.	8b-/	.	8dd\	.	.	.	.	.	.	.	.	.	.	.	.	.
.	.	8a/J	.	8cc\J	.	.	.	.	.	.	.	.	.	.	.	.	.
=121	=121	=121	=121	=121	=121	=121	=121	=121	=121	=121	=121	=121	=121	=121	=121	=121	=121
*	*	*	*	*Xtuplet	*	*	*	*	*	*	*	*	*	*	*	*	*
8G\L	.	4g/	.	(12b-/L	.	2.ryy	.	2.ryy	.	2.ryy	.	.	.	2.ryy	2.ryy	2.ryy	2.ryy
.	.	.	.	12a/	.	.	.	.	.	.	.	.	.	.	.	.	.
8G\	.	.	.	.	.	.	.	.	.	.	.	.	.	.	.	.	.
.	.	.	.	12g/J)	.	.	.	.	.	.	.	.	.	.	.	.	.
8D\	.	2f#X/	.	2a/	.	.	.	.	.	.	.	.	.	.	.	.	.
8D\	.	.	.	.	.	.	.	.	.	.	.	.	.	.	.	.	.
8D\	.	.	.	.	.	.	.	.	.	.	.	.	.	.	.	.	.
8D\J	.	.	.	.	.	.	.	.	.	.	.	.	.	.	.	.	.
=122	=122	=122	=122	=122	=122	=122	=122	=122	=122	=122	=122	=122	=122	=122	=122	=122	=122
4G\	.	4g/	.	4g/	.	2.ryy	.	2.ryy	.	2.ryy	.	2.r	.	2.ryy	2.ryy	2.ryy	2.ryy
4GG/	.	4r	.	4r	.	.	.	.	.	.	.	.	.	.	.	.	.
4r	.	4r	.	4r	.	.	.	.	.	.	.	.	.	.	.	.	.
=123||	=123||	=123||	=123||	=123||	=123||	=123||	=123||	=123||	=123||	=123||	=123||	=123||	=123||	=123||	=123||	=123||	=123||
!LO:LB:g=original	!	!	!	!LO:PB:g=original	!	!	!	!LO:LB:g=original	!	!LO:LB:g=original	!	!	!	!	!	!	!
*k[f#c#]	*	*k[f#c#]	*	*k[f#c#]	*	*k[f#c#]	*	*k[f#c#]	*	*k[f#c#]	*	*k[f#c#]	*	*k[f#c#]	*k[f#c#]	*	*
*M3/4	*	*M3/4	*	*	*	*	*	*M3/4	*	*M3/4	*	*M3/4	*	*	*	*	*
*D:	*	*D:	*	*D:	*	*D:	*	*D:	*	*D:	*	*D:	*	*D:	*D:	*	*
!	!	!LO:TX:a:t=adagio	!	!LO:TX:a:rj:t=adagio	!	!LO:TX:a:B:rj:t=Et Resurrexit	!	!LO:TX:a:t=Andante	!	!LO:TX:a:t=and&colon;	!	!LO:TX:a:t=And.	!	!LO:TX:b:t=Et expecto	!LO:TX:a:t=Adao	!	!
!LO:TX:b:t=Et Expecto Adagio	!	!LO:TX:b:t=Et Expecto&colon;	!	!LO:TX:b:rj:t=Et ex pecto	!	!LO:TX:a:t=Andte	!	!	!	!	!	!	!	!LO:TX:a:t=ad&colon;	!LO:TX:b:t=Et Resurrexit	!	!
4D\	.	8.f#/L	.	8.dd\L	.	4D\	Et	4A\	Et	4dd\	Et	4ff#\	Et	4dd\	4ff#\	2.ryy	2.ryy
!	!	!LO:TX:t=P:problem=mixedbeam	!	!	!	!	!	!	!	!	!	!	!	!	!	!	!
.	.	16dd\Jk	.	16ff#\K	.	.	.	.	.	.	.	.	.	.	.	.	.
4D\	.	8.dd\L	.	8.ff#\	.	4D\	.	4A\	.	4dd\	.	4ff#\	.	4dd\	4ff#\	.	.
.	.	16ff#\Jk	.	16aa\K	.	.	.	.	.	.	.	.	.	.	.	.	.
4D\	.	8.ff#\L	.	8.aa\	.	4D\	ex-	4A\	ex-	4a\	ex	4ff#\	ex-	4dd\	4ff#\	.	.
.	.	16ff#\Jk	.	16ddd\Jk	.	.	.	.	.	.	.	.	.	.	.	.	.
=124	=124	=124	=124	=124	=124	=124	=124	=124	=124	=124	=124	=124	=124	=124	=124	=124	=124
4A\	.	8.ee\L	.	8.ccc#\L	.	2A\	-pe-	2c#\	-pe-	2a\	-pe-	2ee\	-pe-	4a/	4ee\	2.ryy	2.ryy
.	.	16aa\K	.	16aa\K	.	.	.	.	.	.	.	.	.	.	.	.	.
4A\	.	8.ee\	.	8.ee\	.	.	.	.	.	.	.	.	.	4a/	4ee\	.	.
.	.	16cc#\Jk	.	16cc#\Jk	.	.	.	.	.	.	.	.	.	.	.	.	.
4A\	.	4a/	.	4a/	.	4A\	-cto	4c#\	-cto	4a\	-cto	4ee\	-cto	4a/	4ee\	.	.
=125	=125	=125	=125	=125	=125	=125	=125	=125	=125	=125	=125	=125	=125	=125	=125	=125	=125
!	!	!LO:LB:g=original	!	!	!	!	!	!	!	!	!	!	!	!	!	!	!
4AA/	.	8.ee\L	.	8.gg\L	.	2A\	et	2e\	et	2cc#\	et	2gg\	et	4ee\	4gg\	2.ryy	2.ryy
.	.	16cc#\Jk	.	16ee\K	.	.	.	.	.	.	.	.	.	.	.	.	.
4AA/	.	8.a\L	.	8.cc#\	.	.	.	.	.	.	.	.	.	4ee\	4gg\	.	.
.	.	16e\Jk	.	16a\K	.	.	.	.	.	.	.	.	.	.	.	.	.
4AA/	.	8.ee\L	.	8.gg\	.	4A\	ex-	4e\	ex-	4cc#\	ex-	4gg\	ex-	4ee\	4gg\	.	.
.	.	16ee\Jk	.	16gg\Jk	.	.	.	.	.	.	.	.	.	.	.	.	.
=126	=126	=126	=126	=126	=126	=126	=126	=126	=126	=126	=126	=126	=126	=126	=126	=126	=126
4D\	.	8.dd\L	.	8.ff#\L	.	2d\	-pe-	2d\	-pe-	2dd\	-pe-	2ff#\	-pe-	2dd\	2ff#\	2.ryy	2.ryy
.	.	16dd\K	.	16dd\K	.	.	.	.	.	.	.	.	.	.	.	.	.
4D\	.	8.a\	.	8.a\	.	.	.	.	.	.	.	.	.	.	.	.	.
.	.	16f#\Jk	.	16f#\Jk	.	.	.	.	.	.	.	.	.	.	.	.	.
4D\	.	4d/	.	4d/	.	4D\	-cto	4d\	-cto	4dd\	-cto	4ff#\	-cto	4dd\	4ff#\	.	.
=127	=127	=127	=127	=127	=127	=127	=127	=127	=127	=127	=127	=127	=127	=127	=127	=127	=127
!	!	!	!	!	!	!	!	!	!	!LO:N:vis=0	!	!	!	!	!	!	!
8r	.	8.d/L	.	8.d/L	.	4D\	re-	4f#\	re-	1.r	.	4a\	re-	4ff#\	4aa\	2.ryy	2.ryy
8D\	.	.	.	.	.	.	.	.	.	.	.	.	.	.	.	.	.
.	.	16f#/Jk	.	16a/Jk	.	.	.	.	.	.	.	.	.	.	.	.	.
.	.	8qqf#/	.	8qqa/	.	.	.	.	.	.	.	.	.	.	.	.	.
*tremolo	*	*tremolo	*	*	*	*	*	*	*	*	*	*	*	*	*	*	*
8D\L	.	8g/L	.	2b\	.	2D\	-sur-	2g\	-sur-	.	.	2b\	-sur-	2gg\	2bb\	.	.
8D\	.	8g/	.	.	.	.	.	.	.	.	.	.	.	.	.	.	.
8D\	.	8g/	.	.	.	.	.	.	.	.	.	.	.	.	.	.	.
8D\J	.	8g/J	.	.	.	.	.	.	.	.	.	.	.	.	.	.	.
*	*	*Xtremolo	*	*	*	*	*	*	*	*	*	*	*	*	*	*	*
=128	=128	=128	=128	=128	=128	=128	=128	=128	=128	=128	=128	=128	=128	=128	=128	=128	=128
8r	.	8.d/L	.	8.d/L	.	4D\	-re-	4f#\	-re-	.	.	4a\	-re-	4ff#\	4aa\	2.ryy	2.ryy
8D\	.	.	.	.	.	.	.	.	.	.	.	.	.	.	.	.	.
.	.	16f#/Jk	.	16a/Jk	.	.	.	.	.	.	.	.	.	.	.	.	.
!	!	!	!	!	!	!	!	!LO:SIC:o:s=:v:tekst:cti	!	!	!	!	!	!	!	!	!
.	.	8qqf#/	.	8qqa/	.	.	.	.	.	.	.	.	.	.	.	.	.
8D\L	.	2g/	.	2b\	.	2D\	-cti-	2g\	-ti-	.	.	2b\	-cti-	2gg\	2bb\	.	.
8D\	.	.	.	.	.	.	.	.	.	.	.	.	.	.	.	.	.
8D\	.	.	.	.	.	.	.	.	.	.	.	.	.	.	.	.	.
8D\J	.	.	.	.	.	.	.	.	.	.	.	.	.	.	.	.	.
*Xtremolo	*	*	*	*	*	*	*	*	*	*	*	*	*	*	*	*	*
=129	=129	=129	=129	=129	=129	=129	=129	=129	=129	=129	=129	=129	=129	=129	=129	=129	=129
!	!	!	!	!LO:PB:g=original	!	!	!	!	!	!	!	!	!	!	!	!	!
4AA/	.	4f#/	.	4a\	.	4D\	-o-	4f#\	-o-	4dd\	o-	4a\	-o-	4ff#\	4aa\	2.ryy	2.ryy
4C#/	.	4ee\	.	4gg\	.	4C#X\	.	4e\	.	4a\	.	4gg\	.	4ee\	4gg\	.	.
4D/	.	4dd\	.	4ff#\	.	4D\	.	4d\	.	4a\	.	4ff#\	.	4dd\	4ff#\	.	.
=130	=130	=130	=130	=130	=130	=130	=130	=130	=130	=130	=130	=130	=130	=130	=130	=130	=130
!	!	!	!	!	!	!	!	!	!	!	!	!LO:LB:g=original	!	!	!	!	!
4A\	.	4dd\	.	4ff#\	.	4A\	.	4d\	.	4a\	-nem	4ff#\	.	4dd\	4ff#\	2.ryy	2.ryy
4AA/	.	8.cc#\L	.	8.ee\L	.	4AA/	nem	4c#\	-nem	4a\	.	4ee\	-nem	4a/	4ee\	.	.
.	.	16aa\Jk	.	16aa\Jk	.	.	.	.	.	.	.	.	.	.	.	.	.
4AA/	.	4a/	.	4a/	.	4r	.	4r	.	4r	.	4r	.	4r	4r	.	.
=131	=131	=131	=131	=131	=131	=131	=131	=131	=131	=131	=131	=131	=131	=131	=131	=131	=131
!	!	!	!	!	!	!	!	!	!	!LO:N:vis=00	!	!	!	!	!	!	!
*	*	*	*	*k[f#c#]	*	*	*	*	*	*	*	*	*	*	*	*	*
4E\	.	8.e/L	.	8.e/L	.	4E\	et	4B\	et	0.r	.	4dd\	et	4ee\	4ee\	2.ryy	2.ryy
.	.	16g#X/K	.	16b/Jk	.	.	.	.	.	.	.	.	.	.	.	.	.
4E\	.	8.g#/	.	8.b\L	.	4E\	.	4B\	.	.	.	4dd\	.	8ee\L	8ee\L	.	.
.	.	.	.	.	.	.	.	.	.	.	.	.	.	8ee\	8ee\	.	.
.	.	16b/K	.	16dd\Jk	.	.	.	.	.	.	.	.	.	.	.	.	.
4E\	.	8.b/	.	8.dd\L	.	4E\	ex-	4B\	ex-	.	.	4dd\	ex-	8ee\	8ee\	.	.
.	.	.	.	.	.	.	.	.	.	.	.	.	.	8ee\J	8ee\J	.	.
.	.	16dd/Jk	.	16bb\Jk	.	.	.	.	.	.	.	.	.	.	.	.	.
=132	=132	=132	=132	=132	=132	=132	=132	=132	=132	=132	=132	=132	=132	=132	=132	=132	=132
!	!	!	!	!	!	!	!	!	!	!	!	!	!	!LO:LB:g=original	!	!	!
4AA/	.	8.a\L	.	8.cc#\L	.	4A\	-pe-	8.A\L	-pe-	.	.	8.cc#\L	-spe-	4a/	4ee\	2.ryy	2.ryy
.	.	16cc#\K	.	16dd\K	.	.	.	16B\Jk	.	.	.	16dd\Jk	.	.	.	.	.
4AA/	.	8.cc#\	.	8.ee\	.	2AA/	-cto	2c#\	-cto	.	.	2ee\	-cto	4r	4r	.	.
.	.	16aa\K	.	16ccc#\K	.	.	.	.	.	.	.	.	.	.	.	.	.
4AA/	.	8.ee\	.	8.aa\	.	.	.	.	.	.	.	.	.	4r	4r	.	.
.	.	16cc#\Jk	.	16ee\Jk	.	.	.	.	.	.	.	.	.	.	.	.	.
=133	=133	=133	=133	=133	=133	=133	=133	=133	=133	=133	=133	=133	=133	=133	=133	=133	=133
!	!	!LO:LB:g=original	!	!	!	!	!	!LO:LB:g=original	!	!	!	!	!	!	!	!	!
4E\	.	8.e/L	.	8.e/L	.	4E\	re-	4B\	Re-	.	.	4dd\	Re-	4ee\	4ee\	2.ryy	2.ryy
!	!	!	!	!LO:SIC:o=:v:g#	!	!	!	!	!	!	!	!	!	!	!	!	!
.	.	16g#X/K	.	16g/Jk	.	.	.	.	.	.	.	.	.	.	.	.	.
*	*	*	*	*	*	*	*	*	*	*	*	*	*	*	*tremolo	*	*
4E\	.	8.g#/	.	8.b\L	.	4E\	-sur-	4B\	-sur-	.	.	4dd\	-sur-	8ee\L	8ee\L	.	.
.	.	.	.	.	.	.	.	.	.	.	.	.	.	8ee\	8ee\	.	.
.	.	16b/K	.	16dd\K	.	.	.	.	.	.	.	.	.	.	.	.	.
4E\	.	8.b/	.	8.dd\	.	4E\	-re-	4B\	-re-	.	.	4dd\	-re-	8ee\	8ee\	.	.
.	.	.	.	.	.	.	.	.	.	.	.	.	.	8ee\J	8ee\J	.	.
.	.	16dd/Jk	.	16bb\Jk	.	.	.	.	.	.	.	.	.	.	.	.	.
=134	=134	=134	=134	=134	=134	=134	=134	=134	=134	=134	=134	=134	=134	=134	=134	=134	=134
!LO:LB:g=original	!	!	!	!	!	!	!	!	!	!	!	!	!	!	!LO:LB:g=original	!	!
4A\	.	8.a\L	.	8.cc#\L	.	4AA/	.	4A\	-ctio-	.	.	8cc#\L	-cti-	4a/	4ee\	2.ryy	2.ryy
.	.	.	.	.	.	.	.	.	.	.	.	8dd\J	-o-	.	.	.	.
.	.	16ee\Jk	.	16ee\K	.	.	.	.	.	.	.	.	.	.	.	.	.
4E\	.	8.dd\L	.	8.dd\	.	4BB/	-cti-	4G#X\	.	.	.	2ee\	-nem	4r	4r	.	.
.	.	16ff#\Jk	.	16ff#\K	.	.	.	.	.	.	.	.	.	.	.	.	.
!	!	!	!	!	!	!	!	!	!	!	!	!	!	!	!LO:SIC:o=:v:po pauzie wykreślony takt	!	!
4C#/	.	8.ee\L	.	8.ee\	.	4C#/	-o-	4A\	-nem	.	.	.	.	4r	4r	.	.
.	.	16aa\Jk	.	16aa\Jk	.	.	.	.	.	.	.	.	.	.	.	.	.
=135	=135	=135	=135	=135	=135	=135	=135	=135	=135	=135	=135	=135	=135	=135	=135	=135	=135
*	*	*	*	*	*	*	*	*	*	*	*	*tuplet	*	*	*Xtremolo	*	*
.	.	8qqgg/	.	.	.	.	.	.	.	.	.	.	.	.	.	.	.
!	!	!	!	!	!	!	!	!	!	!LO:N:vis=0	!	!	!	!	!	!	!
4D\	.	12ff#\L	.	(12ff#\L	.	4D\	nem	4B\	mor-	1.r	.	(12ff#\L	mor-	4r	4r	2.ryy	2.ryy
.	.	12ee\	.	12ee\	.	.	.	.	.	.	.	12ee\	.	.	.	.	.
.	.	12dd\J	.	12dd\J)	.	.	.	.	.	.	.	12dd\J)	.	.	.	.	.
!	!	!	!	!LO:PB:g=original	!	!	!	!	!	!	!	!	!	!	!	!	!
4E\	.	4cc#\	.	4cc#\	.	2E\	-Mortu-	4A\	-tu-	.	.	4cc#\	-tu-	4ee\	4ee\	.	.
4EE/	.	4bT\	.	4b\	.	.	.	4G\	-o-	.	.	4b\	-o-	8ee\L	8ee\L	.	.
.	.	.	.	.	.	.	.	.	.	.	.	.	.	8ee\J	8ee\J	.	.
=136	=136	=136	=136	=136	=136	=136	=136	=136	=136	=136	=136	=136	=136	=136	=136	=136	=136
!	!	!	!	!	!	!LO:LB:g=original	!	!	!	!	!	!	!	!	!	!	!
4AA/	.	8.a/L	.	8.a/L	.	4AA/	-orum	4A\	-rum	.	.	4a\	-rum	4a/	4ee\	2.ryy	2.ryy
.	.	16a/Jk	.	16a/Jk	.	.	.	.	.	.	.	.	.	.	.	.	.
4r	.	8.e/L	.	8e/L	.	4r	.	4r	.	.	.	4r	.	4r	4r	.	.
.	.	.	.	8c#/J	.	.	.	.	.	.	.	.	.	.	.	.	.
.	.	16c#/Jk	.	.	.	.	.	.	.	.	.	.	.	.	.	.	.
4r	.	4A/	.	4A/	.	4r	.	4r	.	.	.	4r	.	4r	4r	.	.
=137	=137	=137	=137	=137	=137	=137	=137	=137	=137	=137	=137	=137	=137	=137	=137	=137	=137
!	!	!	!	!	!	!	!	!	!	!	!	!LO:LB:g=original	!	!	!	!	!
2D\	.	4f#/	.	4a\	.	2D\	et	4F#/	et	4a\	et	4a\	et	4dd\	4dd\	2.ryy	2.ryy
.	.	4gn/	.	4b\	.	.	.	4Gn/	.	4f#\	.	4b\	.	4dd\	4dd\	.	.
4F#\	.	4a/	.	4ccn\	.	4D\	ex-	4A/	ex-	4f#\	ex-	4ccn\	ex-	4dd\	4dd\	.	.
=138	=138	=138	=138	=138	=138	=138	=138	=138	=138	=138	=138	=138	=138	=138	=138	=138	=138
!	!	!	!	!	!	!	!	!	!	!LO:LB:g=original	!	!	!	!	!	!	!
*	*	*	*	*tuplet	*	*	*	*	*	*	*	*Xtuplet	*	*	*	*	*
!	!	!	!	!LO:TUP:a	!	!	!	!	!	!	!	!	!	!	!	!	!
4G\	.	12ccn\L	.	(12ee\L	.	4F#\	-pe-	(12cn\L	.	2gn\	-spe-	12ee\L	-spe-	4dd\	4dd\	2.ryy	2.ryy
.	.	12b\	.	12dd\	.	.	.	12B\	-pec	.	.	12dd\	.	.	.	.	.
.	.	12a\J	.	12ccn\J)	.	.	.	12A\J)	.	.	.	12cc#\J	.	.	.	.	.
.	.	8qqa/	.	8qqcc/	.	.	.	.	.	.	.	8qqcc#/	.	.	.	.	.
4E\	.	2g/	.	2b\	.	2G\	-cto	2G/	-to	.	.	2b\	-cto	4r	4r	.	.
4GG/	.	.	.	.	.	.	.	.	.	4g\	-cto	.	.	4r	4r	.	.
=139	=139	=139	=139	=139	=139	=139	=139	=139	=139	=139	=139	=139	=139	=139	=139	=139	=139
*	*	*	*	*	*	*	*ij	*	*	*	*	*	*	*	*	*	*
2E\	.	4g#X/	.	4b\	.	2E\	et	4G/	et	4b\	et	4b\	et	4ee\	4ee\	2.ryy	2.ryy
.	.	4a/	.	4cc#X\	.	.	.	4A/	.	4g#X\	ex-	4cc#X\	.	4ee\	4ee\	.	.
4G#X\	.	4b/	.	4dd\	.	4E\	ex-	4B\	ex-	4g#\	.	4dd\	ex-	4ee\	4ee\	.	.
=140	=140	=140	=140	=140	=140	=140	=140	=140	=140	=140	=140	=140	=140	=140	=140	=140	=140
!	!	!LO:LB:g=original	!	!	!	!	!	!	!	!	!	!	!	!	!	!	!
*	*	*	*	*Xtuplet	*	*	*	*	*	*	*	*	*	*	*	*	*
4A\	.	12dd\L	.	12ff#\L	.	4G#X\	-pe-	(12d\L	.	2a\	-pe-	12ff#\L	-spe-	4ee\	4ee\	2.ryy	2.ryy
.	.	12cc#X\	.	12ee\	.	.	.	12c#\	-pec-	.	.	12ee\	.	.	.	.	.
.	.	12b\J	.	12dd\J	.	.	.	12B\J)	.	.	.	12dd\J	.	.	.	.	.
.	.	8qqb/	.	8qqdd/	.	.	.	8qqB/	.	.	.	8qqdd/	.	.	.	.	.
4E\	.	2a\	.	2cc#\	.	2A\	-cto	2A\	-to	.	.	2cc#\	-cto	4r	4r	.	.
4AA/	.	.	.	.	.	.	.	.	.	4a\	-cto	.	.	4r	4r	.	.
*	*	*	*	*	*	*	*Xij	*	*	*	*	*	*	*	*	*	*
=141	=141	=141	=141	=141	=141	=141	=141	=141	=141	=141	=141	=141	=141	=141	=141	=141	=141
!	!	!	!	!	!	!	!	!	!	!LO:N:vis=0	!	!	!	!	!	!	!
4AA/	.	8.cc#\L	.	8.ee\L	.	4A\	.	4c#\	et	1.r	.	4ee\	et	4a/	4ee\	2.ryy	2.ryy
.	.	16a\Jk	.	16a\Jk	.	.	.	.	.	.	.	.	.	.	.	.	.
4C#/	.	8.ee\L	.	8.gg\L	.	4C#\	et	4e\	.	.	.	4gg\	.	4ee\	4gg\	.	.
.	.	16cc#\Jk	.	16ee\Jk	.	.	.	.	.	.	.	.	.	.	.	.	.
4D\	.	8.dd\L	.	8.ff#\L	.	4D\	ex-	4d\	ex-	.	.	4ff#\	ex-	4dd\	4ff#\	.	.
.	.	16ff#\Jk	.	16ddd\Jk	.	.	.	.	.	.	.	.	.	.	.	.	.
=142	=142	=142	=142	=142	=142	=142	=142	=142	=142	=142	=142	=142	=142	=142	=142	=142	=142
!	!	!	!	!LO:PB:g=original	!	!	!	!LO:LB:g=original	!	!	!	!	!	!	!	!	!
4A\	.	4dd\	.	4ff#\	.	4A\	-pe-	4d\	-pe-	.	.	4ff#\	-spe-	4dd\	4ff#\	2.ryy	2.ryy
4AA/	.	4cc#\	.	4ee\	.	4AA/	-cto	4c#\	-cto	.	.	4ee\	-cto	8a/L	8ee\L	.	.
.	.	.	.	.	.	.	.	.	.	.	.	.	.	8a/J	8ee\J	.	.
4r	.	4r	.	4r	.	4r	.	4r	.	.	.	4r	.	4a/	4ee\	.	.
=143	=143	=143	=143	=143	=143	=143	=143	=143	=143	=143	=143	=143	=143	=143	=143	=143	=143
!	!	!	!	!LO:SIC:o=:v:takty 144-146 są oznaczone repetycją	!	!	!	!	!	!	!	!	!	!	!	!	!
8r	.	8d/L	.	8.d/L	.	4D\	Re-	4F#/	Re-	4dd\	Re-	4a\	Re-	4ff#\	4aa\	2.ryy	2.ryy
8D\	.	8f#/J	.	.	.	.	.	.	.	.	.	.	.	.	.	.	.
.	.	.	.	16a/Jk	.	.	.	.	.	.	.	.	.	.	.	.	.
.	.	8qqf#/	.	8qqa/	.	.	.	.	.	.	.	.	.	.	.	.	.
*tremolo	*	*	*	*	*	*	*	*	*	*	*	*	*	*	*	*	*
8D\L	.	2g/	.	2b\	.	2D\	-sur-	2G/	-sur-	2dd\	-sur-	2b\	-sur-	2gg\	2bb\	.	.
8D\	.	.	.	.	.	.	.	.	.	.	.	.	.	.	.	.	.
8D\	.	.	.	.	.	.	.	.	.	.	.	.	.	.	.	.	.
8D\J	.	.	.	.	.	.	.	.	.	.	.	.	.	.	.	.	.
=144	=144	=144	=144	=144	=144	=144	=144	=144	=144	=144	=144	=144	=144	=144	=144	=144	=144
!LO:LB:g=original	!	!	!	!	!	!	!	!	!	!	!	!	!	!	!LO:LB:g=original	!	!
8r	.	8d/L	.	8.d/L	.	4D\	-re-	4F#/	-rec-	4dd\	-re-	4a\	-re-	4ff#\	4aa\	2.ryy	2.ryy
8D\	.	8f#/J	.	.	.	.	.	.	.	.	.	.	.	.	.	.	.
.	.	.	.	16a/Jk	.	.	.	.	.	.	.	.	.	.	.	.	.
.	.	8qqf#/	.	8qqa/	.	.	.	.	.	.	.	.	.	.	.	.	.
8D\L	.	2g/	.	2b\	.	2D\	-cti-	2G/	-ti-	2dd\	-cti-	2b\	-cti-	2gg\	2bb\	.	.
8D\	.	.	.	.	.	.	.	.	.	.	.	.	.	.	.	.	.
8D\	.	.	.	.	.	.	.	.	.	.	.	.	.	.	.	.	.
8D\J	.	.	.	.	.	.	.	.	.	.	.	.	.	.	.	.	.
=145	=145	=145	=145	=145	=145	=145	=145	=145	=145	=145	=145	=145	=145	=145	=145	=145	=145
!	!	!	!	!	!	!	!	!	!	!	!	!LO:LB:g=original	!	!	!	!	!
4D\	.	16f#/LL	.	16a\LL	.	8D\L	-o-	16F#/LL	-o-	4dd\	-o-	16a\LL	-o-	8ff#\L	8aa\L	2.ryy	2.ryy
.	.	16b/	.	16gg\	.	.	.	16B/JJ	.	.	.	16gg\	.	.	.	.	.
.	.	16a/	.	16ff#\	.	8G\J	.	16A/LL	.	.	.	16ff#\	.	8ee\J	8gg\J	.	.
.	.	16g/JJ	.	16ee\JJ	.	.	.	16G/JJ	.	.	.	16ee\JJ	.	.	.	.	.
4A\	.	4f#/	.	4dd\	.	4A\	.	4F#/	.	4g\	.	4dd\	.	4dd\	4ff#\	.	.
4AA/	.	4g/	.	4ee\	.	4AA/	-nem	4G/	-nem	4a\	-nem	4ee\	-nem	4a/	4ee\	.	.
=146	=146	=146	=146	=146	=146	=146	=146	=146	=146	=146	=146	=146	=146	=146	=146	=146	=146
8r	.	8.d/L	.	8.d/Lyy	.	(4D\	.	4F#/	mor-	4d\	Mor-	4a\	mor-	4ff#\	4aa\	2.ryy	2.ryy
8D\	.	.	.	.	.	.	.	.	.	.	.	.	.	.	.	.	.
.	.	16f#/Jk	.	16a/Jkyy	.	.	.	.	.	.	.	.	.	.	.	.	.
.	.	8qqf#/	.	8qqa/yy	.	.	.	.	.	.	.	.	.	.	.	.	.
8D\L	.	2g/	.	2b\yy	.	2D\)	mor	2G/	.	2dd\	.	2b\	.	2gg\	2bb\	.	.
8D\	.	.	.	.	.	.	.	.	.	.	.	.	.	.	.	.	.
8D\	.	.	.	.	.	.	.	.	.	.	.	.	.	.	.	.	.
8D\J	.	.	.	.	.	.	.	.	.	.	.	.	.	.	.	.	.
=147	=147	=147	=147	=147	=147	=147	=147	=147	=147	=147	=147	=147	=147	=147	=147	=147	=147
8r	.	8.d/L	.	8.d/Lyy	.	4D\	-tu-	4F#/	-tu-	4dd\	-tu-	4a\	-tu-	4ff#\	4aa\	2.ryy	2.ryy
8D\	.	.	.	.	.	.	.	.	.	.	.	.	.	.	.	.	.
.	.	16f#/Jk	.	16a/Jkyy	.	.	.	.	.	.	.	.	.	.	.	.	.
.	.	8qqf#/	.	8qqa/yy	.	.	.	.	.	.	.	.	.	.	.	.	.
8D\L	.	2g/	.	2b\yy	.	2D\	.	2G/	.	2dd\	.	2b\	.	2gg\	2bb\	.	.
8D\	.	.	.	.	.	.	.	.	.	.	.	.	.	.	.	.	.
8D\	.	.	.	.	.	.	.	.	.	.	.	.	.	.	.	.	.
8D\J	.	.	.	.	.	.	.	.	.	.	.	.	.	.	.	.	.
*Xtremolo	*	*	*	*	*	*	*	*	*	*	*	*	*	*	*	*	*
=148	=148	=148	=148	=148	=148	=148	=148	=148	=148	=148	=148	=148	=148	=148	=148	=148	=148
!	!	!LO:LB:g=original	!	!	!	!	!	!	!	!LO:LB:g=original	!	!	!	!LO:LB:g=original	!	!	!
8D\L	.	16f#/LL	.	16a\LLyy	.	4D\	-o-	16F#/LL	-o-	4dd\	-o-	16a\LL	-o-	8ff#\L	8aa\L	2.ryy	2.ryy
.	.	16b/	.	16gg\yy	.	.	.	16B/JJ	.	.	.	16gg\JJ	.	.	.	.	.
8D\	.	16a/	.	16ff#\yy	.	.	.	16A/LL	.	.	.	16ff#\LL	.	8ee\J	8gg\J	.	.
.	.	16g/JJ	.	16ee\JJyy	.	.	.	16G/JJ	.	.	.	16ee\JJ	.	.	.	.	.
8A\	.	4f#/	.	4dd\yy	.	4G\	.	4F#/	.	4g\	.	4dd\	.	4dd\	4ff#\	.	.
8A\	.	.	.	.	.	.	.	.	.	.	.	.	.	.	.	.	.
!LO:TX:t=P:problem=mixedbeam	!	!	!	!	!	!LO:TX:t=P:problem=mixedbeam	!	!	!	!	!	!	!	!	!	!	!
8AA/	.	4g/	.	4ee\yy	.	8A\L	.	4G/	.	4a\	.	4ee\	.	4a/	4ee\	.	.
8AA/J	.	.	.	.	.	8AA/J	.	.	.	.	.	.	.	.	.	.	.
=149	=149	=149	=149	=149	=149	=149	=149	=149	=149	=149	=149	=149	=149	=149	=149	=149	=149
!	!	!	!	!	!	!LO:LB:g=original	!	!	!	!	!	!	!	!	!	!	!
!	!LO:DY:b	!	!	!LO:TX:a:t=allo&colon;	!	!	!	!	!	!	!	!	!	!LO:TX:a:t=allo&colon;	!LO:TX:a:t=Allo	!	!
4D\	f	4f#/	.	4dd\	.	4D\	rum	4F#/	rum	4d\	rum	4dd\	rum	4f#/	4dd\	2.ryy	2.ryy
4d\	.	4aa\	.	4ff#\	.	4d\	.	(4A/	.	4a\	.	4ff#\	.	4dd\	4ff#\	.	.
4c#\	.	4aa\	.	4ee\	.	4c#\	et	4A/)	et	4a\	et	4ee\	et	4a/	4ee\	.	.
=150	=150	=150	=150	=150	=150	=150	=150	=150	=150	=150	=150	=150	=150	=150	=150	=150	=150
4d\	.	2aa\	.	2ff#\	.	2d\	vi-	2A\	vi-	2a\	vi-	2ff#\	vi-	2dd\	2ff#\	2.ryy	2.ryy
4D/	.	.	.	.	.	.	.	.	.	.	.	.	.	.	.	.	.
4c#\	.	4aa\	.	4ee\	.	4A\	-tam	4c#\	-tam	4a\	-tam	4ee\	-tam	4a/	4ee\	.	.
=151	=151	=151	=151	=151	=151	=151	=151	=151	=151	=151	=151	=151	=151	=151	=151	=151	=151
8D\L	.	8f#/L	.	4dd\	.	8D\L	.	2A\	et	(2f#\	et	2dd\	et	4dd\	4dd\	2.ryy	2.ryy
8E\	.	8g/	.	.	.	8E\	et	.	.	.	.	.	.	.	.	.	.
8F#\	.	8a/	.	4d/	.	8F#\	.	.	.	.	.	.	.	4dd\	4dd\	.	.
8D\	.	8f#/	.	.	.	8D\	.	.	.	.	.	.	.	.	.	.	.
8E\	.	8g/	.	4dd\	.	8E\	.	4A\	.	4f#\)	.	4dd\	.	4dd\	4dd\	.	.
8F#\J	.	8a/J	.	.	.	8F#\J	.	.	.	.	.	.	.	.	.	.	.
=152	=152	=152	=152	=152	=152	=152	=152	=152	=152	=152	=152	=152	=152	=152	=152	=152	=152
8G\L	.	8b\L	.	2.dd\	.	8G\L	vi-	2B\	vi-	2f#\	vi-	2dd\	vi-	4dd\	4dd\	2.ryy	2.ryy
8A\	.	8ccn\	.	.	.	8A\	.	.	.	.	.	.	.	.	.	.	.
8B\	.	8dd\	.	.	.	8B\	.	.	.	.	.	.	.	4r	4r	.	.
8A\	.	8cc\	.	.	.	8A\	.	.	.	.	.	.	.	.	.	.	.
8G\	.	8b\	.	.	.	8G\	.	4B\	-tam	4f#\	-tam	4dd\	-tam	4r	4r	.	.
8F#\J	.	8a\J	.	.	.	8F#\J	tam	.	.	.	.	.	.	.	.	.	.
=153	=153	=153	=153	=153	=153	=153	=153	=153	=153	=153	=153	=153	=153	=153	=153	=153	=153
!LO:LB:g=original	!	!	!	!	!	!	!	!	!	!	!	!LO:LB:g=original	!	!	!	!	!
8E\L	.	8g#X/L	.	4ee\	.	8E\L	.	2B\	ven-	2a\	ven	2ee\	ven-	4ee\	4ee\	2.ryy	2.ryy
8F#\	.	8a/	.	.	.	8F#\	ven-	.	.	.	.	.	.	.	.	.	.
8G#X\	.	8b/	.	4e/	.	8G#X\	.	.	.	.	.	.	.	4ee\	4ee\	.	.
8E\	.	8g#/	.	.	.	8E\	.	.	.	.	.	.	.	.	.	.	.
8F#\	.	8a/	.	4ee\	.	8F#\	.	4B\	.	4a\	.	4ee\	.	4ee\	4ee\	.	.
8G#\J	.	8b/J	.	.	.	8G#\J	.	.	.	.	.	.	.	.	.	.	.
=154	=154	=154	=154	=154	=154	=154	=154	=154	=154	=154	=154	=154	=154	=154	=154	=154	=154
!	!	!	!	!	!	!	!	!LO:LB:g=original	!	!	!	!	!	!	!	!	!
8A\L	.	8cc#X\L	.	2.ee\	.	8A\L	-tu-	2c#\	-tu-	2a\	-tu-	2ee\	-tu-	4ee\	4ee\	2.ryy	2.ryy
8B\	.	8dd\	.	.	.	8B\	.	.	.	.	.	.	.	.	.	.	.
8c#\	.	8ee\	.	.	.	8c#\	.	.	.	.	.	.	.	4r	4r	.	.
8B\	.	8dd\	.	.	.	8B\	.	.	.	.	.	.	.	.	.	.	.
8A\	.	8cc#\	.	.	.	8A\	.	4c#\	-ri	4a\	-ri	4ee\	-ri	4r	4r	.	.
8G\J	.	8b\J	.	.	.	8G#X\J	-ri	.	.	.	.	.	.	.	.	.	.
=155	=155	=155	=155	=155	=155	=155	=155	=155	=155	=155	=155	=155	=155	=155	=155	=155	=155
!	!	!	!	!LO:PB:g=original	!	!	!	!	!	!	!	!	!	!	!LO:LB:g=original	!	!
!	!	!	!	!	!	!	!	!LO:SIC:o:s=:v:tekst:sae	!	!	!	!	!	!	!	!	!
8F#\L	.	8a#X/L	.	4ff#\	.	8F#\L	sae-	2c#\	se-	2f#\	sae-	2ff#\	sae-	4ff#\	4ff#\	2.ryy	2.ryy
8G#X\	.	8b/	.	.	.	8G#X\	.	.	.	.	.	.	.	.	.	.	.
!LO:SIC:o:s=:v:A#	!	!	!	!	!	!	!	!	!	!	!	!	!	!	!	!	!
8A\	.	8cc#/	.	4f#/	.	8A#X\	.	.	.	.	.	.	.	4ff#\	4ff#\	.	.
8F#\	.	8a#/	.	.	.	8F#\	.	.	.	.	.	.	.	.	.	.	.
8G#\	.	8b/	.	4ff#\	.	8G#\	.	4c#\	-cu-	4f#\	-cu-	4ff#\	-cu-	4ff#\	4ff#\	.	.
!LO:SIC:o:s=:v:A#	!	!	!	!	!	!	!	!	!	!	!	!	!	!	!	!	!
8A\J	.	8cc#/J	.	.	.	8A#\J	cu-	.	.	.	.	.	.	.	.	.	.
=156	=156	=156	=156	=156	=156	=156	=156	=156	=156	=156	=156	=156	=156	=156	=156	=156	=156
!	!	!LO:LB:g=original	!	!	!	!	!	!	!	!	!	!	!	!	!	!	!
8B\L	.	8dd\L	.	2.ff#\	.	8B\L	.	2d\	-li	2.f#\	-li	2.ff#\	-li	4ff#\	4ff#\	2.ryy	2.ryy
8c#\	.	8ee\	.	.	.	8c#\	.	.	.	.	.	.	.	.	.	.	.
8d\	.	8ff#\	.	.	.	8d\	.	.	.	.	.	.	.	4r	4r	.	.
8c#\	.	8ee\	.	.	.	8c#\	.	.	.	.	.	.	.	.	.	.	.
8B\	.	8dd\	.	.	.	8B\	.	4d\	.	.	.	.	.	4r	4r	.	.
8An\J	.	8cc#\J	.	.	.	8An\J	li	.	.	.	.	.	.	.	.	.	.
=157	=157	=157	=157	=157	=157	=157	=157	=157	=157	=157	=157	=157	=157	=157	=157	=157	=157
8Gn\L	.	8b\L	.	4gg\	.	8Gn\L	a-	2e\	a-	2g\	a-	2gg\	a-	4ee\	4gg\	2.ryy	2.ryy
8A\	.	8cc#\	.	.	.	8A\	.	.	.	.	.	.	.	.	.	.	.
8B\	.	8dd\	.	4gg\	.	8B\	.	.	.	.	.	.	.	4ee\	4gg\	.	.
8G\	.	8b\	.	.	.	8G\	.	.	.	.	.	.	.	.	.	.	.
8A\	.	8cc#\	.	4ff#\	.	8A\	.	4d\	.	4g\	.	4ff#\	.	4dd\	4ff#\	.	.
8B\J	.	8dd\J	.	.	.	8B\J	.	.	.	.	.	.	.	.	.	.	.
=158	=158	=158	=158	=158	=158	=158	=158	=158	=158	=158	=158	=158	=158	=158	=158	=158	=158
!	!	!	!	!	!	!	!	!	!	!LO:LB:g=original	!	!	!	!	!	!	!
4A\	.	8cc#\L	.	8ee\L	.	4A\	-men	4c#\	-men	4a\	-men	4ee\	-men	4a/	4ee\	2.ryy	2.ryy
.	.	8aa\	.	8aa\	.	.	.	.	.	.	.	.	.	.	.	.	.
4r	.	8ee\	.	8ee\	.	4r	.	4r	.	4r	.	4r	.	8a/L	8ee\L	.	.
.	.	8cc#\J	.	8cc#\J	.	.	.	.	.	.	.	.	.	8a/J	8ee\J	.	.
4r	.	4a/	.	4a/	.	4r	.	4r	.	4r	.	4r	.	4a/	4ee\	.	.
=159	=159	=159	=159	=159	=159	=159	=159	=159	=159	=159	=159	=159	=159	=159	=159	=159	=159
!	!	!	!	!	!	!LO:LB:g=original	!	!	!	!	!	!	!	!	!	!	!
4D\	.	4a\	.	4ff#\	.	2d\	a-	2A\	a-	2a\	a-	2ff#\	a-	4dd\	4ff#\	2.ryy	2.ryy
4d\	.	4a\	.	4ff#\	.	.	.	.	.	.	.	.	.	4dd\	4ff#\	.	.
4d\	.	4a\	.	4ff#\	.	4d\	-men	4A\	-men	4a\	-men	4ff#\	-men-	4dd\	4ff#\	.	.
=160	=160	=160	=160	=160	=160	=160	=160	=160	=160	=160	=160	=160	=160	=160	=160	=160	=160
!	!	!	!	!	!	!	!	!	!	!	!	!	!	!LO:LB:g=original	!	!	!
*	*	*	*	*	*	*	*ij	*	*	*	*ij	*	*	*	*	*	*
4G#X\	.	2.dd\	.	2.ff#\	.	2G#X\	a-	2d\	a-	2a\	a-	2ff#\	.	2.dd\	2.ff#\	2.ryy	2.ryy
4G#\	.	.	.	.	.	.	.	.	.	.	.	.	.	.	.	.	.
4G#\	.	.	.	.	.	4G#\	-men	4d\	-men	4a\	-men	4ff#\	.	.	.	.	.
=161	=161	=161	=161	=161	=161	=161	=161	=161	=161	=161	=161	=161	=161	=161	=161	=161	=161
!LO:LB:g=original	!	!	!	!	!	!	!	!	!	!	!	!	!	!	!	!	!
4c#\	.	4a\	.	4ee\	.	2c#\	a-	2A\	a-	2a\	a-	2ee\	-a-	4a/	4ee\	2.ryy	2.ryy
4c#\	.	4a\	.	4ee\	.	.	.	.	.	.	.	.	.	4a/	4ee\	.	.
4c#\	.	4a\	.	4ee\	.	4c#\	-men	4A\	-men	4a\	-men	4ee\	-men-	4a/	4ee\	.	.
=162	=162	=162	=162	=162	=162	=162	=162	=162	=162	=162	=162	=162	=162	=162	=162	=162	=162
4F#\	.	2.cc#\	.	2.ee\	.	2F#\	a-	2c#\	a-	2a\	a-	2ee\	.	2.a/	2.ee\	2.ryy	2.ryy
4F#\	.	.	.	.	.	.	.	.	.	.	.	.	.	.	.	.	.
4F#\	.	.	.	.	.	4F#\	-men	4c#\	-men	4a\	-men	4ee\	.	.	.	.	.
*	*	*	*	*	*	*	*Xij	*	*	*	*	*	*	*	*	*	*
=163	=163	=163	=163	=163	=163	=163	=163	=163	=163	=163	=163	=163	=163	=163	=163	=163	=163
!	!	!	!	!	!	!	!	!	!	!	!	!LO:LB:g=original	!	!	!	!	!
4B\	.	4g#X/	.	4dd\	.	4B\	a-	2G/	a-	2f#\	a-	2dd\	.	4dd\	4dd\	2.ryy	2.ryy
8B\L	.	4g#/	.	4dd\	.	8B\L	.	.	.	.	.	.	.	4dd\	4dd\	.	.
8A\	.	.	.	.	.	8An\J	.	.	.	.	.	.	.	.	.	.	.
8G\	.	4b/	.	4dd\	.	8Gn\L	.	4B/	-men	4f#\	-men	4dd\	.	4dd\	4dd\	.	.
8F#\J	.	.	.	.	.	8F#\J	.	.	.	.	.	.	.	.	.	.	.
=164	=164	=164	=164	=164	=164	=164	=164	=164	=164	=164	=164	=164	=164	=164	=164	=164	=164
4A\	.	4cc#\	.	4ee\	.	4A\	.	2c#\	a-	2a\	a-	2ee\	.	4a/	4ee\	2.ryy	2.ryy
4G\	.	4ee\	.	4ccc#\	.	4G\	.	.	.	.	.	.	.	4a/	4ee\	.	.
4F#\	.	4ff#\	.	4ddd\	.	4F#\	.	4d\	-men	4a\	-men	4ff#\	.	4dd\	4ff#\	.	.
*	*	*	*	*	*	*	*	*	*	*	*Xij	*	*	*	*	*	*
=165	=165	=165	=165	=165	=165	=165	=165	=165	=165	=165	=165	=165	=165	=165	=165	=165	=165
!	!	!	!	!LO:PB:g=original	!	!	!	!	!	!	!	!	!	!	!	!	!
4D\	.	4a\	.	4ff#\	.	8D\	.	4A/	a-	4dd\	a-	4ff#\	a-	4dd\	4ff#\	2.ryy	2.ryy
.	.	.	.	.	.	8D\	.	.	.	.	.	.	.	.	.	.	.
4A\	.	4cc#\	.	4ee\	.	4A\	.	4c#\	.	4a\	.	4ff#\	.	4a/	4ee\	.	.
4AA/	.	4ee\	.	4ccc#\	.	4AA/	.	4c#\	.	4a\	.	4ee\	.	4a/	4ee\	.	.
=166	=166	=166	=166	=166	=166	=166	=166	=166	=166	=166	=166	=166	=166	=166	=166	=166	=166
!	!	!LO:LB:g=original	!	!	!	!	!	!LO:LB:g=original	!	!	!	!	!	!	!	!	!
4D\	.	4ff#\	.	4ddd\	.	4D\	.	4d\	.	4d\	.	4ff#\	.	4dd\	4ff#\	2.ryy	2.ryy
4D\	.	4a/	.	4ff#\	.	4D\	.	4A\	.	4a\	.	4ff#\	.	4r	4r	.	.
4BB/	.	4dd\	.	4ff#\	.	4BB/	.	4d\	.	4a\	.	4ff#\	.	4r	4r	.	.
=167	=167	=167	=167	=167	=167	=167	=167	=167	=167	=167	=167	=167	=167	=167	=167	=167	=167
!	!	!	!	!	!	!	!	!	!	!	!	!	!	!	!LO:LB:g=original	!	!
!	!	!	!	!	!	!	!	!	!	!	!	!	!	!LO:TX:a:t=1	!	!	!
4E\	.	2b\	.	2gg#X\	.	4E\	.	2B\	.	2a\	.	2gg#X\	.	2.r	2.r	2.ryy	2.ryy
4D\	.	.	.	.	.	4D\	.	.	.	.	.	.	.	.	.	.	.
4C#\	.	4cc#\	.	4aa\	.	4C#\	-men	4c#\	-men	4d\	-men	4aa\	-men-	.	.	.	.
=168	=168	=168	=168	=168	=168	=168	=168	=168	=168	=168	=168	=168	=168	=168	=168	=168	=168
!	!	!	!	!	!	!	!	!	!	!LO:LB:g=original	!	!	!	!	!	!	!
!	!	!	!	!	!	!	!	!	!	!LO:N:vis=00	!	!	!	!	!	!	!
4A\	.	4e/	.	4cc#\	.	4A\	a-	4E/	a-	0.r	.	4cc#\	.	4r	4r	2.ryy	2.ryy
2E\	.	4g#X/	.	4b\	.	2E\	.	4G#X/	.	.	.	4cc#\	.	4r	4r	.	.
.	.	4b/	.	4gg#X\	.	.	.	4G#/	.	.	.	4b\	.	8ee\L	8ee\L	.	.
.	.	.	.	.	.	.	.	.	.	.	.	.	.	8ee\J	8ee\J	.	.
=169	=169	=169	=169	=169	=169	=169	=169	=169	=169	=169	=169	=169	=169	=169	=169	=169	=169
4AA/	.	4cc#\	.	4aa\	.	4AA/	.	4A\	.	.	.	4cc#\	.	4a/	4ee\	2.ryy	2.ryy
4D/	.	4b\	.	4ff#\	.	4D/	.	4c#\	.	.	.	4dd\	.	4r	4r	.	.
4BB/	.	4dd\	.	4bb\	.	4BB/	.	4B\	.	.	.	4dd\	.	4r	4r	.	.
=170	=170	=170	=170	=170	=170	=170	=170	=170	=170	=170	=170	=170	=170	=170	=170	=170	=170
.	.	8qqdd/	.	.	.	.	.	.	.	.	.	.	.	.	.	.	.
!	!	!	!	!	!	!	!	!	!	!	!	!	!	!LO:TX:a:t=1	!	!	!
!	!	!	!	!	!	!	!	!	!	!	!	!	!	!LO:N:vis=1	!LO:N:vis=1	!	!
4F#\	.	2cc#\	.	2aa#X\	.	4F#\	.	2A#X\	.	.	.	2cc#\	.	2.r	2.r	2.ryy	2.ryy
4E\	.	.	.	.	.	4E\	.	.	.	.	.	.	.	.	.	.	.
4D\	.	4dd\	.	4bb\	.	4D\	.	4B\	.	.	.	4dd\	.	.	.	.	.
=171	=171	=171	=171	=171	=171	=171	=171	=171	=171	=171	=171	=171	=171	=171	=171	=171	=171
!	!	!	!	!	!	!LO:LB:g=original	!	!	!	!	!	!	!	!	!	!	!
4BB/	.	4f#/	.	4dd\	.	4BB/	.	4B\	.	.	.	4dd\	.	4r	4r	2.ryy	2.ryy
4F#\	.	4a#X/	.	4cc#\	.	4F#\	.	4A#X\	.	.	.	4dd\	.	4r	4r	.	.
4F#\	.	4cc#/	.	4aa#X\	.	4F#\	.	4A#\	.	.	.	4cc#\	.	8f#/L	8f#/L	.	.
.	.	.	.	.	.	.	.	.	.	.	.	.	.	8f#/J	8f#/J	.	.
=172	=172	=172	=172	=172	=172	=172	=172	=172	=172	=172	=172	=172	=172	=172	=172	=172	=172
!LO:LB:g=original	!	!	!	!	!	!	!	!	!	!	!	!LO:LB:g=original	!	!	!	!	!
4BB/	.	4dd\	.	4bb\	.	4BB/	.	4B\	.	4r	.	4dd\	.	4f#/	4f#/	2.ryy	2.ryy
4F#\	.	4dd\	.	4aan\	.	4F#/	.	4An\	.	4a\	a-	4ff#\	.	4r	4r	.	.
4D\	.	4ff#\	.	4ddd\	.	4D/	.	4d\	.	4a\	-men	4ff#\	.	4dd\	4ff#\	.	.
=173	=173	=173	=173	=173	=173	=173	=173	=173	=173	=173	=173	=173	=173	=173	=173	=173	=173
*	*	*	*	*	*	*	*	*	*ij	*	*ij	*	*	*	*	*	*
4A\	.	2ee\	.	2ccc#\	.	4A\	.	2c#\	a-	2a\	a-	2ee\	.	2a/	2ee\	2.ryy	2.ryy
4G\	.	.	.	.	.	4G\	.	.	.	.	.	.	.	.	.	.	.
4F#\	.	4ff#\	.	4ddd\	.	4F#\	.	4d\	-men	4a\	-men	4ff#\	.	4dd\	4ff#\	.	.
=174	=174	=174	=174	=174	=174	=174	=174	=174	=174	=174	=174	=174	=174	=174	=174	=174	=174
4D\	.	4a\	.	4ff#\	.	4D\	.	4A\	a-	4dd\	a-	4ff#\	.	4dd\	4ff#\	2.ryy	2.ryy
4A\	.	4cc#\	.	4ee\	.	4A\	.	4c#\	.	4a\	.	4ff#\	.	2a/	2ee\	.	.
4AA/	.	4ee\	.	4ccc#\	.	4AA/	.	4c#\	-men	4a\	-men	4ee\	.	.	.	.	.
=175	=175	=175	=175	=175	=175	=175	=175	=175	=175	=175	=175	=175	=175	=175	=175	=175	=175
!	!	!	!	!LO:PB:g=original	!	!	!	!	!	!	!	!	!	!LO:LB:g=original	!	!	!
4D\	.	4ff#\	.	4ddd\	.	4D\	.	4d\	a-	4a\	a-	4ff#\	.	4dd\	4ff#\	2.ryy	2.ryy
4d\	.	4ff#\	.	4aa\	.	4d\	.	4A\	.	4a\	.	4ff#\	.	4dd\	4ff#\	.	.
4c#\	.	4ee\	.	4aa\	.	4c#\	.	4A\	-men	4a\	-men	4ee\	.	4a/	4ee\	.	.
=176	=176	=176	=176	=176	=176	=176	=176	=176	=176	=176	=176	=176	=176	=176	=176	=176	=176
2d\	.	2ff#\	.	2aa\	.	2d\	.	2A\	a-	2a\	a-	2ff#\	.	2dd\	2ff#\	2.ryy	2.ryy
4A\	.	4ee\	.	4aa\	.	4A\	-men	4A\	-men	4a\	-men	4ee\	.	4a/	4ee\	.	.
=177	=177	=177	=177	=177	=177	=177	=177	=177	=177	=177	=177	=177	=177	=177	=177	=177	=177
!	!	!LO:LB:g=original	!	!	!	!	!	!	!	!	!	!	!	!	!	!	!
8D\L	.	8f#/L	.	4dd\	.	8D\L	a-	2A\	a-	2f#\	a-	2dd\	.	4dd\	4dd\	2.ryy	2.ryy
8E\	.	8g/	.	.	.	8E\	.	.	.	.	.	.	.	.	.	.	.
8F#\	.	8a/	.	4d/	.	8F#\	.	.	.	.	.	.	.	4dd\	4dd\	.	.
8D\	.	8f#/	.	.	.	8D\	.	.	.	.	.	.	.	.	.	.	.
8E\	.	8g/	.	4dd\	.	8E\	.	4A\	-men	4f#\	-men	4dd\	.	4dd\	4dd\	.	.
8F#\J	.	8a/J	.	.	.	8F#\J	.	.	.	.	.	.	.	.	.	.	.
=178	=178	=178	=178	=178	=178	=178	=178	=178	=178	=178	=178	=178	=178	=178	=178	=178	=178
8G\L	.	8b\L	.	2.dd\	.	8G\L	.	2B\	a-	2f#\	a-	2dd\	.	4dd\	4dd\	2.ryy	2.ryy
8A\	.	8ccn\	.	.	.	8A\	.	.	.	.	.	.	.	.	.	.	.
8B\	.	8dd\	.	.	.	8B\	.	.	.	.	.	.	.	4r	4r	.	.
8A\	.	8cc\	.	.	.	8A\	.	.	.	.	.	.	.	.	.	.	.
8G\	.	8b\	.	.	.	8G\	.	4B\	-men	4f#\	-men	4dd\	.	4r	4r	.	.
8F#\J	.	8a\J	.	.	.	8F#\J	.	.	.	.	.	.	.	.	.	.	.
=179	=179	=179	=179	=179	=179	=179	=179	=179	=179	=179	=179	=179	=179	=179	=179	=179	=179
!	!	!	!	!	!	!	!	!	!	!	!	!	!	!	!LO:LB:g=original	!	!
8E\L	.	8g#X/L	.	4ee\	.	8E\L	.	2B\	a-	2a\	a-	2ee\	.	4ee\	4ee\	2.ryy	2.ryy
8F#\	.	8a/	.	.	.	8F#\	.	.	.	.	.	.	.	.	.	.	.
8G#X\	.	8b/	.	4e/	.	8G#X\	.	.	.	.	.	.	.	4ee\	4ee\	.	.
8E\	.	8g#/	.	.	.	8E\	.	.	.	.	.	.	.	.	.	.	.
8F#\	.	8a/	.	4ee\	.	8F#\	.	4B\	-men	4a\	-men	4ee\	.	4ee\	4ee\	.	.
8G#\J	.	8b/J	.	.	.	8G#\J	.	.	.	.	.	.	.	.	.	.	.
=180	=180	=180	=180	=180	=180	=180	=180	=180	=180	=180	=180	=180	=180	=180	=180	=180	=180
8A\L	.	8cc#X\L	.	2.ee\	.	8A\L	.	2c#\	a-	2a\	a-	2ee\	.	4ee\	4ee\	2.ryy	2.ryy
8B\	.	8dd\	.	.	.	8B\	.	.	.	.	.	.	.	.	.	.	.
8c#\	.	8ee\	.	.	.	8c#\	.	.	.	.	.	.	.	4r	4r	.	.
8B\	.	8dd\	.	.	.	8B\	.	.	.	.	.	.	.	.	.	.	.
8A\	.	8cc#\	.	.	.	8A\	.	4c#\	-men	4a\	-men	4ee\	.	4r	4r	.	.
8G#X\J	.	8b\J	.	.	.	8G#X\J	.	.	.	.	.	.	.	.	.	.	.
=181	=181	=181	=181	=181	=181	=181	=181	=181	=181	=181	=181	=181	=181	=181	=181	=181	=181
!LO:LB:g=original	!	!	!	!	!	!LO:LB:g=original	!	!	!	!LO:PB:g=original	!	!LO:LB:g=original	!	!	!	!	!
8F#\L	.	8a#X\L	.	4ff#\	.	8F#\L	.	2c#\	a-	2dd\	a-	2ff#\	.	4ff#\	4ff#\	2.ryy	2.ryy
8G#X\	.	8b\	.	.	.	8G#X\	.	.	.	.	.	.	.	.	.	.	.
8A#X\	.	8cc#\	.	4f#/	.	8A#X\	.	.	.	.	.	.	.	4ff#\	4ff#\	.	.
8F#\	.	8a#\	.	.	.	8F#\	.	.	.	.	.	.	.	.	.	.	.
8G#\	.	8b\	.	4ff#\	.	8G#\	.	4c#\	-men	4a\	-men	4ff#\	.	4ff#\	4ff#\	.	.
8A#\J	.	8cc#\J	.	.	.	8A#\J	.	.	.	.	.	.	.	.	.	.	.
=182	=182	=182	=182	=182	=182	=182	=182	=182	=182	=182	=182	=182	=182	=182	=182	=182	=182
8B\L	.	8dd\L	.	2.ff#\	.	8B\L	.	2d\	a-	2a\	a-	2ff#\	.	4ff#\	4ff#\	2.ryy	2.ryy
8c#\	.	8ee\	.	.	.	8c#\	.	.	.	.	.	.	.	.	.	.	.
8d\	.	8ff#\	.	.	.	8d\	.	.	.	.	.	.	.	4r	4r	.	.
8c#\	.	8ee\	.	.	.	8c#\	.	.	.	.	.	.	.	.	.	.	.
8B\	.	8dd\	.	.	.	8B\	.	4d\	-men	4a\	-men	4ff#\	.	4r	4r	.	.
8A\J	.	8cc#\J	.	.	.	8A\J	.	.	.	.	.	.	.	.	.	.	.
*	*	*	*	*	*	*	*	*	*Xij	*	*	*	*	*	*	*	*
=183	=183	=183	=183	=183	=183	=183	=183	=183	=183	=183	=183	=183	=183	=183	=183	=183	=183
8Gn\L	.	8b\L	.	4gg\	.	8Gn\L	.	(4B\	a-	4d\	a-	4gg\	-a-	4ee\	4gg\	2.ryy	2.ryy
8A\	.	8cc#\	.	.	.	8A\	.	.	.	.	.	.	.	.	.	.	.
8B\	.	8dd\	.	4gg\	.	8B\	.	4e\	.	4e\	.	4gg\	.	4ee\	4gg\	.	.
8G\	.	8cc#\	.	.	.	8G\	.	.	.	.	.	.	.	.	.	.	.
8A\	.	8b\	.	4ff#\	.	8A\	.	4d\)	.	4f#\	.	4ff#\	.	4dd\	4ff#\	.	.
8B\J	.	8a\J	.	.	.	8B\J	.	.	.	.	.	.	.	.	.	.	.
=184	=184	=184	=184	=184	=184	=184	=184	=184	=184	=184	=184	=184	=184	=184	=184	=184	=184
4A\	.	8cc#\L	.	8ee\L	.	4A\	-men	4c#\	-men	4a\	-men	4ee\	-men	4a/	4ee\	2.ryy	2.ryy
.	.	8aa\	.	8aa\	.	.	.	.	.	.	.	.	.	.	.	.	.
4r	.	8ee\	.	8ee\	.	4r	.	4r	.	4r	.	4r	.	8a/L	8ee\L	.	.
.	.	8cc#\J	.	8cc#\J	.	.	.	.	.	.	.	.	.	8a/J	8ee\J	.	.
4r	.	4a/	.	4a/	.	4r	.	4r	.	4r	.	4r	.	4a/	4ee\	.	.
=185	=185	=185	=185	=185	=185	=185	=185	=185	=185	=185	=185	=185	=185	=185	=185	=185	=185
!	!	!LO:LB:g=original	!	!LO:PB:g=original	!	!	!	!	!	!	!	!	!	!	!	!	!
2d\	.	4a/	.	4ff#\	.	2d\	a-	2A/	a-	2d\	a-	2ff#\	a-	4dd\	4ff#\	2.ryy	2.ryy
.	.	4a/	.	4ff#\	.	.	.	.	.	.	.	.	.	4dd\	4ff#\	.	.
4d\	.	4a/	.	4ff#\	.	4d\	-men	4A/	.	4d\	-men	4ff#\	-men-	4dd\	4ff#\	.	.
=186	=186	=186	=186	=186	=186	=186	=186	=186	=186	=186	=186	=186	=186	=186	=186	=186	=186
*	*	*	*	*	*	*	*ij	*	*	*	*	*	*	*	*	*	*
2G#X\	.	2.dd\	.	2.ff#\	.	4G#X\	a-	2d\	.	2d\	a-	2ff#\	.	2.dd\	2.ff#\	2.ryy	2.ryy
.	.	.	.	.	.	2G#\	-men	.	.	.	.	.	.	.	.	.	.
4G#\	.	.	.	.	.	.	.	4d\	.	4d\	-men	4ff#\	.	.	.	.	.
=187	=187	=187	=187	=187	=187	=187	=187	=187	=187	=187	=187	=187	=187	=187	=187	=187	=187
2c#\	.	4a/	.	4ee\	.	2c#\	a-	2A\	.	2a\	a-	2ee\	-a-	4a/	4ee\	2.ryy	2.ryy
.	.	4a/	.	4ee\	.	.	.	.	.	.	.	.	.	4a/	4ee\	.	.
4c#\	.	4a/	.	4ee\	.	4c#\	-men	4A\	.	4a\	-men	4ee\	-men-	4a/	4ee\	.	.
=188	=188	=188	=188	=188	=188	=188	=188	=188	=188	=188	=188	=188	=188	=188	=188	=188	=188
2F#\	.	2.cc#\	.	2.ee\	.	2F#\	a-	2c#\	.	2a\	a-	2ee\	.	2.a/	2.ee\	2.ryy	2.ryy
4F#\	.	.	.	.	.	4F#\	-men	4c#\	.	4a\	-men	4ee\	.	.	.	.	.
*	*	*	*	*	*	*	*Xij	*	*	*	*	*	*	*	*	*	*
=189	=189	=189	=189	=189	=189	=189	=189	=189	=189	=189	=189	=189	=189	=189	=189	=189	=189
!	!	!	!	!	!	!	!	!	!	!	!	!	!	!	!LO:LB:g=original	!	!
4B\	.	4g/	.	4dd\	.	4B\	a-	2G/	.	2f#\	a-	2dd\	-a-	4dd\	4dd\	2.ryy	2.ryy
8B\L	.	4g/	.	4dd\	.	8B\L	.	.	.	.	.	.	.	4dd\	4dd\	.	.
8A\	.	.	.	.	.	8A\J	.	.	.	.	.	.	.	.	.	.	.
8Gn\	.	4b/	.	4dd\	.	8Gn\L	.	4B/	.	4f#\	-men	4dd\	-men-	4dd\	4dd\	.	.
8F#\J	.	.	.	.	.	8F#\J	.	.	.	.	.	.	.	.	.	.	.
=190	=190	=190	=190	=190	=190	=190	=190	=190	=190	=190	=190	=190	=190	=190	=190	=190	=190
!LO:LB:g=original	!	!	!	!	!	!	!	!	!	!LO:LB:g=original	!	!LO:LB:g=original	!	!	!	!	!
4A\	.	4cc#\	.	4ee\	.	4A\	.	2c#\	.	2a\	a-	2ee\	.	2a/	2ee\	2.ryy	2.ryy
4G\	.	4ee\	.	4ccc#\	.	4G\	.	.	.	.	.	.	.	.	.	.	.
4F#\	.	4ff#\	.	4ddd\	.	4F#\	.	4d\	.	4a\	-men	4ff#\	.	4dd\	4ff#\	.	.
*	*	*	*	*	*	*	*	*	*	*	*Xij	*	*	*	*	*	*
=191	=191	=191	=191	=191	=191	=191	=191	=191	=191	=191	=191	=191	=191	=191	=191	=191	=191
!	!	!	!	!	!	!	!	!LO:LB:g=original	!	!	!	!	!	!LO:LB:g=original	!	!	!
4D\	.	4a\	.	4ff#\	.	4D\	.	4A/	a-	4dd\	a-	4ff#\	-a-	4dd\	4ff#\	2.ryy	2.ryy
4A\	.	4cc#\	.	4ee\	.	4A\	.	4c#/	.	4a\	.	4ff#\	.	2a/	2ee\	.	.
4AA/	.	4ee\	.	4ccc#\	.	4AA/	.	4c#/	.	4a\	.	4ee\	.	.	.	.	.
=192	=192	=192	=192	=192	=192	=192	=192	=192	=192	=192	=192	=192	=192	=192	=192	=192	=192
!	!	!	!	!	!	!LO:LB:g=original	!	!	!	!LO:LB:g=original	!	!	!	!	!	!	!
4D\	.	8ff#\L	.	8ddd\L	.	4D\	-men	4d\	-men	4a\	-men	4ff#\	-men	4dd\	4ff#\	2.ryy	2.ryy
.	.	8ddd\	.	8ddd\	.	.	.	.	.	.	.	.	.	.	.	.	.
4r	.	8aa\	.	8aa\	.	4r	.	4r	.	4r	.	4r	.	8dd\L	8ff#\L	.	.
.	.	8ff#\J	.	8ff#\J	.	.	.	.	.	.	.	.	.	8dd\J	8ff#\J	.	.
4r	.	4dd\	.	4dd\	.	4r	.	4r	.	4r	.	4r	.	4dd\	4ff#\	.	.
=193	=193	=193	=193	=193	=193	=193	=193	=193	=193	=193	=193	=193	=193	=193	=193	=193	=193
4D/	.	4a/	.	4ff#\	.	2d\	a-	2A\	A-	2d\	a-	2ff#\	a-	4dd\	4ff#\	2.ryy	2.ryy
4d\	.	4a/	.	4ff#\	.	.	.	.	.	.	.	.	.	4dd\	4ff#\	.	.
4d\	.	4a/	.	4ff#\	.	4d\	-men	4A\	-men	4d\	-men	4ff#\	.	4dd\	4ff#\	.	.
=194	=194	=194	=194	=194	=194	=194	=194	=194	=194	=194	=194	=194	=194	=194	=194	=194	=194
!	!	!	!	!LO:PB:g=original	!	!	!	!	!	!	!	!	!	!	!	!	!
*	*	*	*	*	*	*	*ij	*	*ij	*	*	*	*	*	*	*	*
4G#X\	.	2.dd\	.	2.ff#\	.	2G#X\	a-	2d\	A-	2d\	a-	2ff#\	.	4dd\	4ff#\	2.ryy	2.ryy
4G#\	.	.	.	.	.	.	.	.	.	.	.	.	.	4r	4r	.	.
4G#\	.	.	.	.	.	4G#\	-men	4d\	-men	4d\	-men	4ff#\	.	4r	4r	.	.
=195	=195	=195	=195	=195	=195	=195	=195	=195	=195	=195	=195	=195	=195	=195	=195	=195	=195
!!pagebreak:original
4c#\	.	4a/	.	4ee\	.	2c#\	a-	2A\	A-	2a\	a-	2ee\	.	4a/	4ee\	2.ryy	2.ryy
4c#\	.	4a/	.	4ee\	.	.	.	.	.	.	.	.	.	4a/	4ee\	.	.
4c#\	.	4a/	.	4ee\	.	4c#\	-men	4A\	-men	4a\	-men	4ee\	.	4a/	4ee\	.	.
=196	=196	=196	=196	=196	=196	=196	=196	=196	=196	=196	=196	=196	=196	=196	=196	=196	=196
4F#\	.	2.cc#\	.	2.ee\	.	2F#\	a-	2c#\	A-	2a\	a-	2ee\	.	4a/	4ee\	2.ryy	2.ryy
4F#\	.	.	.	.	.	.	.	.	.	.	.	.	.	4r	4r	.	.
4F#\	.	.	.	.	.	4F#\	-men	4c#\	-men	4a\	-men	4ee\	.	4r	4r	.	.
*	*	*	*	*	*	*	*Xij	*	*	*	*	*	*	*	*	*	*
=197	=197	=197	=197	=197	=197	=197	=197	=197	=197	=197	=197	=197	=197	=197	=197	=197	=197
!	!	!LO:LB:g=original	!	!	!	!	!	!	!	!	!	!	!	!	!	!	!
4B\	.	4g/	.	4dd\	.	4B\	a-	2G/	A-	2f#\	a-	2dd\	.	4dd\	4dd\	2.ryy	2.ryy
8B\L	.	4g/	.	4dd\	.	8B\L	.	.	.	.	.	.	.	4dd\	4dd\	.	.
8A\	.	.	.	.	.	8A\J	.	.	.	.	.	.	.	.	.	.	.
8G\	.	4b/	.	4dd\	.	8Gn\L	.	4B/	-men	4f#\	-men	4dd\	.	4dd\	4dd\	.	.
8F#\J	.	.	.	.	.	8F#\J	.	.	.	.	.	.	.	.	.	.	.
=198	=198	=198	=198	=198	=198	=198	=198	=198	=198	=198	=198	=198	=198	=198	=198	=198	=198
4A\	.	4cc#\	.	4ee\	.	4A\	.	2c#\	A-	2a\	a-	2ee\	.	4a/	4ee\	2.ryy	2.ryy
4G\	.	4ee\	.	4ccc#\	.	4G\	.	.	.	.	.	.	.	4a/	4ee\	.	.
4F#\	.	4ff#\	.	4ddd\	.	4F#\	.	4d\	-men	4a\	-men	4ff#\	.	4dd\	4ff#\	.	.
*	*	*	*	*	*	*	*	*	*Xij	*	*	*	*	*	*	*	*
=199	=199	=199	=199	=199	=199	=199	=199	=199	=199	=199	=199	=199	=199	=199	=199	=199	=199
!	!	!	!	!	!	!	!	!	!	!	!	!	!	!	!LO:LB:g=original	!	!
4D\	.	4a\	.	4ff#\	.	4D\	.	4A\	a-	4dd\	a-	4ff#\	a-	4dd\	4ff#\	2.ryy	2.ryy
4A\	.	4cc#\	.	4ee\	.	4A\	.	4c#\	.	4a\	.	4ff#\	.	4a/	4ee\	.	.
4AA/	.	4ee\	.	4ccc#\	.	4AA/	.	4c#\	.	4a\	.	4ee\	.	4a/	4ee\	.	.
=200	=200	=200	=200	=200	=200	=200	=200	=200	=200	=200	=200	=200	=200	=200	=200	=200	=200
!LO:LB;g=original	!	!	!	!	!	!	!	!	!	!	!	!LO:LB:g=original	!	!	!	!	!
4D\	.	4ff#\	.	4ddd\	.	4D\	-men-	4d\	-men	4a\	-men	4ff#\	men-	4dd\	4ff#\	2.ryy	2.ryy
*	*	*	*	*	*	*	*	*	*ij	*	*	*	*	*	*	*	*
8D\L	.	4ff#\	.	4aa\	.	8D\L	.	4A\	a-	4r	.	4ff#\	.	4dd\	4ff#\	.	.
8E\	.	.	.	.	.	8E\	-a	.	.	.	.	.	.	.	.	.	.
8F#\	.	4ff#\	.	4ddd\	.	8F#\	.	4d\	-men	4r	.	4ff#\	.	4dd\	4ff#\	.	.
8G\J	.	.	.	.	.	8G\J	.	.	.	.	.	.	.	.	.	.	.
*	*	*	*	*	*	*	*	*	*Xij	*	*	*	*	*	*	*	*
=201	=201	=201	=201	=201	=201	=201	=201	=201	=201	=201	=201	=201	=201	=201	=201	=201	=201
*	*	*	*	*	*	*	*	*	*	*	*ij	*	*	*	*	*	*
4A\	.	2ee\	.	2ccc#\	.	4A\	.	2c#\	a-	2a\	a-	2ee\	a-	2a/	2ee\	2.ryy	2.ryy
4G\	.	.	.	.	.	4G\	.	.	.	.	.	.	.	.	.	.	.
4F#\	.	4ff#\	.	4ddd\	.	4F#\	.	4d\	-men	4a\	-men	4ff#\	-men	4dd\	4ff#\	.	.
*	*	*	*	*	*	*	*	*	*	*	*Xij	*	*	*	*	*	*
=202	=202	=202	=202	=202	=202	=202	=202	=202	=202	=202	=202	=202	=202	=202	=202	=202	=202
8D\L	.	4a\	.	4ff#\	.	4d\	.	4A/	a-	4dd\	a-	4ff#\	a-	4dd\	4ff#\	2.ryy	2.ryy
8F#\J	.	.	.	.	.	.	.	.	.	.	.	.	.	.	.	.	.
4A\	.	4cc#\	.	4ee\	.	4A\	.	4c#\	.	4a\	.	4ff#\	.	4a/	4ee\	.	.
4AA/	.	4ee\	.	4ccc#\	.	4AA/	.	4c#\	.	4a\	.	4ee\	.	4a/	4ee\	.	.
=203	=203	=203	=203	=203	=203	=203	=203	=203	=203	=203	=203	=203	=203	=203	=203	=203	=203
4D\	.	4ff#\	.	4ddd\	.	4D\	-men	4d\	-men	4a\	-men	4ff#\	-men	4dd\	4ff#\	2.ryy	2.ryy
4r	.	4r	.	4r	.	4r	.	4r	.	4r	.	4r	.	4r	4r	.	.
4r	.	4r	.	4r	.	4r	.	4r	.	4r	.	4r	.	4r	4r	.	.
==	==	==	==	==	==	==	==	==	==	==	==	==	==	==	==	==	==
*-	*-	*-	*-	*-	*-	*-	*-	*-	*-	*-	*-	*-	*-	*-	*-	*-	*-
!!!system-decoration: [(s1,s2,s3,s4,)][(s5,s6,s7,s8,)][(s9,s10,s11)]
!!!RDF**kern: > = above
!!!RDF**kern: < = below
!!!EED: Leszek Kubiak
!!!EEV: 2020-06-19
!!!ENC: Andrzej Gręziak
!!!END: 2020-04-17
!!!YEC: Copyright 2022 Narodowy Instytut Fryderyka Chopina (https://polishscores.org)
!!!YEM: License CC-BY-4.0 (https://creativecommons.org/licenses/by/4.0)
